; generated by PrusaSlicer 2.5.0+MacOS-x64 on 2023-06-23 at 15:15:42 UTC


;
;
; 

; external perimeters extrusion width = 0.68mm
; perimeters extrusion width = 0.68mm
; infill extrusion width = 0.68mm
; solid infill extrusion width = 0.68mm
; top infill extrusion width = 0.60mm
; first layer extrusion width = 0.65mm

M73 P0 R49
M73 Q0 S50
M201 X1000 Y1000 Z200 E5000 ; sets maximum accelerations, mm/sec^2
M203 X200 Y200 Z12 E120 ; sets maximum feedrates, mm / sec
M204 P1250 R1250 T1250 ; sets acceleration (P, T) and retract acceleration (R), mm/sec^2
M205 X8.00 Y8.00 Z0.40 E4.50 ; sets the jerk limits, mm/sec
M205 S0 T0 ; sets the minimum extruding and travel feed rate, mm/sec
M107
;TYPE:Custom
M862.3 P "MK3S" ; printer model check
M862.1 P0.6 ; nozzle diameter check
M115 U3.12.2 ; tell printer latest fw version
G90 ; use absolute coordinates
M83 ; extruder relative mode
M104 S215 ; set extruder temp
M140 S60 ; set bed temp
M190 S60 ; wait for bed temp
M109 S215 ; wait for extruder temp
G28 W ; home all without mesh bed level
G80 ; mesh bed leveling

G1 Z0.2 F720
G1 Y-3 F1000 ; go outside print area
G92 E0
G1 X60 E9 F1000 ; intro line
G1 X100 E12.5 F1000 ; intro line

G92 E0
M221 S95

; Don't change E values below. Excessive value can damage the printer.

G21 ; set units to millimeters
G90 ; use absolute coordinates
M83 ; use relative distances for extrusion
M900 K0.04 ; Filament gcode LA 1.5
M900 K18 ; Filament gcode LA 1.0
M107
;LAYER_CHANGE
;Z:0.2
;HEIGHT:0.2
;BEFORE_LAYER_CHANGE
G92 E0.0
;0.2


G1 E-.8 F2100
G1 Z.4 F720
;AFTER_LAYER_CHANGE
;0.2
G1 X79.289 Y20.996 F10800
G1 Z.2 F720
G1 E.8 F2100
M204 S800
;TYPE:Skirt/Brim
;WIDTH:0.65
G1 F1200
G1 X80.052 Y18.654 E.12434
G1 X81.067 Y16.576 E.11677
G1 X82.471 Y14.503 E.12635
G1 X83.439 Y13.381 E.07483
G1 X85.251 Y11.712 E.12434
G1 X87.154 Y10.397 E.11676
G1 X88.423 Y9.711 E.07282
G1 X90.747 Y8.783 E.12635
G1 X92.994 Y8.234 E.11676
G1 X94.425 Y8.047 E.07282
G1 X96.737 Y8 E.11676
G1 X99.222 Y8.3 E.12635
G1 X101.637 Y8.959 E.12635
G1 X103.93 Y9.963 E.12635
G1 X105.209 Y10.712 E.07483
G1 X107.18 Y12.19 E.12434
G1 X108.944 Y13.966 E.12635
G1 X110.43 Y15.98 E.12635
G1 X111.607 Y18.189 E.12635
G1 X170.215 Y179.099 E8.6446
G1 X170.845 Y181.325 E.11676
G1 X171.084 Y182.748 E.07282
G1 X171.195 Y184.035 E.06523
G1 X171.157 Y186.308 E.11475
G1 X170.976 Y187.739 E.07282
G1 X170.711 Y189.004 E.06522
G1 X170.019 Y191.169 E.11476
G1 X169.433 Y192.488 E.07282
G1 X168.269 Y194.486 E.11676
G1 X167.411 Y195.646 E.07282
G1 X166.589 Y196.591 E.06322
G1 X164.898 Y198.169 E.11676
G1 X163.742 Y199.032 E.07283
G1 X162.682 Y199.7 E.06321
G1 X161.541 Y200.305 E.06522
G1 X159.434 Y201.159 E.11476
G1 X158.231 Y201.507 E.06322
G1 X156.818 Y201.798 E.07282
G1 X155.536 Y201.955 E.06522
G1 X153.263 Y202 E.11476
G1 X151.826 Y201.871 E.07282
G1 X150.591 Y201.662 E.06322
G1 X149.337 Y201.351 E.06522
G1 X147.198 Y200.581 E.11475
G1 X145.902 Y199.947 E.07282
G1 X144.823 Y199.311 E.06322
G1 X142.964 Y197.935 E.11676
G1 X142.041 Y197.089 E.06322
G1 X141.056 Y196.034 E.07282
G1 X140.276 Y195.054 E.06322
G1 X139.55 Y193.986 E.06522
G1 X138.471 Y191.985 E.11475
G1 X137.766 Y190.209 E.09648
G1 X79.785 Y30.901 E8.55775
G1 X79.116 Y28.489 E.12635
M73 Q0 S49
G1 X78.817 Y26.195 E.11676
G1 X78.787 Y24.753 E.07282
G1 X78.994 Y22.449 E.11676
G1 X79.271 Y21.084 E.07028
M204 S1000
; printing object 1st joint.stl id:0 copy 0
;WIPE_START
G1 F8640
G1 X80.052 Y18.654 E-.58942
G1 X80.376 Y17.99 E-.17058
;WIPE_END
G1 E-.04 F2100
G1 Z.6 F720
G1 X157.858 Y158.948 F10800
G1 Z.2 F720
M73 P1 R49
M73 Q1 S49
G1 E.8 F2100
M204 S800
;TYPE:Perimeter
;WIDTH:0.749834
G1 F1200
G1 X158.032 Y159.352 E.02588
;WIDTH:0.699917
G1 X158.205 Y159.757 E.02405
;WIDTH:0.649999
G1 X165.787 Y180.587 E1.11898
G1 X166.074 Y181.474 E.04706
G1 X166.29 Y182.36 E.046
G1 X166.441 Y183.258 E.04599
G1 X166.526 Y184.165 E.046
G1 X166.544 Y185.076 E.04599
G1 X166.496 Y185.986 E.046
G1 X166.382 Y186.89 E.04599
G1 X166.202 Y187.783 E.046
G1 X165.957 Y188.661 E.04599
G1 X165.649 Y189.519 E.04599
G1 X165.279 Y190.351 E.046
G1 X164.849 Y191.155 E.046
G1 X164.362 Y191.925 E.04599
G1 X163.82 Y192.657 E.046
G1 X163.226 Y193.348 E.04599
G1 X162.583 Y193.993 E.04599
G1 X161.894 Y194.59 E.046
G1 X161.164 Y195.136 E.04599
G1 X160.396 Y195.626 E.046
G1 X159.595 Y196.059 E.04599
G1 X158.763 Y196.432 E.04599
G1 X157.907 Y196.744 E.04599
G1 X157.031 Y196.992 E.04599
G1 X156.138 Y197.176 E.046
G1 X155.235 Y197.294 E.04599
G1 X154.325 Y197.346 E.046
G1 X153.414 Y197.331 E.04599
G1 X152.506 Y197.249 E.04599
G1 X151.607 Y197.102 E.046
G1 X150.721 Y196.89 E.04599
G1 X149.853 Y196.613 E.046
G1 X149.007 Y196.274 E.04599
G1 X148.189 Y195.874 E.04599
G1 X147.401 Y195.415 E.04599
G1 X146.65 Y194.9 E.046
G1 X145.938 Y194.331 E.046
G1 X145.269 Y193.712 E.04599
G1 X144.647 Y193.046 E.046
G1 X144.076 Y192.336 E.046
G1 X143.558 Y191.587 E.04599
G1 X143.096 Y190.802 E.04599
G1 X142.692 Y189.985 E.046
G1 X142.342 Y189.121 E.04706
G1 X134.924 Y168.74 E1.09485
;WIDTH:0.693043
G1 X134.864 Y168.513 E.01266
;WIDTH:0.736087
G1 X134.805 Y168.287 E.01349
;WIDTH:0.779131
G1 X134.745 Y168.06 E.01433
;WIDTH:0.822174
G1 X134.686 Y167.834 E.01517
G1 X134.72 Y167.875 E.00348
;WIDTH:0.806763
G1 X134.866 Y168.063 E.01511
;WIDTH:0.767572
G1 X135.012 Y168.25 E.01433
;WIDTH:0.728381
G1 X135.158 Y168.438 E.01356
;WIDTH:0.68919
G1 X135.304 Y168.626 E.01278
;WIDTH:0.649999
G1 X135.881 Y169.378 E.04785
G1 X136.514 Y170.084 E.04785
G1 X137.198 Y170.74 E.04785
G1 X137.929 Y171.343 E.04785
G1 X138.704 Y171.889 E.04785
G1 X139.519 Y172.374 E.04785
G1 X140.367 Y172.796 E.04785
G1 X141.245 Y173.154 E.04785
G1 X142.148 Y173.443 E.04785
G1 X143.07 Y173.664 E.04785
G1 X144.006 Y173.814 E.04785
G1 X144.95 Y173.893 E.04785
G1 X145.898 Y173.9 E.04785
G1 X146.844 Y173.836 E.04785
G1 X148.085 Y173.634 E.0635
G1 X148.707 Y173.494 E.03217
G1 X149.614 Y173.219 E.04785
G1 X150.497 Y172.875 E.04785
G1 X151.352 Y172.466 E.04785
G1 X152.174 Y171.993 E.04785
G1 X152.958 Y171.46 E.04785
G1 X154.012 Y170.578 E.0694
G1 X154.392 Y170.223 E.02626
G1 X155.036 Y169.526 E.04785
G1 X155.624 Y168.784 E.04785
G1 X156.155 Y167.998 E.04785
G1 X156.625 Y167.175 E.04785
G1 X157.032 Y166.319 E.04785
G1 X157.372 Y165.434 E.04785
G1 X157.645 Y164.526 E.04785
G1 X157.848 Y163.6 E.04785
G1 X157.98 Y162.662 E.04785
G1 X158.041 Y161.716 E.04785
G1 X158.031 Y160.768 E.04785
G1 X157.949 Y159.824 E.04785
;WIDTH:0.699917
G1 X157.903 Y159.386 E.02405
;WIDTH:0.749834
G1 X157.867 Y159.037 E.02059
M204 S1000
;WIPE_START
G1 F8640
G1 X158.032 Y159.352 E-.08204
G1 X158.205 Y159.757 E-.10165
G1 X159.059 Y162.102 E-.57631
;WIPE_END
G1 E-.04 F2100
G1 Z.6 F720
G1 X159.275 Y183.179 F10800
G1 Z.2 F720
G1 E.8 F2100
M204 S800
;WIDTH:0.649999
G1 F1200
G1 X159.279 Y183.463 E.01434
G1 X158.482 Y187.981 E.23155
G1 X158.385 Y188.259 E.01488
G1 X158.222 Y188.474 E.01365
G1 X157.996 Y188.635 E.01399
G1 X153.587 Y190.247 E.23699
G1 X153.207 Y190.299 E.01935
G1 X152.943 Y190.239 E.01365
G1 X152.69 Y190.089 E.01488
G1 X149.176 Y187.14 E.23155
G1 X148.961 Y186.878 E.01712
G1 X148.862 Y186.586 E.01555
G1 X148.864 Y186.285 E.01522
G1 X149.661 Y181.767 E.23155
G1 X149.8 Y181.42 E.01889
G1 X149.995 Y181.21 E.01445
G1 X150.246 Y181.07 E.01454
G1 X154.557 Y179.501 E.23155
G1 X154.795 Y179.449 E.01229
G1 X155.157 Y179.493 E.01841
G1 X155.454 Y179.659 E.01718
G1 X158.968 Y182.607 E.23155
G1 X159.171 Y182.85 E.016
G1 X159.262 Y183.091 E.01301
M204 S1000
G1 X158.68 Y183.245 F10800
M204 S800
;TYPE:External perimeter
G1 F1200
G1 X158.522 Y184.261 E.0519
G1 X157.885 Y187.875 E.18526
G1 X157.798 Y188.04 E.00939
G1 X157.028 Y188.348 E.04187
G1 X153.379 Y189.676 E.196
G1 X153.204 Y189.686 E.00883
G1 X153.08 Y189.624 E.00703
G1 X149.566 Y186.675 E.23155
G1 X149.462 Y186.491 E.01072
G1 X149.462 Y186.39 E.00507
G1 X150.259 Y181.873 E.23155
G1 X150.361 Y181.694 E.01038
G1 X150.988 Y181.446 E.03404
G1 X154.768 Y180.07 E.20303
G1 X154.975 Y180.072 E.01049
G1 X155.063 Y180.124 E.00514
G1 X158.577 Y183.073 E.23155
G1 X158.634 Y183.167 E.00557
M204 S1000
G1 X159.245 Y183.445 F10800
;WIPE_START
G1 F8640
G1 X158.522 Y184.261 E-.25378
G1 X158.141 Y186.42 E-.50622
;WIPE_END
G1 E-.04 F2100
G1 Z.6 F720
G1 X100.073 Y28.706 F10800
G1 Z.2 F720
M73 P1 R48
G1 E.8 F2100
M204 S800
;TYPE:Perimeter
G1 F1200
G1 X99.969 Y28.817 E.0077
G1 X99.463 Y29.036 E.02782
G1 X95.443 Y30.499 E.21596
G1 X95.091 Y30.553 E.01797
G1 X94.722 Y30.457 E.01928
G1 X94.546 Y30.341 E.0106
G1 X91.032 Y27.393 E.23155
G1 X90.829 Y27.15 E.016
G1 X90.725 Y26.876 E.01477
G1 X90.721 Y26.537 E.01712
G1 X91.518 Y22.019 E.23155
G1 X91.615 Y21.741 E.01488
G1 X91.778 Y21.526 E.01365
G1 X92.103 Y21.322 E.01935
G1 X96.413 Y19.753 E.23155
G1 X96.658 Y19.701 E.01264
G1 X96.937 Y19.723 E.01413
G1 X97.205 Y19.835 E.01464
G1 X100.824 Y22.86 E.2381
G1 X101.039 Y23.122 E.01712
G1 X101.138 Y23.414 E.01555
G1 X101.136 Y23.715 E.01522
G1 X100.339 Y28.233 E.23155
G1 X100.218 Y28.551 E.01718
G1 X100.135 Y28.64 E.00616
M204 S1000
G1 X99.658 Y28.289 F10800
M204 S800
;TYPE:External perimeter
G1 F1200
G1 X99.256 Y28.466 E.02216
G1 X95.236 Y29.929 E.21596
G1 X95.047 Y29.935 E.00954
G1 X94.937 Y29.876 E.0063
G1 X91.423 Y26.927 E.23155
G1 X91.32 Y26.755 E.01011
G1 X91.478 Y25.739 E.0519
G1 X92.115 Y22.125 E.18526
G1 X92.202 Y21.96 E.00939
G1 X92.972 Y21.652 E.04187
G1 X96.621 Y20.324 E.196
G1 X96.796 Y20.314 E.00883
G1 X96.92 Y20.376 E.00703
G1 X100.434 Y23.325 E.23155
G1 X100.538 Y23.509 E.01072
G1 X100.538 Y23.61 E.00507
G1 X99.741 Y28.127 E.23155
G1 X99.699 Y28.209 E.00462
M204 S1000
G1 X99.751 Y28.717 F10800
;WIPE_START
G1 F8640
G1 X99.256 Y28.466 E-.11828
G1 X96.644 Y29.416 E-.64172
;WIPE_END
G1 E-.04 F2100
G1 Z.6 F720
G1 X94.765 Y12.706 F10800
G1 Z.2 F720
G1 E.8 F2100
M204 S800
;TYPE:Perimeter
G1 F1200
G1 X95.675 Y12.654 E.046
G1 X96.586 Y12.669 E.04599
G1 X97.494 Y12.75 E.046
G1 X98.393 Y12.898 E.046
G1 X99.279 Y13.11 E.04599
G1 X100.147 Y13.387 E.046
G1 X100.993 Y13.726 E.04599
G1 X101.811 Y14.126 E.04599
G1 X102.599 Y14.585 E.04599
G1 X103.35 Y15.1 E.04599
G1 X104.062 Y15.669 E.046
G1 X104.731 Y16.288 E.04599
G1 X105.353 Y16.954 E.046
G1 X105.924 Y17.663 E.04599
G1 X106.442 Y18.413 E.046
G1 X106.904 Y19.198 E.04599
G1 X107.308 Y20.015 E.046
G1 X107.658 Y20.879 E.04706
G1 X115.24 Y41.71 E1.11899
;WIDTH:0.697355
G1 X115.367 Y42.131 E.02395
;WIDTH:0.744711
G1 X115.494 Y42.553 E.02569
G1 X115.228 Y42.159 E.0277
;WIDTH:0.697355
G1 X114.963 Y41.766 E.02583
;WIDTH:0.649999
G1 X114.414 Y40.993 E.04785
G1 X113.809 Y40.263 E.04785
G1 X113.15 Y39.581 E.04785
G1 X112.442 Y38.952 E.04785
G1 X111.688 Y38.377 E.04785
G1 X110.893 Y37.861 E.04785
G1 X110.061 Y37.407 E.04785
G1 X109.197 Y37.017 E.04785
G1 X108.306 Y36.693 E.04785
G1 X107.393 Y36.438 E.04785
G1 X106.464 Y36.252 E.04785
G1 X105.523 Y36.137 E.04785
G1 X104.576 Y36.094 E.04785
G1 X103.629 Y36.123 E.04785
G1 X102.686 Y36.223 E.04785
G1 X101.754 Y36.394 E.04785
G1 X100.837 Y36.635 E.04785
G1 X99.941 Y36.945 E.04785
G1 X99.071 Y37.321 E.04784
G1 X98.232 Y37.763 E.04785
G1 X97.429 Y38.266 E.04785
G1 X96.666 Y38.829 E.04785
G1 X95.948 Y39.448 E.04785
G1 X95.279 Y40.119 E.04785
G1 X94.663 Y40.839 E.04785
G1 X94.103 Y41.604 E.04785
G1 X93.602 Y42.409 E.04785
G1 X93.163 Y43.249 E.04785
G1 X92.79 Y44.12 E.04785
G1 X92.483 Y45.017 E.04785
G1 X92.245 Y45.935 E.04785
G1 X92.077 Y46.868 E.04785
G1 X91.98 Y47.811 E.04785
G1 X91.955 Y48.758 E.04785
G1 X92.001 Y49.705 E.04785
;WIDTH:0.692158
G1 X92.01 Y49.944 E.01293
;WIDTH:0.734317
G1 X92.019 Y50.184 E.01376
;WIDTH:0.776476
G1 X92.028 Y50.423 E.0146
;WIDTH:0.818634
G1 X92.037 Y50.662 E.01544
G1 X92.001 Y50.595 E.00492
;WIDTH:0.797298
G1 X91.878 Y50.328 E.01844
;WIDTH:0.748199
G1 X91.754 Y50.061 E.01724
;WIDTH:0.699099
G1 X91.631 Y49.794 E.01604
;WIDTH:0.649999
G1 X84.213 Y29.413 E1.09485
G1 X83.926 Y28.526 E.04706
G1 X83.71 Y27.64 E.04599
G1 X83.559 Y26.742 E.04599
G1 X83.474 Y25.835 E.046
G1 X83.456 Y24.924 E.04599
G1 X83.504 Y24.014 E.046
G1 X83.618 Y23.11 E.04599
G1 X83.798 Y22.217 E.046
G1 X84.043 Y21.339 E.04599
G1 X84.351 Y20.481 E.04599
G1 X84.721 Y19.649 E.046
G1 X85.151 Y18.845 E.046
G1 X85.638 Y18.075 E.04599
G1 X86.18 Y17.343 E.046
G1 X86.774 Y16.652 E.04599
G1 X87.417 Y16.007 E.04599
G1 X88.106 Y15.41 E.046
G1 X88.836 Y14.864 E.04599
G1 X89.604 Y14.374 E.046
G1 X90.405 Y13.941 E.04599
G1 X91.237 Y13.568 E.04599
G1 X92.093 Y13.256 E.04599
G1 X92.969 Y13.008 E.04599
G1 X93.862 Y12.824 E.046
G1 X94.676 Y12.718 E.04145
M204 S1000
G1 X94.709 Y12.101 F10800
M204 S800
;TYPE:External perimeter
G1 F1200
G1 X95.663 Y12.047 E.04824
G1 X96.618 Y12.063 E.04823
G1 X97.57 Y12.148 E.04823
G1 X98.513 Y12.302 E.04824
G1 X99.442 Y12.525 E.04823
G1 X100.353 Y12.815 E.04824
G1 X101.239 Y13.171 E.04823
G1 X102.098 Y13.591 E.04823
G1 X102.923 Y14.072 E.04823
G1 X103.712 Y14.612 E.04823
G1 X104.458 Y15.208 E.04824
G1 X105.16 Y15.857 E.04823
G1 X105.812 Y16.556 E.04824
G1 X106.411 Y17.3 E.04823
G1 X106.954 Y18.086 E.04824
G1 X107.439 Y18.91 E.04823
G1 X107.862 Y19.767 E.04824
G1 X108.225 Y20.661 E.04874
G1 X166.361 Y180.39 E8.58039
G1 X166.658 Y181.309 E.04874
M73 P2 R48
M73 Q2 S49
G1 X166.885 Y182.237 E.04823
G1 X167.043 Y183.18 E.04823
G1 X167.132 Y184.131 E.04824
G1 X167.152 Y185.086 E.04823
G1 X167.101 Y186.04 E.04824
G1 X166.981 Y186.988 E.04823
G1 X166.793 Y187.925 E.04824
G1 X166.536 Y188.846 E.04823
G1 X166.213 Y189.745 E.04823
G1 X165.825 Y190.618 E.04824
G1 X165.374 Y191.461 E.04824
G1 X164.863 Y192.268 E.04823
G1 X164.295 Y193.036 E.04824
G1 X163.672 Y193.761 E.04823
G1 X162.997 Y194.438 E.04823
G1 X162.275 Y195.064 E.04824
G1 X161.51 Y195.635 E.04823
G1 X160.704 Y196.149 E.04824
G1 X159.864 Y196.604 E.04823
G1 X158.992 Y196.995 E.04823
G1 X158.094 Y197.322 E.04823
G1 X157.175 Y197.582 E.04823
G1 X156.239 Y197.775 E.04824
G1 X155.291 Y197.899 E.04823
G1 X154.337 Y197.953 E.04824
G1 X153.382 Y197.937 E.04823
G1 X152.43 Y197.852 E.04823
G1 X151.487 Y197.698 E.04824
G1 X150.558 Y197.475 E.04823
G1 X149.647 Y197.185 E.04824
G1 X148.761 Y196.829 E.04824
G1 X147.902 Y196.409 E.04823
G1 X147.077 Y195.928 E.04823
G1 X146.288 Y195.388 E.04824
G1 X145.542 Y194.792 E.04824
G1 X144.84 Y194.143 E.04823
G1 X144.188 Y193.444 E.04824
G1 X143.589 Y192.7 E.04824
G1 X143.046 Y191.914 E.04823
G1 X142.561 Y191.09 E.04823
G1 X142.138 Y190.233 E.04824
G1 X141.775 Y189.339 E.04874
G1 X83.639 Y29.61 E8.58039
G1 X83.342 Y28.691 E.04874
G1 X83.115 Y27.763 E.04823
G1 X82.957 Y26.82 E.04823
G1 X82.868 Y25.869 E.04824
G1 X82.848 Y24.914 E.04823
G1 X82.899 Y23.96 E.04824
G1 X83.019 Y23.012 E.04823
G1 X83.207 Y22.075 E.04824
G1 X83.464 Y21.154 E.04823
G1 X83.787 Y20.255 E.04823
G1 X84.175 Y19.382 E.04824
G1 X84.626 Y18.539 E.04824
G1 X85.137 Y17.732 E.04823
G1 X85.705 Y16.964 E.04824
G1 X86.328 Y16.239 E.04823
G1 X87.003 Y15.562 E.04823
G1 X87.725 Y14.936 E.04824
G1 X88.49 Y14.365 E.04823
G1 X89.296 Y13.85 E.04824
G1 X90.136 Y13.396 E.04823
G1 X91.008 Y13.005 E.04823
G1 X91.906 Y12.678 E.04823
G1 X92.825 Y12.418 E.04823
G1 X93.761 Y12.225 E.04824
G1 X94.62 Y12.113 E.04369
M204 S1000
G1 X95.056 Y12.591 F10800
;WIPE_START
G1 F8640
G1 X95.663 Y12.047 E-.24137
G1 X96.618 Y12.063 E-.22063
G1 X97.57 Y12.148 E-.22064
G1 X97.901 Y12.202 E-.07736
;WIPE_END
G1 E-.04 F2100
G1 Z.6 F720
G1 X99.964 Y37.596 F10800
G1 Z.2 F720
G1 E.8 F2100
M204 S800
G1 F1200
G1 X100.181 Y37.503 E.01193
G1 X101.034 Y37.209 E.04553
G1 X101.906 Y36.982 E.04553
G1 X102.794 Y36.82 E.04553
G1 X103.691 Y36.727 E.04553
G1 X104.593 Y36.701 E.04553
G1 X105.494 Y36.744 E.04553
G1 X106.389 Y36.855 E.04553
G1 X107.273 Y37.033 E.04553
G1 X108.141 Y37.277 E.04553
G1 X108.988 Y37.587 E.04553
G1 X109.81 Y37.959 E.04553
G1 X110.601 Y38.393 E.04553
G1 X111.356 Y38.885 E.04553
G1 X112.073 Y39.433 E.04553
G1 X112.746 Y40.034 E.04553
G1 X113.371 Y40.684 E.04553
G1 X113.946 Y41.379 E.04553
G1 X114.466 Y42.116 E.04553
G1 X114.93 Y42.89 E.04553
G1 X115.333 Y43.697 E.04553
G1 X115.677 Y44.539 E.04592
G1 X156.722 Y157.309 E6.05784
G1 X156.993 Y158.153 E.04476
G1 X157.205 Y159.03 E.04553
G1 X157.349 Y159.92 E.04553
G1 X157.426 Y160.819 E.04553
