; generated by PrusaSlicer 2.5.0+MacOS-x64 on 2023-05-10 at 12:38:29 UTC


;
;
; 

; external perimeters extrusion width = 0.45mm
; perimeters extrusion width = 0.45mm
; infill extrusion width = 0.45mm
; solid infill extrusion width = 0.45mm
; top infill extrusion width = 0.40mm
; first layer extrusion width = 0.42mm

M73 P0 R132
M73 Q0 S133
M201 X1000 Y1000 Z200 E5000 ; sets maximum accelerations, mm/sec^2
M203 X200 Y200 Z12 E120 ; sets maximum feedrates, mm / sec
M204 P1250 R1250 T1250 ; sets acceleration (P, T) and retract acceleration (R), mm/sec^2
M205 X8.00 Y8.00 Z0.40 E4.50 ; sets the jerk limits, mm/sec
M205 S0 T0 ; sets the minimum extruding and travel feed rate, mm/sec
M107
;TYPE:Custom
M862.3 P "MK3S" ; printer model check
M862.1 P0.4 ; nozzle diameter check
M115 U3.11.0 ; tell printer latest fw version
G90 ; use absolute coordinates
M83 ; extruder relative mode
M104 S215 ; set extruder temp
M140 S60 ; set bed temp
M190 S60 ; wait for bed temp
M109 S215 ; wait for extruder temp
G28 W ; home all without mesh bed level
G80 ; mesh bed leveling

G1 Z0.2 F720
G1 Y-3 F1000 ; go outside print area
G92 E0
G1 X60 E9 F1000 ; intro line
G1 X100 E12.5 F1000 ; intro line

G92 E0
M221 S95

; Don't change E values below. Excessive value can damage the printer.

M907 E538 ; set extruder motor current
G21 ; set units to millimeters
G90 ; use absolute coordinates
M83 ; use relative distances for extrusion
M900 K0.05 ; Filament gcode LA 1.5
M900 K30 ; Filament gcode LA 1.0
M107
;LAYER_CHANGE
;Z:0.2
;HEIGHT:0.2
;BEFORE_LAYER_CHANGE
G92 E0.0
;0.2


G1 E-.8 F2100
G1 Z.4 F720
;AFTER_LAYER_CHANGE
;0.2
G1 X74.419 Y44.907 F10800
G1 Z.2 F720
G1 E.8 F2100
M204 S800
;TYPE:Skirt/Brim
;WIDTH:0.42
G1 F1200
G1 X77.407 Y41.919 E.13247
G1 X79.088 Y41.223 E.05704
G1 X125.912 Y41.223 E1.46816
G1 X127.039 Y41.507 E.03644
G1 X179.039 Y69.507 E1.85176
G1 X179.593 Y69.919 E.02165
M73 P0 R131
G1 X182.581 Y72.907 E.13247
G1 X183.277 Y74.588 E.05704
G1 X183.277 Y163.412 E2.78504
G1 X182.581 Y165.093 E.05704
G1 X179.593 Y168.081 E.13247
G1 X177.927 Y168.777 E.05663
G1 X146.014 Y168.966 E1.00062
G1 X91.95 Y168.777 E1.69516
G1 X90.107 Y168.706 E.05781
M73 Q0 S132
G1 X88.313 Y168.507 E.0566
G1 X86.716 Y168.219 E.05089
G1 X84.965 Y167.778 E.05661
G1 X83.251 Y167.214 E.05658
G1 X81.659 Y166.564 E.05391
G1 X79.969 Y165.73 E.05911
G1 X78.487 Y164.861 E.05386
G1 X76.709 Y163.626 E.06788
G1 X75.38 Y162.544 E.05373
G1 X74.061 Y161.308 E.05667
G1 X72.839 Y159.985 E.05646
G1 X71.712 Y158.578 E.05654
G1 X70.784 Y157.242 E.05097
G1 X69.857 Y155.69 E.05671
G1 X69.046 Y154.083 E.05644
G1 X68.38 Y152.499 E.05387
G1 X67.699 Y150.453 E.0676
G1 X67.281 Y148.784 E.05395
G1 X66.993 Y147.187 E.05089
G1 X66.777 Y145.128 E.06491
G1 X66.723 Y143.409 E.05393
G1 X66.781 Y141.788 E.05085
G1 X73.729 Y46.415 E2.99828
G1 X74.394 Y44.961 E.05012
M204 S1000
;WIPE_START
G1 F8640
G1 X76.71 Y42.622 E-.76
;WIPE_END
G1 E-.04 F2100
G1 Z.6 F720
G1 X76.972 Y46.356 F10800
G1 Z.2 F720
G1 E.8 F2100
M204 S800
G1 F1200
G1 X77.426 Y45.701 E.02499
G1 X77.994 Y45.095 E.02603
G1 X79.295 Y44.267 E.04835
G1 X80.78 Y43.886 E.04808
G1 X124.189 Y43.89 E1.36105
G1 X125.21 Y44.084 E.03256
G1 X126.188 Y44.5 E.03333
G1 X127.313 Y45.396 E.0451
G1 X128.18 Y46.679 E.04856
G1 X128.607 Y48.231 E.05046
G1 X128.614 Y74.408 E.82077
G1 X128.878 Y74.491 E.00869
G1 X129.426 Y73.701 E.03014
G1 X129.994 Y73.095 E.02604
G1 X131.295 Y72.267 E.04835
G1 X132.78 Y71.886 E.04808
G1 X176.189 Y71.89 E1.36105
G1 X177.21 Y72.084 E.03256
G1 X178.187 Y72.499 E.03331
G1 X179.35 Y73.437 E.04684
G1 X180.205 Y74.733 E.04867
G1 X180.613 Y76.279 E.05013
G1 X180.613 Y112.746 E1.14342
G1 X180.002 Y114.696 E.06405
G1 X179.574 Y115.299 E.0232
G1 X179.041 Y115.875 E.02461
G1 X177.705 Y116.733 E.04979
G1 X176.22 Y117.113 E.04806
G1 X132.753 Y117.113 E1.36286
G1 X130.856 Y116.528 E.06226
G1 X130.201 Y116.074 E.02499
G1 X129.595 Y115.506 E.02603
G1 X128.767 Y114.205 E.04834
G1 X128.387 Y112.72 E.04807
G1 X128.387 Y86.592 E.81921
G1 X128.122 Y86.509 E.00869
G1 X127.574 Y87.299 E.03014
G1 X127.006 Y87.905 E.02604
G1 X125.705 Y88.733 E.04836
G1 X124.267 Y89.107 E.04658
G1 X108.854 Y89.114 E.48325
G1 X108.832 Y89.467 E.01109
G1 X110.077 Y89.625 E.03936
G1 X111.732 Y89.993 E.05315
G1 X113.1 Y90.434 E.04506
G1 X114.435 Y90.994 E.04539
G1 X115.7 Y91.656 E.04477
G1 X116.895 Y92.417 E.04442
G1 X118.035 Y93.287 E.04495
G1 X119.088 Y94.24 E.04454
G1 X120.194 Y95.442 E.05121
G1 X121.08 Y96.601 E.04574
G1 X121.861 Y97.83 E.04566
G1 X122.543 Y99.146 E.04647
G1 X123.102 Y100.5 E.04594
G1 X123.55 Y101.927 E.0469
G1 X123.871 Y103.404 E.04738
G1 X124.051 Y104.81 E.04445
G1 X124.113 Y106.243 E.04496
G1 X124.05 Y107.707 E.04597
G1 X123.86 Y109.159 E.04591
G1 X123.543 Y110.601 E.0463
G1 X123.079 Y112.065 E.04814
G1 X122.527 Y113.39 E.04502
G1 X121.867 Y114.66 E.04485
G1 X121.081 Y115.898 E.046
G1 X120.189 Y117.065 E.04604
G1 X119.178 Y118.17 E.04697
G1 X118.081 Y119.175 E.04663
G1 X116.901 Y120.078 E.0466
G1 X115.704 Y120.841 E.04453
G1 X114.45 Y121.498 E.04438
G1 X113.129 Y122.053 E.04493
G1 X113.895 Y122.31 E.02532
G1 X115.398 Y122.933 E.05101
G1 X116.842 Y123.656 E.05064
G1 X118.218 Y124.471 E.05014
G1 X119.572 Y125.412 E.05171
G1 X120.805 Y126.408 E.04971
G1 X121.986 Y127.506 E.05056
G1 X123.083 Y128.684 E.05046
G1 X124.089 Y129.93 E.0502
G1 X125.012 Y131.256 E.05067
G1 X125.843 Y132.656 E.05106
G1 X126.559 Y134.085 E.05009
G1 X127.169 Y135.549 E.04973
G1 X127.686 Y137.092 E.05102
G1 X128.057 Y138.53 E.04656
G1 X128.386 Y138.488 E.01042
G1 X128.395 Y125.197 E.41674
G1 X128.972 Y123.356 E.06049
G1 X129.411 Y122.72 E.02423
G1 X129.995 Y122.095 E.02681
G1 X131.295 Y121.267 E.04834
G1 X132.78 Y120.886 E.04808
G1 X176.189 Y120.89 E1.36104
G1 X177.247 Y121.096 E.03379
G1 X178.23 Y121.525 E.03364
G1 X179.351 Y122.437 E.0453
G1 X180.18 Y123.678 E.04679
G1 X180.613 Y125.279 E.05202
G1 X180.613 Y161.747 E1.14341
G1 X180.028 Y163.644 E.06227
G1 X179.589 Y164.28 E.02422
G1 X179.005 Y164.905 E.02681
G1 X177.705 Y165.733 E.04834
G1 X176.22 Y166.113 E.04807
G1 X149.569 Y166.114 E.83561
G1 X148.792 Y166.137 E.02437
G1 X147.762 Y166.23 E.03243
G1 X146.017 Y166.303 E.05479
G1 X145.331 Y166.295 E.02148
G1 X143.728 Y166.226 E.05032
G1 X142.418 Y166.117 E.04122
G1 X132.752 Y166.113 E.30308
G1 X130.855 Y165.528 E.06223
G1 X130.2 Y165.074 E.02498
G1 X129.552 Y164.464 E.02791
G1 X128.764 Y163.193 E.04689
G1 X128.392 Y161.71 E.04793
G1 X128.386 Y148.506 E.414
G1 X128.057 Y148.465 E.01042
G1 X127.682 Y149.922 E.04716
G1 X127.178 Y151.427 E.04977
G1 X126.565 Y152.903 E.05013
G1 X125.848 Y154.335 E.05019
G1 X125.026 Y155.723 E.05061
G1 X124.088 Y157.072 E.05149
G1 X123.088 Y158.31 E.04991
G1 X122.018 Y159.462 E.04929
G1 X120.783 Y160.611 E.0529
G1 X119.552 Y161.603 E.04957
G1 X118.26 Y162.502 E.04936
G1 X116.845 Y163.342 E.05159
G1 X115.376 Y164.077 E.05149
G1 X113.899 Y164.689 E.05014
G1 X112.364 Y165.199 E.05071
G1 X110.761 Y165.607 E.05185
G1 X109.227 Y165.882 E.04888
G1 X107.666 Y166.052 E.04924
G1 X106.039 Y166.113 E.05104
G1 X91.962 Y166.113 E.44138
G1 X90.423 Y166.058 E.04827
G1 X88.806 Y165.887 E.05101
G1 X87.154 Y165.588 E.05264
G1 X85.6 Y165.189 E.0503
G1 X84.07 Y164.677 E.0506
G1 X82.555 Y164.046 E.05144
G1 X81.128 Y163.328 E.05008
G1 X79.753 Y162.51 E.05017
G1 X78.44 Y161.597 E.05015
G1 X77.208 Y160.603 E.04962
G1 X76.036 Y159.516 E.05013
G1 X74.906 Y158.303 E.05196
G1 X73.877 Y157.025 E.05145
G1 X72.946 Y155.679 E.05133
G1 X72.143 Y154.318 E.04954
G1 X71.434 Y152.902 E.04966
G1 X70.795 Y151.354 E.0525
G1 X70.301 Y149.866 E.04917
G1 X69.905 Y148.317 E.05012
G1 X69.61 Y146.674 E.05236
G1 X69.446 Y145.134 E.04854
G1 X69.387 Y143.578 E.04882
G1 X69.444 Y141.897 E.05276
G1 X69.628 Y140.206 E.05331
G1 X69.902 Y138.698 E.04808
G1 X70.284 Y137.192 E.0487
G1 X70.815 Y135.592 E.05286
G1 X71.456 Y134.05 E.05235
G1 X72.161 Y132.649 E.04919
G1 X72.963 Y131.295 E.04934
G1 X73.904 Y129.939 E.05175
G1 X74.937 Y128.661 E.05152
G1 X76.059 Y127.461 E.05152
G1 X77.219 Y126.387 E.04955
G1 X78.437 Y125.406 E.04904
G1 X79.752 Y124.49 E.05025
G1 X81.167 Y123.651 E.05158
G1 X82.61 Y122.929 E.0506
G1 X84.09 Y122.316 E.05021
G1 X85.621 Y121.805 E.05061
G1 X86.976 Y121.457 E.04388
G1 X85.849 Y120.872 E.03982
G1 X84.618 Y120.092 E.04569
G1 X83.415 Y119.172 E.04748
G1 X82.315 Y118.163 E.04681
G1 X81.3 Y117.051 E.04718
G1 X80.403 Y115.875 E.04639
G1 X79.61 Y114.619 E.04657
G1 X78.971 Y113.384 E.04359
G1 X78.434 Y112.1 E.04366
G1 X77.976 Y110.669 E.04711
G1 X77.648 Y109.208 E.04692
G1 X77.452 Y107.724 E.04693
G1 X77.387 Y106.219 E.04725
G1 X77.449 Y104.809 E.04424
G1 X77.63 Y103.394 E.04473
G1 X77.942 Y101.958 E.04608
G1 X78.374 Y100.566 E.0457
G1 X78.93 Y99.204 E.0461
G1 X79.611 Y97.88 E.0467
G1 X80.418 Y96.604 E.04735
G1 X81.336 Y95.406 E.04733
G1 X82.346 Y94.306 E.04681
G1 X83.428 Y93.318 E.04593
G1 X84.567 Y92.444 E.04502
G1 X85.809 Y91.651 E.04621
G1 X87.138 Y90.96 E.04697
G1 X88.484 Y90.403 E.04567
G1 X89.874 Y89.964 E.0457
G1 X91.298 Y89.647 E.04574
G1 X92.658 Y89.466 E.04301
G1 X92.634 Y89.113 E.01106
G1 X80.754 Y89.113 E.37251
G1 X78.804 Y88.502 E.06405
G1 X78.201 Y88.074 E.0232
G1 X77.625 Y87.541 E.02461
G1 X76.767 Y86.205 E.04979
G1 X76.387 Y84.72 E.04806
G1 X76.387 Y73.737 E.34436
G1 X77.085 Y71.663 E.06861
G1 X77.699 Y70.892 E.0309
G1 X78.485 Y70.21 E.03265
G1 X79.462 Y69.707 E.03443
G1 X80.781 Y69.389 E.04255
G1 X103.373 Y69.389 E.70836
G1 X103.825 Y69.363 E.01418
G1 X104.142 Y69.309 E.01008
G1 X104.452 Y69.22 E.01012
G1 X104.75 Y69.096 E.01012
G1 X105.035 Y68.939 E.01019
G1 X105.297 Y68.753 E.01009
G1 X105.538 Y68.538 E.01012
G1 X105.752 Y68.298 E.01008
G1 X105.938 Y68.035 E.01011
G1 X106.096 Y67.749 E.01024
G1 X106.22 Y67.451 E.01012
G1 X106.309 Y67.141 E.01011
G1 X106.363 Y66.823 E.01012
G1 X106.381 Y66.5 E.01015
G1 X106.363 Y66.177 E.01015
G1 X106.309 Y65.859 E.01012
G1 X106.22 Y65.549 E.01011
G1 X106.096 Y65.251 E.01013
G1 X105.938 Y64.965 E.01024
G1 X105.752 Y64.702 E.01011
G1 X105.538 Y64.462 E.01007
G1 X105.297 Y64.247 E.01012
G1 X105.035 Y64.061 E.01009
G1 X104.75 Y63.904 E.01019
G1 X104.452 Y63.78 E.01012
G1 X104.142 Y63.691 E.01012
G1 X103.822 Y63.636 E.01017
G1 X103.37 Y63.61 E.01419
G1 X80.781 Y63.61 E.70827
G1 X79.462 Y63.292 E.04254
G1 X78.449 Y62.765 E.03582
G1 X77.72 Y62.129 E.03032
G1 X77.117 Y61.393 E.02985
G1 X76.387 Y59.262 E.07063
G1 X76.387 Y48.253 E.34516
G1 X76.954 Y46.413 E.06038
M204 S1000
;WIPE_START
G1 F8640
G1 X77.426 Y45.701 E-.19731
G1 X77.994 Y45.095 E-.19173
G1 X79.295 Y44.267 E-.35604
G1 X79.358 Y44.251 E-.01493
;WIPE_END
G1 E-.04 F2100
G1 Z.6 F720
G1 X130.22 Y122.399 F10800
G1 Z.2 F720
G1 E.8 F2100
M204 S800
G1 F1200
G1 X131.42 Y121.624 E.04479
G1 X132.805 Y121.264 E.04487
G1 X176.171 Y121.267 E1.35971
G1 X177.117 Y121.45 E.03022
M73 P0 R130
G1 X178.015 Y121.836 E.03062
G1 X179.053 Y122.671 E.0418
G1 X179.849 Y123.862 E.0449
G1 X180.236 Y125.304 E.04682
G1 X180.236 Y161.718 E1.14173
G1 X179.677 Y163.502 E.05864
G1 X179.289 Y164.052 E.02111
G1 X178.78 Y164.601 E.02347
G1 X177.58 Y165.376 E.04479
G1 X176.195 Y165.736 E.04486
G1 X149.564 Y165.737 E.83501
G1 X148.77 Y165.76 E.02491
G1 X147.742 Y165.854 E.03236
G1 X146.016 Y165.926 E.05418
G1 X145.345 Y165.918 E.02103
G1 X143.75 Y165.849 E.05004
G1 X142.708 Y165.75 E.03283
G1 X142.42 Y165.74 E.00903
G1 X132.781 Y165.736 E.30224
G1 X130.997 Y165.177 E.05861
G1 X130.448 Y164.789 E.0211
G1 X129.859 Y164.243 E.02518
G1 X129.1 Y163.02 E.04513
G1 X128.764 Y161.643 E.04444
G1 X128.764 Y125.282 E1.14008
G1 X129.323 Y123.498 E.05863
G1 X129.711 Y122.948 E.02111
G1 X130.179 Y122.443 E.02159
M204 S1000
G1 X130.456 Y122.699 F10800
M204 S800
G1 F1200
G1 X131.597 Y121.958 E.04268
G1 X132.828 Y121.641 E.03986
G1 X176.152 Y121.644 E1.35839
G1 X177.024 Y121.816 E.02785
M73 P1 R130
M73 Q1 S131
G1 X177.84 Y122.171 E.0279
G1 X178.793 Y122.945 E.03848
G1 X179.517 Y124.043 E.04126
G1 X179.859 Y125.328 E.0417
G1 X179.859 Y161.689 E1.14007
G1 X179.352 Y163.31 E.05324
G1 X179.004 Y163.805 E.019
G1 X178.52 Y164.327 E.0223
G1 X177.403 Y165.042 E.0416
G1 X176.172 Y165.359 E.03985
G1 X149.558 Y165.36 E.83444
G1 X148.747 Y165.384 E.02545
G1 X147.722 Y165.477 E.03229
G1 X146.015 Y165.549 E.05357
G1 X145.358 Y165.542 E.02059
G1 X143.772 Y165.473 E.04979
G1 X142.733 Y165.374 E.03273
G1 X142.427 Y165.363 E.00959
G1 X132.81 Y165.359 E.30154
G1 X131.19 Y164.852 E.05322
G1 X130.694 Y164.504 E.01899
G1 X130.133 Y163.984 E.02399
G1 X129.459 Y162.9 E.04002
G1 X129.141 Y161.62 E.04135
G1 X129.141 Y125.311 E1.13845
G1 X129.648 Y123.69 E.05324
G1 X129.996 Y123.195 E.019
G1 X130.415 Y122.743 E.0193
M204 S1000
G1 X130.691 Y122.999 F10800
M204 S800
G1 F1200
G1 X130.74 Y122.946 E.00226
G1 X131.723 Y122.315 E.03661
G1 X132.853 Y122.018 E.03665
G1 X176.133 Y122.021 E1.35701
G1 X176.929 Y122.181 E.02544
G1 X177.664 Y122.505 E.02518
G1 X178.53 Y123.217 E.03516
G1 X179.185 Y124.223 E.03763
G1 X179.482 Y125.352 E.03663
G1 X179.482 Y161.66 E1.13842
G1 X179.026 Y163.118 E.04788
G1 X178.718 Y163.559 E.01687
G1 X178.26 Y164.054 E.02115
G1 X177.277 Y164.685 E.03661
G1 X176.147 Y164.982 E.03665
G1 X149.553 Y164.983 E.83384
G1 X148.725 Y165.007 E.02598
G1 X147.701 Y165.101 E.03222
G1 X146.014 Y165.171 E.05296
G1 X145.371 Y165.165 E.02014
G1 X143.793 Y165.096 E.04953
G1 X142.757 Y164.997 E.03262
G1 X142.434 Y164.986 E.01015
G1 X132.838 Y164.982 E.30085
G1 X131.382 Y164.526 E.04786
G1 X130.941 Y164.218 E.01686
G1 X130.409 Y163.725 E.02275
G1 X129.795 Y162.728 E.03669
G1 X129.518 Y161.598 E.0365
G1 X129.518 Y125.34 E1.13684
G1 X129.974 Y123.882 E.04788
G1 X130.282 Y123.441 E.01687
G1 X130.651 Y123.043 E.01701
M204 S1000
G1 X130.927 Y123.299 F10800
M204 S800
G1 F1200
G1 X131 Y123.221 E.00336
G1 X131.899 Y122.649 E.03341
G1 X132.877 Y122.395 E.03167
G1 X176.115 Y122.398 E1.35568
G1 X176.796 Y122.535 E.02178
G1 X177.487 Y122.839 E.02369
G1 X178.267 Y123.488 E.03181
G1 X178.829 Y124.35 E.03225
G1 X179.105 Y125.378 E.03337
G1 X179.105 Y161.632 E1.13672
G1 X178.7 Y162.927 E.04254
G1 X178.432 Y163.313 E.01473
G1 X178 Y163.779 E.01994
G1 X177.101 Y164.351 E.03341
G1 X176.123 Y164.605 E.03167
G1 X149.547 Y164.606 E.83327
G1 X148.702 Y164.631 E.02652
G1 X147.681 Y164.724 E.03215
G1 X146.013 Y164.794 E.05235
G1 X145.385 Y164.788 E.01969
G1 X143.814 Y164.72 E.04928
G1 X142.782 Y164.621 E.03252
G1 X142.441 Y164.609 E.01071
G1 X132.867 Y164.605 E.30016
G1 X131.573 Y164.2 E.04252
G1 X131.187 Y163.932 E.01472
G1 X130.685 Y163.466 E.02148
G1 X130.133 Y162.558 E.03332
G1 X129.895 Y161.575 E.0317
G1 X129.895 Y125.368 E1.13525
G1 X130.3 Y124.073 E.04254
G1 X130.568 Y123.687 E.01473
G1 X130.886 Y123.344 E.0147
M204 S1000
G1 X131.163 Y123.6 F10800
M204 S800
G1 F1200
G1 X131.26 Y123.495 E.0045
G1 X132.025 Y123.006 E.02846
G1 X132.902 Y122.772 E.02845
G1 X176.095 Y122.776 E1.35428
G1 X176.699 Y122.9 E.01932
G1 X177.308 Y123.172 E.02093
G1 X178.001 Y123.757 E.02843
G1 X178.495 Y124.528 E.0287
G1 X178.728 Y125.402 E.02837
G1 X178.728 Y161.603 E1.13506
G1 X178.373 Y162.737 E.03724
G1 X178.146 Y163.067 E.01256
G1 X177.74 Y163.505 E.01876
G1 X176.975 Y163.994 E.02846
G1 X176.098 Y164.228 E.02845
G1 X149.542 Y164.229 E.83265
G1 X148.679 Y164.254 E.02707
G1 X147.66 Y164.348 E.03209
G1 X146.011 Y164.417 E.05174
G1 X145.398 Y164.411 E.01924
G1 X143.836 Y164.343 E.04903
G1 X142.807 Y164.244 E.03241
G1 X142.447 Y164.232 E.01128
G1 X132.896 Y164.228 E.29947
G1 X131.763 Y163.873 E.03722
G1 X131.433 Y163.646 E.01255
G1 X130.961 Y163.209 E.02018
G1 X130.472 Y162.39 E.0299
G1 X130.272 Y161.554 E.02697
G1 X130.272 Y125.397 E1.13367
G1 X130.627 Y124.263 E.03724
G1 X130.854 Y123.933 E.01256
G1 X131.122 Y123.644 E.01238
M204 S1000
G1 X131.399 Y123.9 F10800
M204 S800
G1 F1200
G1 X131.521 Y123.768 E.00564
G1 X132.154 Y123.361 E.02358
G1 X132.928 Y123.149 E.02518
G1 X176.074 Y123.153 E1.35283
G1 X176.599 Y123.264 E.01681
G1 X177.127 Y123.504 E.01817
G1 X177.734 Y124.025 E.0251
G1 X178.139 Y124.656 E.02351
G1 X178.351 Y125.428 E.0251
G1 X178.351 Y161.574 E1.13334
G1 X178.046 Y162.548 E.03198
G1 X177.86 Y162.821 E.01037
G1 X177.479 Y163.232 E.01756
G1 X176.846 Y163.639 E.02358
