; generated by PrusaSlicer 2.5.0+MacOS-x64 on 2023-05-22 at 16:22:50 UTC


;
;
; 

; external perimeters extrusion width = 0.60mm
; perimeters extrusion width = 0.50mm
; infill extrusion width = 0.50mm
; solid infill extrusion width = 0.50mm
; top infill extrusion width = 0.45mm
; first layer extrusion width = 0.42mm

M73 P0 R31
M73 Q0 S31
M201 X1000 Y1000 Z200 E5000 ; sets maximum accelerations, mm/sec^2
M203 X200 Y200 Z12 E120 ; sets maximum feedrates, mm / sec
M204 P1250 R1250 T1250 ; sets acceleration (P, T) and retract acceleration (R), mm/sec^2
M205 X8.00 Y8.00 Z0.40 E4.50 ; sets the jerk limits, mm/sec
M205 S0 T0 ; sets the minimum extruding and travel feed rate, mm/sec
M107
;TYPE:Custom
M862.3 P "MK3S" ; printer model check
M862.1 P0.4 ; nozzle diameter check
M115 U3.11.0 ; tell printer latest fw version
G90 ; use absolute coordinates
M83 ; extruder relative mode
M104 S215 ; set extruder temp
M140 S60 ; set bed temp
M190 S60 ; wait for bed temp
M109 S215 ; wait for extruder temp
G28 W ; home all without mesh bed level
G80 ; mesh bed leveling

G1 Z0.2 F720
G1 Y-3 F1000 ; go outside print area
G92 E0
G1 X60 E9 F1000 ; intro line
G1 X100 E12.5 F1000 ; intro line

G92 E0
M221 S95

; Don't change E values below. Excessive value can damage the printer.

M907 E538 ; set extruder motor current
G21 ; set units to millimeters
G90 ; use absolute coordinates
M83 ; use relative distances for extrusion
M900 K0.05 ; Filament gcode LA 1.5
M900 K30 ; Filament gcode LA 1.0
M107
;LAYER_CHANGE
;Z:0.2
;HEIGHT:0.2
;BEFORE_LAYER_CHANGE
G92 E0.0
;0.2


G1 E-.8 F2100
G1 Z.4 F720
;AFTER_LAYER_CHANGE
;0.2
G1 X103.05 Y85.935 F10800
G1 Z.2 F720
G1 E.8 F2100
M204 S800
;TYPE:Skirt/Brim
;WIDTH:0.42
G1 F1200
G1 X104.354 Y84.371 E.06386
G1 X108.915 Y80.689 E.18377
G1 X114.122 Y77.944 E.18457
G1 X119.776 Y76.238 E.18517
G1 X125.66 Y75.634 E.18547
G1 X131.41 Y76.139 E.18099
G1 X131.996 Y76.238 E.01862
G1 X137.227 Y77.775 E.17095
G1 X142.471 Y80.439 E.18443
G1 X147.083 Y84.047 E.18359
G1 X151.153 Y88.851 E.19741
G1 X153.478 Y93.063 E.15086
G1 X153.773 Y94.14 E.03502
G1 X154.376 Y114.14 E.62737
G1 X154.268 Y114.923 E.02476
G1 X153.73 Y116.481 E.0517
G1 X150.885 Y121.537 E.1819
G1 X147.083 Y125.953 E.18271
G1 X142.471 Y129.561 E.18359
G1 X137.227 Y132.225 E.18443
G1 X131.552 Y133.848 E.18507
G1 X125.66 Y134.366 E.18544
G1 X119.776 Y133.762 E.18547
G1 X114.122 Y132.056 E.18517
G1 X108.914 Y129.311 E.18457
G1 X104.354 Y125.629 E.18377
G1 X100.619 Y121.149 E.18289
G1 X98.042 Y116.481 E.16718
G1 X96.267 Y110.978 E.18129
G1 X95.635 Y105.241 E.18098
G1 X96.171 Y99.492 E.18102
G1 X97.854 Y93.957 E.1814
G1 X100.619 Y88.851 E.18205
G1 X103.012 Y85.981 E.11715
M204 S1000
; printing object physical model 7.stl id:0 copy 0
;WIPE_START
G1 F8640
G1 X104.354 Y84.371 E-.4841
G1 X105.284 Y83.62 E-.2759
;WIPE_END
G1 E-.04 F2100
G1 Z.6 F720
G1 X149.585 Y114.999 F10800
G1 Z.2 F720
G1 E.8 F2100
M204 S800
;TYPE:Perimeter
;WIDTH:0.419999
G1 F1200
G1 X150.922 Y115.021 E.0419
G1 X148.421 Y119.551 E.16223
G1 X145.054 Y123.524 E.16328
G1 X140.949 Y126.786 E.1644
G1 X136.263 Y129.211 E.16543
G1 X131.176 Y130.705 E.16621
G1 X125.886 Y131.209 E.16664
M73 Q1 S31
G1 X120.595 Y130.705 E.16664
M73 P1 R31
G1 X115.509 Y129.211 E.16621
G1 X110.823 Y126.786 E.16543
G1 X106.718 Y123.524 E.1644
M73 P1 R30
G1 X103.351 Y119.551 E.16328
G1 X100.85 Y115.021 E.16223
G1 X99.311 Y110.108 E.16143
G1 X98.791 Y105 E.16099
G1 X99.311 Y99.892 E.16099
G1 X100.85 Y94.979 E.16143
G1 X103.351 Y90.449 E.16223
G1 X106.718 Y86.476 E.16328
G1 X110.823 Y83.214 E.1644
G1 X115.509 Y80.789 E.16543
G1 X120.595 Y79.295 E.16621
G1 X125.886 Y78.791 E.16664
G1 X131.176 Y79.295 E.16664
G1 X136.263 Y80.789 E.16621
G1 X140.949 Y83.214 E.16543
M73 Q1 S30
G1 X145.054 Y86.476 E.1644
G1 X148.421 Y90.449 E.16328
G1 X150.064 Y93.425 E.10659
G1 X148.715 Y93.425 E.04228
G1 X147.368 Y91.008 E.08677
G1 X144.139 Y87.215 E.15619
G1 X140.21 Y84.106 E.15708
G1 X135.732 Y81.801 E.15791
G1 X130.878 Y80.385 E.15855
G1 X125.832 Y79.914 E.15889
G1 X120.788 Y80.406 E.1589
G1 X115.939 Y81.841 E.15857
G1 X111.47 Y84.166 E.15795
G1 X107.553 Y87.292 E.15712
G1 X104.34 Y91.1 E.15623
G1 X101.955 Y95.444 E.15539
G1 X100.513 Y100.045 E.15118
G1 X100.003 Y104.943 E.15438
G1 X100.49 Y109.843 E.15439
G1 X101.955 Y114.556 E.15475
G1 X104.404 Y118.992 E.15889
G1 X107.633 Y122.785 E.15619
G1 X111.47 Y125.834 E.15367
G1 X116.039 Y128.199 E.16133
G1 X120.894 Y129.615 E.15855
G1 X125.832 Y130.086 E.15554
G1 X130.984 Y129.594 E.16225
G1 X135.732 Y128.199 E.15519
G1 X140.21 Y125.894 E.15791
G1 X144.219 Y122.708 E.16054
G1 X147.368 Y118.992 E.15273
G1 X149.556 Y115.052 E.14133
M204 S1000
G1 X149.363 Y114.622 F10800
M204 S800
;TYPE:External perimeter
G1 F1200
G1 X151.442 Y114.622 E.06519
G1 X151.27 Y115.17 E.01802
G1 X148.733 Y119.766 E.1646
G1 X145.317 Y123.796 E.16562
G1 X141.154 Y127.104 E.16671
G1 X136.404 Y129.562 E.16772
G1 X131.248 Y131.077 E.16848
G1 X125.886 Y131.588 E.16889
G1 X120.523 Y131.077 E.16889
G1 X115.368 Y129.562 E.16848
G1 X110.617 Y127.104 E.16772
G1 X106.454 Y123.796 E.16671
G1 X103.039 Y119.766 E.16562
G1 X100.502 Y115.17 E.1646
G1 X98.94 Y110.185 E.16382
G1 X98.412 Y105 E.1634
G1 X98.94 Y99.815 E.1634
G1 X100.502 Y94.83 E.16382
G1 X103.039 Y90.234 E.1646
G1 X106.454 Y86.204 E.16562
G1 X110.617 Y82.896 E.16671
G1 X115.368 Y80.438 E.16772
G1 X120.523 Y78.923 E.16848
G1 X125.886 Y78.412 E.16889
G1 X131.248 Y78.923 E.16889
M73 Q2 S30
G1 X136.404 Y80.438 E.16848
M73 P2 R30
G1 X141.154 Y82.896 E.16772
G1 X145.317 Y86.204 E.16671
G1 X148.733 Y90.234 E.16562
G1 X150.703 Y93.802 E.1278
G1 X148.493 Y93.802 E.06929
G1 X147.08 Y91.251 E.09141
G1 X143.904 Y87.51 E.15388
G1 X140.037 Y84.441 E.15481
G1 X135.626 Y82.162 E.15566
G1 X130.842 Y80.761 E.1563
G1 X125.868 Y80.29 E.15666
G1 X120.894 Y80.768 E.15666
G1 X116.112 Y82.176 E.15631
G1 X111.735 Y84.441 E.15453
G1 X107.867 Y87.51 E.15481
G1 X104.691 Y91.251 E.15388
G1 X102.329 Y95.522 E.15302
G1 X100.873 Y100.158 E.15236
G1 X100.378 Y104.981 E.15201
G1 X100.865 Y109.805 E.15201
G1 X102.314 Y114.443 E.15237
G1 X104.691 Y118.749 E.1542
G1 X107.867 Y122.49 E.15388
G1 X111.704 Y125.539 E.15367
G1 X116.146 Y127.838 E.1568
G1 X120.93 Y129.239 E.1563
G1 X125.868 Y129.71 E.15554
G1 X130.877 Y129.232 E.15778
G1 X135.626 Y127.838 E.15519
G1 X140.037 Y125.559 E.15566
G1 X143.931 Y122.464 E.15596
G1 X147.08 Y118.749 E.15273
G1 X149.334 Y114.674 E.14598
M204 S1000
G1 X149.662 Y114.887 F10800
;WIPE_START
G1 F8640
G1 X151.442 Y114.622 E-.48692
G1 X151.27 Y115.17 E-.13273
G1 X150.976 Y115.703 E-.14035
;WIPE_END
G1 E-.04 F2100
G1 Z.6 F720
G1 X143.799 Y85.623 F10800
G1 Z.2 F720
G1 E.8 F2100
M204 S800
;TYPE:Solid infill
;WIDTH:0.422311
G1 F1200
G1 X144.859 Y86.683 E.04729
G1 X147.843 Y90.204 E.14559
G1 X142.242 Y84.603 E.24989
G1 X140.794 Y83.453 E.05832
G1 X140.298 Y83.196 E.01762
G1 X149.205 Y92.102 E.39734
M204 S1000
;WIPE_START
G1 F8640
G1 X146.877 Y89.775 E-.76
;WIPE_END
G1 E-.04 F2100
G1 Z.6 F720
G1 X147.2 Y90.634 F10800
G1 Z.2 F720
G1 E.8 F2100
M204 S800
G1 F1200
G1 X149.433 Y92.867 E.09963
G1 X149.585 Y93.142 E.0099
G1 X149.171 Y93.142 E.01304
G1 X148.093 Y92.064 E.04809
M204 S1000
;WIPE_START
G1 F8640
G1 X149.171 Y93.142 E-.35201
G1 X149.585 Y93.142 E-.09548
G1 X149.433 Y92.867 E-.07245
G1 X148.698 Y92.132 E-.24006
;WIPE_END
G1 E-.04 F2100
G1 Z.6 F720
G1 X141.691 Y85.125 F10800
G1 Z.2 F720
G1 E.8 F2100
M204 S800
G1 F1200
G1 X139.186 Y82.62 E.11173
G1 X138.074 Y82.045 E.0395
G1 X139.415 Y83.386 E.05981
G1 X138.297 Y82.804 E.03975
G1 X136.962 Y81.469 E.05955
G1 X136.157 Y81.053 E.0286
G1 X135.947 Y80.991 E.00689
G1 X137.179 Y82.223 E.05496
G1 X136.061 Y81.642 E.03975
G1 X135.188 Y80.768 E.03898
G1 X134.428 Y80.545 E.02498
G1 X135.257 Y81.374 E.03698
G1 X134.495 Y81.149 E.02505
G1 X133.668 Y80.322 E.03689
G1 X132.909 Y80.099 E.02498
G1 X133.734 Y80.924 E.0368
G1 X132.972 Y80.699 E.02505
G1 X132.149 Y79.876 E.03672
G1 X131.389 Y79.652 E.02498
G1 X132.21 Y80.473 E.03663
G1 X131.449 Y80.248 E.02505
G1 X130.738 Y79.537 E.03172
G1 X130.145 Y79.481 E.0188
G1 X130.753 Y80.09 E.02716
G1 X130.161 Y80.033 E.01878
G1 X129.552 Y79.424 E.02718
G1 X128.958 Y79.368 E.0188
G1 X129.568 Y79.977 E.0272
G1 X128.975 Y79.921 E.01878
G1 X128.365 Y79.311 E.02722
G1 X127.772 Y79.255 E.0188
G1 X128.383 Y79.865 E.02724
G1 X127.79 Y79.809 E.01878
G1 X127.179 Y79.198 E.02726
G1 X126.586 Y79.142 E.0188
G1 X127.197 Y79.753 E.02728
G1 X126.605 Y79.697 E.01878
G1 X125.993 Y79.085 E.0273
G1 X125.921 Y79.078 E.00228
G1 X125.49 Y79.119 E.01365
G1 X126.012 Y79.641 E.02329
G1 X125.886 Y79.629 E.004
G1 X125.501 Y79.666 E.01221
G1 X125 Y79.165 E.02234
G1 X124.509 Y79.211 E.01554
G1 X125.011 Y79.713 E.02238
G1 X124.521 Y79.759 E.01552
G1 X124.019 Y79.257 E.02241
G1 X123.528 Y79.303 E.01554
G1 X124.032 Y79.806 E.02245
G1 X123.542 Y79.853 E.01552
G1 X123.038 Y79.349 E.02248
G1 X122.548 Y79.395 E.01554
G1 X123.052 Y79.9 E.02252
G1 X122.563 Y79.947 E.01552
G1 X122.057 Y79.442 E.02255
G1 X121.567 Y79.488 E.01554
G1 X122.073 Y79.994 E.02259
G1 X121.584 Y80.041 E.01552
G1 X121.076 Y79.534 E.02262
G1 X120.649 Y79.574 E.01355
G1 X120.596 Y79.59 E.00175
G1 X121.094 Y80.088 E.02223
G1 X120.765 Y80.119 E.01042
G1 X120.629 Y80.16 E.00447
G1 X120.181 Y79.712 E.01999
G1 X119.766 Y79.833 E.01364
G1 X120.215 Y80.282 E.02001
G1 X119.801 Y80.404 E.01363
G1 X119.352 Y79.955 E.02003
G1 X118.937 Y80.077 E.01364
G1 X119.386 Y80.526 E.02005
G1 X118.972 Y80.649 E.01363
G1 X118.522 Y80.199 E.02007
G1 X118.107 Y80.321 E.01364
G1 X118.558 Y80.771 E.02009
G1 X118.144 Y80.893 E.01363
G1 X117.693 Y80.442 E.02011
G1 X117.278 Y80.564 E.01364
G1 X117.729 Y81.016 E.02014
G1 X117.315 Y81.138 E.01363
G1 X116.863 Y80.686 E.02016
G1 X116.448 Y80.808 E.01364
G1 X116.901 Y81.26 E.02018
G1 X116.486 Y81.382 E.01363
G1 X116.034 Y80.93 E.0202
G1 X115.619 Y81.051 E.01364
G1 X116.072 Y81.505 E.02022
G1 X115.845 Y81.572 E.00748
G1 X115.686 Y81.655 E.00566
G1 X115.265 Y81.234 E.01877
G1 X114.911 Y81.417 E.01256
G1 X115.333 Y81.838 E.0188
G1 X114.98 Y82.022 E.01255
G1 X114.558 Y81.6 E.01882
G1 X114.204 Y81.783 E.01256
G1 X114.627 Y82.205 E.01885
G1 X114.274 Y82.389 E.01255
G1 X113.851 Y81.966 E.01888
G1 X113.497 Y82.149 E.01256
G1 X113.921 Y82.572 E.0189
G1 X113.568 Y82.756 E.01255
G1 X113.143 Y82.332 E.01893
G1 X112.79 Y82.515 E.01256
G1 X113.215 Y82.939 E.01895
G1 X112.862 Y83.123 E.01255
G1 X112.436 Y82.698 E.01898
G1 X112.083 Y82.881 E.01256
G1 X112.509 Y83.307 E.019
G1 X112.156 Y83.49 E.01255
G1 X111.729 Y83.064 E.01903
G1 X111.376 Y83.247 E.01256
G1 X111.803 Y83.674 E.01905
G1 X111.45 Y83.857 E.01255
G1 X111.022 Y83.43 E.01908
G1 X110.977 Y83.453 E.00159
G1 X110.716 Y83.66 E.01052
G1 X111.131 Y84.075 E.01849
G1 X110.832 Y84.313 E.01204
G1 X110.417 Y83.898 E.01852
G1 X110.118 Y84.135 E.01205
G1 X110.534 Y84.551 E.01855
G1 X110.236 Y84.789 E.01204
G1 X109.819 Y84.373 E.01857
G1 X109.52 Y84.61 E.01205
G1 X109.937 Y85.027 E.0186
G1 X109.639 Y85.266 E.01204
G1 X109.221 Y84.848 E.01863
G1 X108.922 Y85.086 E.01205
G1 X109.341 Y85.504 E.01865
G1 X109.042 Y85.742 E.01204
G1 X108.623 Y85.323 E.01868
G1 X108.324 Y85.561 E.01205
G1 X108.744 Y85.98 E.01871
G1 X108.445 Y86.218 E.01204
G1 X108.025 Y85.798 E.01873
G1 X107.726 Y86.036 E.01205
G1 X108.147 Y86.456 E.01876
G1 X107.849 Y86.695 E.01204
G1 X107.428 Y86.273 E.01879
G1 X107.129 Y86.511 E.01205
G1 X107.55 Y86.933 E.01881
G1 X107.354 Y87.089 E.0079
G1 X107.27 Y87.189 E.00413
G1 X106.845 Y86.764 E.01896
G1 X106.599 Y87.054 E.01201
G1 X107.024 Y87.479 E.01896
G1 X106.778 Y87.77 E.01201
G1 X106.352 Y87.345 E.01896
G1 X106.106 Y87.635 E.01201
G1 X106.531 Y88.06 E.01896
G1 X106.285 Y88.35 E.01201
G1 X105.86 Y87.925 E.01896
G1 X105.614 Y88.216 E.01201
G1 X106.039 Y88.641 E.01896
G1 X105.793 Y88.931 E.01201
G1 X105.368 Y88.506 E.01896
G1 X105.122 Y88.797 E.01201
G1 X105.547 Y89.222 E.01896
G1 X105.301 Y89.512 E.01201
G1 X104.876 Y89.087 E.01896
G1 X104.63 Y89.377 E.01201
G1 X105.054 Y89.802 E.01896
G1 X104.808 Y90.093 E.01201
G1 X104.383 Y89.668 E.01896
G1 X104.137 Y89.958 E.01201
G1 X104.562 Y90.383 E.01896
G1 X104.316 Y90.673 E.01201
G1 X103.891 Y90.249 E.01896
G1 X103.645 Y90.539 E.01201
G1 X104.084 Y90.978 E.01959
G1 X103.893 Y91.324 E.01246
G1 X103.441 Y90.871 E.02019
G1 X103.25 Y91.217 E.01246
G1 X103.702 Y91.669 E.02019
G1 X103.512 Y92.015 E.01246
G1 X103.059 Y91.563 E.02019
G1 X102.868 Y91.908 E.01246
G1 X103.321 Y92.361 E.02019
G1 X103.13 Y92.707 E.01246
G1 X102.677 Y92.254 E.02019
G1 X102.486 Y92.6 E.01246
G1 X102.939 Y93.052 E.02019
G1 X102.748 Y93.398 E.01246
G1 X102.296 Y92.945 E.0202
G1 X102.105 Y93.291 E.01246
G1 X102.557 Y93.744 E.0202
G1 X102.366 Y94.089 E.01246
G1 X101.914 Y93.637 E.0202
G1 X101.723 Y93.982 E.01246
G1 X102.176 Y94.435 E.0202
G1 X101.985 Y94.781 E.01246
M73 Q3 S30
G1 X101.532 Y94.328 E.0202
G1 X101.341 Y94.674 E.01246
G1 X101.794 Y95.126 E.0202
G1 X101.686 Y95.355 E.00798
G1 X101.639 Y95.508 E.00504
G1 X101.15 Y95.02 E.02178
G1 X101.111 Y95.09 E.00255
G1 X101.01 Y95.415 E.01074
G1 X101.511 Y95.917 E.02237
G1 X101.383 Y96.326 E.01352
G1 X100.882 Y95.824 E.02239
G1 X100.754 Y96.232 E.01351
M73 P3 R30
G1 X101.256 Y96.735 E.02241
G1 X101.128 Y97.144 E.01352
G1 X100.626 Y96.641 E.02243
G1 X100.498 Y97.049 E.01351
G1 X101.001 Y97.553 E.02245
G1 X100.873 Y97.962 E.01352
G1 X100.37 Y97.458 E.02247
G1 X100.242 Y97.866 E.01351
G1 X100.746 Y98.371 E.02249
G1 X100.618 Y98.78 E.01352
G1 X100.114 Y98.275 E.02251
G1 X99.986 Y98.684 E.01351
G1 X100.491 Y99.189 E.02253
G1 X100.363 Y99.598 E.01352
G1 X99.858 Y99.092 E.02255
G1 X99.73 Y99.501 E.01351
G1 X100.236 Y100.006 E.02257
G1 X100.175 Y100.482 E.01513
G1 X99.602 Y99.909 E.02557
G1 X99.589 Y99.949 E.00131
G1 X99.544 Y100.389 E.01394
G1 X100.125 Y100.97 E.02592
G1 X100.076 Y101.457 E.01545
G1 X99.495 Y100.876 E.02593
G1 X99.445 Y101.363 E.01544
G1 X100.027 Y101.944 E.02594
G1 X99.977 Y102.431 E.01545
G1 X99.396 Y101.85 E.02594
G1 X99.346 Y102.337 E.01544
G1 X99.928 Y102.918 E.02595
G1 X99.879 Y103.405 E.01545
G1 X99.297 Y102.824 E.02596
G1 X99.247 Y103.311 E.01544
G1 X99.829 Y103.893 E.02597
G1 X99.78 Y104.38 E.01545
G1 X99.198 Y103.798 E.02597
G1 X99.148 Y104.285 E.01544
G1 X99.731 Y104.867 E.02598
G1 X99.717 Y105 E.00422
G1 X99.761 Y105.434 E.01376
G1 X99.099 Y104.772 E.02955
G1 X99.075 Y105 E.00724
G1 X99.108 Y105.317 E.01006
G1 X99.822 Y106.031 E.03185
G1 X99.882 Y106.628 E.01893
G1 X99.168 Y105.914 E.03184
G1 X99.229 Y106.512 E.01894
G1 X99.943 Y107.225 E.03183
G1 X100.003 Y107.822 E.01893
G1 X99.29 Y107.109 E.03181
G1 X99.351 Y107.706 E.01894
G1 X100.064 Y108.419 E.0318
G1 X100.124 Y109.016 E.01893
G1 X99.411 Y108.304 E.03179
G1 X99.472 Y108.901 E.01894
G1 X100.185 Y109.613 E.03178
G1 X100.217 Y109.934 E.01019
G1 X100.329 Y110.295 E.0119
G1 X99.533 Y109.498 E.03553
G1 X99.589 Y110.051 E.01753
G1 X99.607 Y110.109 E.00192
G1 X100.573 Y111.074 E.04306
G1 X100.816 Y111.854 E.02577
G1 X99.852 Y110.891 E.04299
G1 X100.097 Y111.672 E.02583
G1 X101.059 Y112.634 E.04292
G1 X101.302 Y113.414 E.02577
G1 X100.342 Y112.453 E.04284
G1 X100.587 Y113.235 E.02583
G1 X101.545 Y114.193 E.04277
G1 X101.686 Y114.645 E.01492
G1 X101.923 Y115.108 E.01641
G1 X100.831 Y114.016 E.04872
G1 X101.076 Y114.797 E.02583
G1 X102.585 Y116.306 E.06729
G1 X103.246 Y117.503 E.04316
G1 X101.677 Y115.935 E.06997
G1 X102.339 Y117.133 E.04316
G1 X104.572 Y119.366 E.09964
M204 S1000
;WIPE_START
G1 F8640
G1 X102.339 Y117.133 E-.72933
G1 X102.274 Y117.016 E-.03067
;WIPE_END
G1 E-.04 F2100
G1 Z.6 F720
G1 X150.216 Y115.112 F10800
G1 Z.2 F720
G1 E.8 F2100
M204 S800
G1 F1200
G1 X150.43 Y115.326 E.00955
G1 X150.239 Y115.672 E.01246
G1 X149.849 Y115.282 E.0174
G1 X149.752 Y115.282 E.00306
G1 X149.596 Y115.565 E.0102
G1 X150.049 Y116.018 E.0202
G1 X149.858 Y116.363 E.01246
G1 X149.405 Y115.911 E.0202
G1 X149.214 Y116.256 E.01246
G1 X149.667 Y116.709 E.0202
G1 X149.476 Y117.055 E.01246
G1 X149.023 Y116.602 E.0202
G1 X148.832 Y116.948 E.01246
G1 X149.285 Y117.4 E.0202
G1 X149.094 Y117.746 E.01246
G1 X148.642 Y117.293 E.0202
G1 X148.451 Y117.639 E.01246
G1 X148.904 Y118.092 E.0202
G1 X148.713 Y118.437 E.01246
