; generated by PrusaSlicer 2.5.0+MacOS-x64 on 2023-05-23 at 11:01:45 UTC


;
;
; 

; external perimeters extrusion width = 0.60mm
; perimeters extrusion width = 0.50mm
; infill extrusion width = 0.50mm
; solid infill extrusion width = 0.50mm
; top infill extrusion width = 0.45mm
; first layer extrusion width = 0.42mm

; external perimeters extrusion width = 0.60mm
; perimeters extrusion width = 0.50mm
; infill extrusion width = 0.50mm
; solid infill extrusion width = 0.50mm
; top infill extrusion width = 0.45mm
; first layer extrusion width = 0.42mm

M73 P0 R10
M73 Q0 S10
M201 X1000 Y1000 Z200 E5000 ; sets maximum accelerations, mm/sec^2
M203 X200 Y200 Z12 E120 ; sets maximum feedrates, mm / sec
M204 P1250 R1250 T1250 ; sets acceleration (P, T) and retract acceleration (R), mm/sec^2
M205 X8.00 Y8.00 Z0.40 E4.50 ; sets the jerk limits, mm/sec
M205 S0 T0 ; sets the minimum extruding and travel feed rate, mm/sec
M107
;TYPE:Custom
M862.3 P "MK3S" ; printer model check
M862.1 P0.4 ; nozzle diameter check
M115 U3.11.0 ; tell printer latest fw version
G90 ; use absolute coordinates
M83 ; extruder relative mode
M104 S215 ; set extruder temp
M140 S60 ; set bed temp
M190 S60 ; wait for bed temp
M109 S215 ; wait for extruder temp
G28 W ; home all without mesh bed level
G80 ; mesh bed leveling

G1 Z0.2 F720
G1 Y-3 F1000 ; go outside print area
G92 E0
G1 X60 E9 F1000 ; intro line
G1 X100 E12.5 F1000 ; intro line

G92 E0
M221 S95

; Don't change E values below. Excessive value can damage the printer.

M907 E538 ; set extruder motor current
G21 ; set units to millimeters
G90 ; use absolute coordinates
M83 ; use relative distances for extrusion
M900 K0.05 ; Filament gcode LA 1.5
M900 K30 ; Filament gcode LA 1.0
M107
;LAYER_CHANGE
;Z:0.2
;HEIGHT:0.2
;BEFORE_LAYER_CHANGE
G92 E0.0
;0.2


G1 E-.8 F2100
G1 Z.4 F720
;AFTER_LAYER_CHANGE
;0.2
G1 X111.292 Y105.49 F10800
G1 Z.2 F720
M73 P1 R10
M73 Q1 S10
G1 E.8 F2100
M204 S800
;TYPE:Skirt/Brim
;WIDTH:0.42
G1 F1200
G1 X112.337 Y104.613 E.04278
G1 X113.278 Y104.419 E.03012
G1 X163.085 Y104.419 E1.56165
G1 X164.392 Y104.811 E.04278
G1 X165.268 Y105.857 E.04278
G1 X165.461 Y106.727 E.02796
G1 X166.174 Y131.234 E.76871
G1 X166.151 Y133.231 E.06261
G1 X166.069 Y134.433 E.03779
G1 X165.787 Y136.427 E.06315
G1 X165.533 Y137.561 E.03643
G1 X164.984 Y139.268 E.05622
G1 X164.514 Y140.3 E.03556
G1 X164.04 Y141.103 E.02924
G1 X163.471 Y141.842 E.02923
G1 X162.778 Y142.499 E.02994
G1 X162.392 Y142.774 E.01488
G1 X161.537 Y143.197 E.02991
G1 X160.942 Y143.361 E.01933
G1 X160.221 Y143.439 E.02277
G1 X117.568 Y143.439 E1.33733
G1 X116.846 Y143.361 E.02277
M73 P2 R10
M73 Q2 S10
G1 X116.252 Y143.197 E.01933
G1 X115.397 Y142.774 E.02991
G1 X114.689 Y142.223 E.02813
G1 X113.749 Y141.103 E.04584
G1 X112.875 Y139.44 E.05891
G1 X112.256 Y137.561 E.06202
G1 X111.848 Y135.507 E.06566
G1 X111.638 Y133.246 E.07121
G1 X110.901 Y106.798 E.82959
G1 X111.275 Y105.548 E.0409
M204 S1000
; printing object physical model 13.stl id:0 copy 0
;WIPE_START
G1 F8640
G1 X112.337 Y104.613 E-.32671
G1 X113.278 Y104.419 E-.2218
G1 X114.194 Y104.419 E-.21149
;WIPE_END
G1 E-.04 F2100
G1 Z.6 F720
G1 X114.684 Y107.584 F10800
G1 Z.2 F720
G1 E.8 F2100
M204 S800
;TYPE:Perimeter
;WIDTH:0.419999
G1 F1200
G1 X161.671 Y107.584 E1.47324
G1 X161.658 Y108.489 E.0284
G1 X161.603 Y109.274 E.02467
G1 X161.511 Y110.044 E.02431
G1 X161.383 Y110.782 E.02348
G1 X161.223 Y111.478 E.02239
M73 Q3 S10
G1 X161.032 Y112.116 E.02089
G1 X160.824 Y112.67 E.01855
M73 P3 R10
G1 X160.597 Y113.15 E.01664
G1 X160.184 Y113.786 E.02378
G1 X159.774 Y114.147 E.01713
G1 X159.443 Y114.236 E.01074
G1 X155.373 Y114.262 E.12762
G1 X120.989 Y114.262 E1.07807
G1 X116.919 Y114.236 E.12762
G1 X116.589 Y114.147 E.01074
G1 X116.338 Y113.95 E.00999
G1 X115.947 Y113.468 E.01945
G1 X115.675 Y112.971 E.01778
G1 X115.46 Y112.477 E.01689
G1 X115.241 Y111.831 E.02136
G1 X115.095 Y111.302 E.01723
G1 X114.952 Y110.643 E.02113
G1 X114.837 Y109.94 E.02235
G1 X114.753 Y109.203 E.02326
G1 X114.702 Y108.444 E.02386
G1 X114.686 Y107.644 E.02509
M204 S1000
G1 X114.307 Y107.206 F10800
M204 S800
;TYPE:External perimeter
G1 F1200
G1 X162.053 Y107.206 E1.49706
G1 X162.037 Y108.447 E.0389
G1 X161.977 Y109.318 E.02736
G1 X161.883 Y110.106 E.0249
G1 X161.751 Y110.864 E.02411
G1 X161.585 Y111.581 E.02309
G1 X161.387 Y112.244 E.02169
G1 X161.168 Y112.825 E.01947
G1 X160.925 Y113.336 E.01774
G1 X160.664 Y113.768 E.01583
G1 X160.212 Y114.298 E.02183
G1 X159.85 Y114.524 E.01336
G1 X159.471 Y114.612 E.01223
G1 X155.374 Y114.639 E.12844
G1 X120.988 Y114.639 E1.07815
G1 X117.148 Y114.614 E.12043
M73 P4 R10
M73 Q4 S10
G1 X116.64 Y114.577 E.01596
G1 X116.278 Y114.388 E.01279
G1 X115.89 Y114.03 E.01658
G1 X115.572 Y113.571 E.01749
G1 X115.331 Y113.126 E.01587
G1 X115.106 Y112.605 E.01781
G1 X114.879 Y111.935 E.02216
G1 X114.727 Y111.384 E.01793
G1 X114.58 Y110.705 E.02177
G1 X114.463 Y109.983 E.02294
G1 X114.377 Y109.228 E.02382
G1 X114.325 Y108.452 E.0244
G1 X114.308 Y107.266 E.03718
M204 S1000
G1 X114.656 Y107.402 F10800
;WIPE_START
G1 F8640
G1 X117.599 Y107.262 E-.76
;WIPE_END
G1 E-.04 F2100
G1 Z.6 F720
G1 X161.547 Y108.452 F10800
G1 Z.2 F720
G1 E.8 F2100
M204 S800
;TYPE:Solid infill
;WIDTH:0.42135
G1 F1200
G1 X160.962 Y107.866 E.02605
G1 X160.426 Y107.866 E.01684
G1 X161.354 Y108.794 E.04128
G1 X161.316 Y109.291 E.01569
G1 X159.891 Y107.866 E.06341
G1 X159.356 Y107.866 E.01684
G1 X161.26 Y109.771 E.08474
G1 X161.192 Y110.237 E.01484
G1 X158.821 Y107.866 E.1055
G1 X158.286 Y107.866 E.01684
G1 X161.113 Y110.694 E.12583
G1 X161.016 Y111.131 E.01411
G1 X157.751 Y107.866 E.1453
G1 X157.215 Y107.866 E.01684
G1 X160.906 Y111.557 E.16423
G1 X160.784 Y111.97 E.01356
G1 X156.68 Y107.866 E.18263
G1 X156.145 Y107.866 E.01684
G1 X160.642 Y112.364 E.20013
G1 X160.482 Y112.739 E.01284
G1 X155.61 Y107.866 E.21683
G1 X155.075 Y107.866 E.01684
G1 X160.303 Y113.095 E.23266
G1 X160.098 Y113.424 E.01223
G1 X154.539 Y107.866 E.24734
G1 X154.004 Y107.866 E.01684
G1 X159.855 Y113.718 E.26038
G1 X159.635 Y113.898 E.00896
G1 X159.539 Y113.937 E.00325
G1 X153.469 Y107.866 E.27013
G1 X152.934 Y107.866 E.01684
M73 P5 R10
M73 Q5 S10
G1 X159.023 Y113.955 E.27097
G1 X158.491 Y113.959 E.01673
G1 X152.399 Y107.866 E.27112
G1 X151.864 Y107.866 E.01684
G1 X157.96 Y113.962 E.27127
G1 X157.428 Y113.966 E.01673
G1 X151.328 Y107.866 E.27143
G1 X150.793 Y107.866 E.01684
G1 X156.896 Y113.969 E.27158
G1 X156.364 Y113.973 E.01673
G1 X150.258 Y107.866 E.27173
G1 X149.723 Y107.866 E.01684
G1 X155.832 Y113.976 E.27188
G1 X155.3 Y113.979 E.01675
G1 X149.188 Y107.866 E.27201
G1 X148.652 Y107.866 E.01684
G1 X154.765 Y113.979 E.27201
G1 X154.23 Y113.979 E.01684
G1 X148.117 Y107.866 E.27201
G1 X147.582 Y107.866 E.01684
G1 X153.695 Y113.979 E.27201
G1 X153.16 Y113.979 E.01684
G1 X147.047 Y107.866 E.27201
G1 X146.512 Y107.866 E.01684
G1 X152.624 Y113.979 E.27201
G1 X152.089 Y113.979 E.01684
M73 P6 R10
G1 X145.977 Y107.866 E.27201
M73 P6 R9
G1 X145.441 Y107.866 E.01684
M73 Q6 S10
G1 X151.554 Y113.979 E.27201
G1 X151.019 Y113.979 E.01684
G1 X144.906 Y107.866 E.27201
G1 X144.371 Y107.866 E.01684
G1 X150.484 Y113.979 E.27201
G1 X149.948 Y113.979 E.01684
G1 X143.836 Y107.866 E.27201
G1 X143.301 Y107.866 E.01684
G1 X149.413 Y113.979 E.27201
G1 X148.878 Y113.979 E.01684
G1 X142.765 Y107.866 E.27201
G1 X142.23 Y107.866 E.01684
G1 X148.343 Y113.979 E.27201
G1 X147.808 Y113.979 E.01684
G1 X141.695 Y107.866 E.27201
G1 X141.16 Y107.866 E.01684
G1 X147.273 Y113.979 E.27201
G1 X146.737 Y113.979 E.01684
G1 X140.625 Y107.866 E.27201
G1 X140.09 Y107.866 E.01684
G1 X146.202 Y113.979 E.27201
G1 X145.667 Y113.979 E.01684
G1 X139.554 Y107.866 E.27201
G1 X139.019 Y107.866 E.01684
G1 X145.132 Y113.979 E.27201
G1 X144.597 Y113.979 E.01684
M73 P7 R9
M73 Q7 S10
G1 X138.484 Y107.866 E.27201
G1 X137.949 Y107.866 E.01684
G1 X144.061 Y113.979 E.27201
G1 X143.526 Y113.979 E.01684
G1 X137.414 Y107.866 E.27201
G1 X136.878 Y107.866 E.01684
G1 X142.991 Y113.979 E.27201
G1 X142.456 Y113.979 E.01684
G1 X136.343 Y107.866 E.27201
G1 X135.808 Y107.866 E.01684
G1 X141.921 Y113.979 E.27201
G1 X141.386 Y113.979 E.01684
G1 X135.273 Y107.866 E.27201
G1 X134.738 Y107.866 E.01684
G1 X140.85 Y113.979 E.27201
G1 X140.315 Y113.979 E.01684
G1 X134.203 Y107.866 E.27201
G1 X133.667 Y107.866 E.01684
M73 Q7 S9
G1 X139.78 Y113.979 E.27201
G1 X139.245 Y113.979 E.01684
G1 X133.132 Y107.866 E.27201
G1 X132.597 Y107.866 E.01684
G1 X138.71 Y113.979 E.27201
G1 X138.174 Y113.979 E.01684
G1 X132.062 Y107.866 E.27201
G1 X131.527 Y107.866 E.01684
M73 P8 R9
G1 X137.639 Y113.979 E.27201
G1 X137.104 Y113.979 E.01684
M73 Q8 S9
G1 X130.991 Y107.866 E.27201
G1 X130.456 Y107.866 E.01684
G1 X136.569 Y113.979 E.27201
G1 X136.034 Y113.979 E.01684
G1 X129.921 Y107.866 E.27201
G1 X129.386 Y107.866 E.01684
G1 X135.499 Y113.979 E.27201
G1 X134.963 Y113.979 E.01684
G1 X128.851 Y107.866 E.27201
G1 X128.316 Y107.866 E.01684
G1 X134.428 Y113.979 E.27201
G1 X133.893 Y113.979 E.01684
G1 X127.78 Y107.866 E.27201
G1 X127.245 Y107.866 E.01684
G1 X133.358 Y113.979 E.27201
G1 X132.823 Y113.979 E.01684
G1 X126.71 Y107.866 E.27201
G1 X126.175 Y107.866 E.01684
G1 X132.287 Y113.979 E.27201
G1 X131.752 Y113.979 E.01684
G1 X125.64 Y107.866 E.27201
G1 X125.105 Y107.866 E.01684
G1 X131.217 Y113.979 E.27201
G1 X130.682 Y113.979 E.01684
G1 X124.569 Y107.866 E.27201
G1 X124.034 Y107.866 E.01684
M73 P9 R9
G1 X130.147 Y113.979 E.27201
G1 X129.612 Y113.979 E.01684
M73 Q9 S9
G1 X123.499 Y107.866 E.27201
G1 X122.964 Y107.866 E.01684
G1 X129.076 Y113.979 E.27201
G1 X128.541 Y113.979 E.01684
G1 X122.429 Y107.866 E.27201
G1 X121.893 Y107.866 E.01684
G1 X128.006 Y113.979 E.27201
G1 X127.471 Y113.979 E.01684
G1 X121.358 Y107.866 E.27201
G1 X120.823 Y107.866 E.01684
G1 X126.936 Y113.979 E.27201
G1 X126.4 Y113.979 E.01684
G1 X120.288 Y107.866 E.27201
G1 X119.753 Y107.866 E.01684
G1 X125.865 Y113.979 E.27201
G1 X125.33 Y113.979 E.01684
G1 X119.218 Y107.866 E.27201
G1 X118.682 Y107.866 E.01684
G1 X124.795 Y113.979 E.27201
G1 X124.26 Y113.979 E.01684
G1 X118.147 Y107.866 E.27201
G1 X117.612 Y107.866 E.01684
G1 X123.725 Y113.979 E.27201
G1 X123.189 Y113.979 E.01684
M73 P10 R9
G1 X117.077 Y107.866 E.27201
G1 X116.542 Y107.866 E.01684
G1 X122.654 Y113.979 E.27201
G1 X122.119 Y113.979 E.01684
M73 Q10 S9
G1 X116.006 Y107.866 E.27201
G1 X115.471 Y107.866 E.01684
G1 X121.584 Y113.979 E.27201
G1 X121.049 Y113.979 E.01684
G1 X114.973 Y107.903 E.27039
G1 X114.985 Y108.451 E.01724
G1 X120.51 Y113.976 E.24588
G1 X119.972 Y113.972 E.01695
G1 X115.024 Y109.025 E.22016
G1 X115.085 Y109.621 E.01883
G1 X119.433 Y113.969 E.1935
G1 X118.894 Y113.965 E.01695
G1 X115.172 Y110.243 E.16566
G1 X115.296 Y110.902 E.0211
G1 X118.356 Y113.962 E.13618
G1 X117.817 Y113.959 E.01695
G1 X115.473 Y111.615 E.10431
G1 X115.563 Y111.927 E.01023
G1 X115.739 Y112.415 E.01633
G1 X117.279 Y113.955 E.06852
G1 X116.94 Y113.953 E.01066
G1 X116.816 Y113.936 E.00392
G1 X116.727 Y113.898 E.00304
G1 X116.585 Y113.797 E.0055
G1 X115.84 Y113.052 E.03315
M204 S1000
; stop printing object physical model 13.stl id:0 copy 0
; printing object physical model 13.stl id:1 copy 0
;WIPE_START
G1 F8640
G1 X116.585 Y113.797 E-.24324
G1 X116.727 Y113.898 E-.04038
G1 X116.816 Y113.936 E-.02233
G1 X116.94 Y113.953 E-.02876
G1 X117.279 Y113.955 E-.07823
G1 X116.216 Y112.892 E-.34706
;WIPE_END
G1 E-.04 F2100
G1 Z.6 F720
G1 X162.385 Y132.09 F10800
G1 Z.2 F720
G1 E.8 F2100
M204 S800
;TYPE:Perimeter
;WIDTH:0.419999
G1 F1200
G1 X162.371 Y132.995 E.0284
G1 X162.316 Y133.78 E.02467
G1 X162.224 Y134.55 E.02431
G1 X162.097 Y135.288 E.02348
G1 X161.936 Y135.984 E.02239
G1 X161.745 Y136.623 E.02089
G1 X161.537 Y137.176 E.01855
G1 X161.31 Y137.656 E.01664
G1 X160.897 Y138.292 E.02378
G1 X160.487 Y138.653 E.01713
G1 X160.156 Y138.742 E.01074
G1 X156.086 Y138.768 E.12762
G1 X121.703 Y138.768 E1.07807
G1 X117.632 Y138.742 E.12762
M73 P11 R9
M73 Q11 S9
G1 X117.302 Y138.653 E.01074
G1 X117.051 Y138.456 E.00999
G1 X116.717 Y138.052 E.01645
G1 X116.429 Y137.569 E.01764
G1 X116.209 Y137.081 E.01677
G1 X116.007 Y136.521 E.01868
G1 X115.828 Y135.897 E.02035
G1 X115.677 Y135.219 E.02176
G1 X115.556 Y134.498 E.02291
G1 X115.469 Y133.745 E.02379
G1 X115.416 Y132.969 E.02438
G1 X115.397 Y132.09 E.02757
G1 X162.325 Y132.09 E1.47136
M204 S1000
G1 X162.767 Y131.713 F10800
M204 S800
;TYPE:External perimeter
G1 F1200
G1 X162.748 Y133.021 E.04103
G1 X162.69 Y133.824 E.02523
G1 X162.596 Y134.613 E.0249
G1 X162.465 Y135.37 E.02411
G1 X162.298 Y136.088 E.02309
G1 X162.1 Y136.75 E.02169
G1 X161.881 Y137.331 E.01947
G1 X161.638 Y137.842 E.01774
G1 X161.377 Y138.274 E.01583
G1 X160.925 Y138.804 E.02183
G1 X160.563 Y139.03 E.01336
G1 X160.184 Y139.119 E.01223
G1 X156.087 Y139.145 E.12844
G1 X121.701 Y139.145 E1.07815
G1 X117.861 Y139.121 E.12043
M73 P12 R9
G1 X117.353 Y139.084 E.01596
G1 X116.991 Y138.895 E.01279
G1 X116.603 Y138.536 E.01658
G1 X116.285 Y138.078 E.01749
G1 X116.044 Y137.632 E.01587
G1 X115.819 Y137.111 E.01781
G1 X115.592 Y136.442 E.02216
G1 X115.44 Y135.89 E.01793
G1 X115.293 Y135.212 E.02177
G1 X115.176 Y134.49 E.02294
G1 X115.09 Y133.735 E.02382
M73 Q12 S9
G1 X115.038 Y132.958 E.0244
G1 X115.02 Y132.173 E.02464
G1 X115.02 Y131.713 E.01442
G1 X162.707 Y131.713 E1.49518
M204 S1000
G1 X162.564 Y132.058 F10800
;WIPE_START
G1 F8640
G1 X162.748 Y133.021 E-.30227
G1 X162.69 Y133.824 E-.18582
G1 X162.596 Y134.613 E-.1834
G1 X162.53 Y134.99 E-.08852
;WIPE_END
G1 E-.04 F2100
G1 Z.6 F720
G1 X162.26 Y132.958 F10800
G1 Z.2 F720
G1 E.8 F2100
M204 S800
;TYPE:Solid infill
;WIDTH:0.42135
G1 F1200
G1 X161.675 Y132.373 E.02605
G1 X161.14 Y132.373 E.01684
G1 X162.067 Y133.3 E.04128
G1 X162.029 Y133.798 E.01569
G1 X160.604 Y132.373 E.06341
G1 X160.069 Y132.373 E.01684
G1 X161.973 Y134.277 E.08474
G1 X161.905 Y134.743 E.01484
G1 X159.534 Y132.373 E.1055
G1 X158.999 Y132.373 E.01684
G1 X161.826 Y135.2 E.12583
G1 X161.729 Y135.638 E.01411
G1 X158.464 Y132.373 E.1453
G1 X157.928 Y132.373 E.01684
G1 X161.619 Y136.063 E.16423
G1 X161.497 Y136.477 E.01356
G1 X157.393 Y132.373 E.18263
G1 X156.858 Y132.373 E.01684
G1 X161.355 Y136.87 E.20013
G1 X161.196 Y137.245 E.01284
G1 X156.323 Y132.373 E.21683
G1 X155.788 Y132.373 E.01684
G1 X161.016 Y137.601 E.23266
G1 X160.811 Y137.931 E.01223
M73 P13 R9
G1 X155.253 Y132.373 E.24734
G1 X154.717 Y132.373 E.01684
G1 X160.569 Y138.224 E.26038
G1 X160.348 Y138.405 E.00896
M73 Q13 S9
G1 X160.253 Y138.443 E.00325
G1 X154.182 Y132.373 E.27013
G1 X153.647 Y132.373 E.01684
G1 X159.736 Y138.462 E.27097
G1 X159.204 Y138.465 E.01673
G1 X153.112 Y132.373 E.27112
G1 X152.577 Y132.373 E.01684
G1 X158.673 Y138.469 E.27127
G1 X158.141 Y138.472 E.01673
G1 X152.041 Y132.373 E.27143
G1 X151.506 Y132.373 E.01684
G1 X157.609 Y138.476 E.27158
G1 X157.077 Y138.479 E.01673
G1 X150.971 Y132.373 E.27173
G1 X150.436 Y132.373 E.01684
G1 X156.546 Y138.482 E.27188
G1 X156.013 Y138.485 E.01675
G1 X149.901 Y132.373 E.27201
G1 X149.366 Y132.373 E.01684
G1 X155.478 Y138.485 E.27201
G1 X154.943 Y138.485 E.01684
G1 X148.83 Y132.373 E.27201
G1 X148.295 Y132.373 E.01684
G1 X154.408 Y138.485 E.27201
G1 X153.873 Y138.485 E.01684
M73 P14 R9
G1 X147.76 Y132.373 E.27201
G1 X147.225 Y132.373 E.01684
G1 X153.337 Y138.485 E.27201
G1 X152.802 Y138.485 E.01684
M73 Q14 S9
G1 X146.69 Y132.373 E.27201
G1 X146.154 Y132.373 E.01684
G1 X152.267 Y138.485 E.27201
G1 X151.732 Y138.485 E.01684
G1 X145.619 Y132.373 E.27201
G1 X145.084 Y132.373 E.01684
G1 X151.197 Y138.485 E.27201
G1 X150.662 Y138.485 E.01684
G1 X144.549 Y132.373 E.27201
G1 X144.014 Y132.373 E.01684
G1 X150.126 Y138.485 E.27201
G1 X149.591 Y138.485 E.01684
G1 X143.479 Y132.373 E.27201
G1 X142.943 Y132.373 E.01684
G1 X149.056 Y138.485 E.27201
G1 X148.521 Y138.485 E.01684
G1 X142.408 Y132.373 E.27201
G1 X141.873 Y132.373 E.01684
G1 X147.986 Y138.485 E.27201
G1 X147.45 Y138.485 E.01684
G1 X141.338 Y132.373 E.27201
G1 X140.803 Y132.373 E.01684
M73 P15 R9
G1 X146.915 Y138.485 E.27201
G1 X146.38 Y138.485 E.01684
G1 X140.267 Y132.373 E.27201
G1 X139.732 Y132.373 E.01684
M73 Q15 S9
G1 X145.845 Y138.485 E.27201
