; generated by PrusaSlicer 2.5.0+MacOS-x64 on 2023-05-23 at 09:48:54 UTC


;
;
; 

; external perimeters extrusion width = 0.60mm
; perimeters extrusion width = 0.50mm
; infill extrusion width = 0.50mm
; solid infill extrusion width = 0.50mm
; top infill extrusion width = 0.45mm
; first layer extrusion width = 0.42mm

M73 P0 R12
M73 Q0 S12
M201 X1000 Y1000 Z200 E5000 ; sets maximum accelerations, mm/sec^2
M203 X200 Y200 Z12 E120 ; sets maximum feedrates, mm / sec
M204 P1250 R1250 T1250 ; sets acceleration (P, T) and retract acceleration (R), mm/sec^2
M205 X8.00 Y8.00 Z0.40 E4.50 ; sets the jerk limits, mm/sec
M205 S0 T0 ; sets the minimum extruding and travel feed rate, mm/sec
M107
;TYPE:Custom
M862.3 P "MK3S" ; printer model check
M862.1 P0.4 ; nozzle diameter check
M115 U3.11.0 ; tell printer latest fw version
G90 ; use absolute coordinates
M83 ; extruder relative mode
M104 S215 ; set extruder temp
M140 S60 ; set bed temp
M190 S60 ; wait for bed temp
M109 S215 ; wait for extruder temp
G28 W ; home all without mesh bed level
G80 ; mesh bed leveling

G1 Z0.2 F720
G1 Y-3 F1000 ; go outside print area
G92 E0
G1 X60 E9 F1000 ; intro line
G1 X100 E12.5 F1000 ; intro line

G92 E0
M221 S95

; Don't change E values below. Excessive value can damage the printer.

M907 E538 ; set extruder motor current
G21 ; set units to millimeters
G90 ; use absolute coordinates
M83 ; use relative distances for extrusion
M900 K0.05 ; Filament gcode LA 1.5
M900 K30 ; Filament gcode LA 1.0
M107
;LAYER_CHANGE
;Z:0.2
;HEIGHT:0.2
;BEFORE_LAYER_CHANGE
G92 E0.0
;0.2


G1 E-.8 F2100
G1 Z.4 F720
;AFTER_LAYER_CHANGE
;0.2
G1 X107.639 Y88.583 F10800
G1 Z.2 F720
G1 E.8 F2100
M204 S800
;TYPE:Skirt/Brim
;WIDTH:0.42
M73 Q1 S12
G1 F1200
G1 X108.705 Y87.569 E.04612
G1 X110 Y87.246 E.04186
G1 X120 Y87.246 E.31354
G1 X121.947 Y88.053 E.06609
M73 P1 R12
G1 X141.947 Y108.053 E.88683
G1 X142.754 Y110 E.06609
G1 X142.754 Y120 E.31354
G1 X142.361 Y121.417 E.04612
G1 X141.295 Y122.431 E.04612
G1 X140 Y122.754 E.04186
G1 X110 Y122.754 E.94063
G1 X108.583 Y122.361 E.04612
G1 X107.569 Y121.295 E.04612
G1 X107.246 Y120 E.04186
G1 X107.246 Y90 E.94063
G1 X107.623 Y88.64 E.04424
M204 S1000
G1 X107.997 Y88.752 F10800
M204 S800
G1 F1200
G1 X108.015 Y88.693 E.00195
G1 X109.06 Y87.817 E.04278
G1 X110 Y87.623 E.03008
G1 X120 Y87.623 E.31354
G1 X121.681 Y88.319 E.05704
G1 X141.681 Y108.319 E.88683
G1 X142.377 Y110 E.05704
M73 P2 R12
M73 Q2 S12
G1 X142.377 Y120 E.31354
G1 X141.985 Y121.307 E.04278
M73 P2 R11
G1 X140.94 Y122.183 E.04278
G1 X140 Y122.377 E.03008
G1 X110 Y122.377 E.94063
G1 X108.693 Y121.985 E.04278
M73 Q2 S11
G1 X107.817 Y120.94 E.04278
G1 X107.623 Y120 E.03008
G1 X107.623 Y90 E.94063
G1 X107.979 Y88.81 E.03895
M204 S1000
; printing object electronics lid supports v1.stl id:0 copy 0
;WIPE_START
G1 F8640
G1 X108.015 Y88.693 E-.0282
G1 X109.06 Y87.817 E-.31505
G1 X110 Y87.623 E-.22155
G1 X110.845 Y87.623 E-.1952
;WIPE_END
G1 E-.04 F2100
G1 Z.6 F720
G1 X119.217 Y110.269 F10800
G1 Z.2 F720
G1 E.8 F2100
M204 S800
;TYPE:Perimeter
;WIDTH:0.419999
G1 F1200
G1 X119.325 Y110.559 E.00971
G1 X119.514 Y110.721 E.0078
G1 X119.779 Y110.787 E.00855
G1 X139.213 Y110.787 E.60935
G1 X139.213 Y119.213 E.26418
G1 X110.787 Y119.213 E.89127
G1 X110.787 Y90.787 E.89127
M73 P3 R11
M73 Q3 S11
G1 X119.213 Y90.787 E.26419
G1 X119.213 Y110.209 E.60897
M204 S1000
G1 X119.59 Y110.222 F10800
M204 S800
;TYPE:External perimeter
G1 F1200
G1 X119.645 Y110.355 E.00452
G1 X119.779 Y110.41 E.00452
G1 X139.59 Y110.41 E.62117
G1 X139.59 Y119.59 E.28783
G1 X110.41 Y119.59 E.91492
G1 X110.41 Y90.41 E.91492
G1 X119.59 Y90.41 E.28783
M73 P4 R11
M73 Q4 S11
G1 X119.59 Y110.162 E.61929
M204 S1000
G1 X119.504 Y110.337 F10800
;WIPE_START
G1 F8640
G1 X119.645 Y110.355 E-.04642
G1 X119.779 Y110.41 E-.03332
G1 X122.725 Y110.41 E-.68026
;WIPE_END
G1 E-.04 F2100
G1 Z.6 F720
G1 X139.1 Y111.667 F10800
G1 Z.2 F720
G1 E.8 F2100
M204 S800
;TYPE:Solid infill
;WIDTH:0.422206
G1 F1200
G1 X138.503 Y111.07 E.02664
G1 X137.966 Y111.07 E.01692
G1 X138.93 Y112.034 E.04299
G1 X138.93 Y112.57 E.01692
G1 X137.43 Y111.07 E.06692
G1 X136.893 Y111.07 E.01692
G1 X138.93 Y113.107 E.09084
G1 X138.93 Y113.643 E.01692
G1 X136.357 Y111.07 E.11476
G1 X135.821 Y111.07 E.01692
G1 X138.93 Y114.179 E.13869
G1 X138.93 Y114.716 E.01692
G1 X135.284 Y111.07 E.16261
G1 X134.748 Y111.07 E.01692
G1 X138.93 Y115.252 E.18653
G1 X138.93 Y115.789 E.01692
G1 X134.211 Y111.07 E.21046
G1 X133.675 Y111.07 E.01692
G1 X138.93 Y116.325 E.23438
G1 X138.93 Y116.861 E.01692
G1 X133.139 Y111.07 E.25831
G1 X132.602 Y111.07 E.01692
G1 X138.93 Y117.398 E.28223
G1 X138.93 Y117.934 E.01692
G1 X132.066 Y111.07 E.30615
G1 X131.529 Y111.07 E.01692
G1 X138.93 Y118.471 E.33008
G1 X138.93 Y118.93 E.01449
M73 P5 R11
M73 Q5 S11
G1 X138.853 Y118.93 E.00242
G1 X130.993 Y111.07 E.35057
G1 X130.457 Y111.07 E.01692
G1 X138.317 Y118.93 E.35057
G1 X137.781 Y118.93 E.01692
G1 X129.92 Y111.07 E.35057
G1 X129.384 Y111.07 E.01692
G1 X137.244 Y118.93 E.35057
G1 X136.708 Y118.93 E.01692
G1 X128.848 Y111.07 E.35057
G1 X128.311 Y111.07 E.01692
G1 X136.171 Y118.93 E.35057
G1 X135.635 Y118.93 E.01692
G1 X127.775 Y111.07 E.35057
G1 X127.238 Y111.07 E.01692
G1 X135.099 Y118.93 E.35057
G1 X134.562 Y118.93 E.01692
G1 X126.702 Y111.07 E.35057
G1 X126.166 Y111.07 E.01692
G1 X134.026 Y118.93 E.35057
G1 X133.489 Y118.93 E.01692
G1 X125.629 Y111.07 E.35057
G1 X125.093 Y111.07 E.01692
G1 X132.953 Y118.93 E.35057
G1 X132.417 Y118.93 E.01692
M73 Q6 S11
G1 X124.556 Y111.07 E.35057
G1 X124.02 Y111.07 E.01692
M73 P6 R11
G1 X131.88 Y118.93 E.35057
G1 X131.344 Y118.93 E.01692
G1 X123.484 Y111.07 E.35057
G1 X122.947 Y111.07 E.01692
G1 X130.807 Y118.93 E.35057
G1 X130.271 Y118.93 E.01692
G1 X122.411 Y111.07 E.35057
G1 X121.874 Y111.07 E.01692
G1 X129.735 Y118.93 E.35057
G1 X129.198 Y118.93 E.01692
G1 X121.338 Y111.07 E.35057
G1 X120.802 Y111.07 E.01692
G1 X128.662 Y118.93 E.35057
G1 X128.125 Y118.93 E.01692
G1 X120.096 Y110.9 E.35814
M204 S1000
;WIPE_START
G1 F8640
G1 X122.423 Y113.228 E-.76
;WIPE_END
G1 E-.04 F2100
G1 Z.6 F720
G1 X119.1 Y91.667 F10800
G1 Z.2 F720
G1 E.8 F2100
M204 S800
G1 F1200
G1 X118.503 Y91.07 E.02664
G1 X117.966 Y91.07 E.01692
G1 X118.93 Y92.034 E.04299
G1 X118.93 Y92.57 E.01692
G1 X117.43 Y91.07 E.06692
G1 X116.893 Y91.07 E.01692
G1 X118.93 Y93.107 E.09084
G1 X118.93 Y93.643 E.01692
G1 X116.357 Y91.07 E.11477
G1 X115.821 Y91.07 E.01692
G1 X118.93 Y94.179 E.13869
G1 X118.93 Y94.716 E.01692
G1 X115.284 Y91.07 E.16261
G1 X114.748 Y91.07 E.01692
G1 X118.93 Y95.252 E.18654
G1 X118.93 Y95.789 E.01692
M73 P7 R11
M73 Q7 S11
G1 X114.211 Y91.07 E.21046
G1 X113.675 Y91.07 E.01692
G1 X118.93 Y96.325 E.23438
G1 X118.93 Y96.861 E.01692
G1 X113.139 Y91.07 E.25831
G1 X112.602 Y91.07 E.01692
G1 X118.93 Y97.398 E.28223
G1 X118.93 Y97.934 E.01692
G1 X112.066 Y91.07 E.30615
G1 X111.529 Y91.07 E.01692
G1 X118.93 Y98.471 E.33008
G1 X118.93 Y99.007 E.01692
G1 X111.07 Y91.147 E.35058
G1 X111.07 Y91.683 E.01692
G1 X118.93 Y99.543 E.35058
G1 X118.93 Y100.08 E.01692
G1 X111.07 Y92.219 E.35058
G1 X111.07 Y92.756 E.01692
G1 X118.93 Y100.616 E.35058
G1 X118.93 Y101.153 E.01692
G1 X111.07 Y93.292 E.35058
G1 X111.07 Y93.829 E.01692
G1 X118.93 Y101.689 E.35058
G1 X118.93 Y102.225 E.01692
G1 X111.07 Y94.365 E.35058
G1 X111.07 Y94.901 E.01692
G1 X118.93 Y102.762 E.35058
G1 X118.93 Y103.298 E.01692
M73 P8 R11
M73 Q8 S11
G1 X111.07 Y95.438 E.35058
G1 X111.07 Y95.974 E.01692
G1 X118.93 Y103.834 E.35058
G1 X118.93 Y104.371 E.01692
G1 X111.07 Y96.511 E.35058
G1 X111.07 Y97.047 E.01692
G1 X118.93 Y104.907 E.35058
G1 X118.93 Y105.444 E.01692
G1 X111.07 Y97.583 E.35058
G1 X111.07 Y98.12 E.01692
G1 X118.93 Y105.98 E.35058
G1 X118.93 Y106.516 E.01692
G1 X111.07 Y98.656 E.35058
G1 X111.07 Y99.193 E.01692
G1 X118.93 Y107.053 E.35058
G1 X118.93 Y107.589 E.01692
G1 X111.07 Y99.729 E.35058
G1 X111.07 Y100.265 E.01692
G1 X118.93 Y108.126 E.35058
G1 X118.93 Y108.662 E.01692
G1 X111.07 Y100.802 E.35058
G1 X111.07 Y101.338 E.01692
G1 X118.93 Y109.198 E.35058
G1 X118.93 Y109.735 E.01692
M73 P9 R11
M73 Q9 S11
G1 X111.07 Y101.875 E.35058
G1 X111.07 Y102.411 E.01692
G1 X118.938 Y110.279 E.35095
G1 X118.974 Y110.492 E.00678
G1 X119.03 Y110.622 E.00448
G1 X119.178 Y110.822 E.00785
G1 X119.378 Y110.97 E.00785
G1 X119.509 Y111.026 E.00448
G1 X119.721 Y111.062 E.00678
G1 X127.589 Y118.93 E.35095
G1 X127.053 Y118.93 E.01692
G1 X111.07 Y102.947 E.71285
G1 X111.07 Y103.484 E.01692
G1 X126.516 Y118.93 E.68893
G1 X125.98 Y118.93 E.01692
G1 X111.07 Y104.02 E.665
G1 X111.07 Y104.556 E.01692
G1 X125.444 Y118.93 E.64108
G1 X124.907 Y118.93 E.01692
G1 X111.07 Y105.093 E.61716
G1 X111.07 Y105.629 E.01692
M73 Q10 S11
G1 X124.371 Y118.93 E.59323
M73 P10 R11
G1 X123.834 Y118.93 E.01692
G1 X111.07 Y106.166 E.56931
G1 X111.07 Y106.702 E.01692
G1 X123.298 Y118.93 E.54539
G1 X122.762 Y118.93 E.01692
M73 P10 R10
G1 X111.07 Y107.238 E.52146
G1 X111.07 Y107.775 E.01692
G1 X122.225 Y118.93 E.49754
G1 X121.689 Y118.93 E.01692
M73 Q10 S10
G1 X111.07 Y108.311 E.47362
G1 X111.07 Y108.848 E.01692
G1 X121.152 Y118.93 E.44969
G1 X120.616 Y118.93 E.01692
G1 X111.07 Y109.384 E.42577
G1 X111.07 Y109.92 E.01692
G1 X120.08 Y118.93 E.40184
G1 X119.543 Y118.93 E.01692
M73 P11 R10
M73 Q11 S10
G1 X111.07 Y110.457 E.37792
G1 X111.07 Y110.993 E.01692
G1 X119.007 Y118.93 E.354
G1 X118.47 Y118.93 E.01692
G1 X111.07 Y111.53 E.33007
G1 X111.07 Y112.066 E.01692
G1 X117.934 Y118.93 E.30615
G1 X117.398 Y118.93 E.01692
G1 X111.07 Y112.602 E.28223
G1 X111.07 Y113.139 E.01692
G1 X116.861 Y118.93 E.2583
G1 X116.325 Y118.93 E.01692
G1 X111.07 Y113.675 E.23438
G1 X111.07 Y114.212 E.01692
G1 X115.788 Y118.93 E.21046
G1 X115.252 Y118.93 E.01692
G1 X111.07 Y114.748 E.18653
G1 X111.07 Y115.284 E.01692
G1 X114.716 Y118.93 E.16261
G1 X114.179 Y118.93 E.01692
G1 X111.07 Y115.821 E.13868
G1 X111.07 Y116.357 E.01692
G1 X113.643 Y118.93 E.11476
G1 X113.107 Y118.93 E.01692
G1 X111.07 Y116.893 E.09084
G1 X111.07 Y117.43 E.01692
G1 X112.57 Y118.93 E.06691
G1 X112.034 Y118.93 E.01692
G1 X111.07 Y117.966 E.04299
G1 X111.07 Y118.503 E.01692
G1 X111.667 Y119.1 E.02663
M204 S1000
; stop printing object electronics lid supports v1.stl id:0 copy 0
M106 S84.15
;LAYER_CHANGE
;Z:0.5
;HEIGHT:0.3
;BEFORE_LAYER_CHANGE
G92 E0.0
;0.5


;WIPE_START
G1 F8640
G1 X111.07 Y118.503 E-.195
G1 X111.07 Y117.966 E-.12385
G1 X112.034 Y118.93 E-.31475
G1 X112.57 Y118.93 E-.12385
G1 X112.562 Y118.922 E-.00254
;WIPE_END
G1 E-.04 F2100
G1 Z.6 F720
;AFTER_LAYER_CHANGE
;0.5
G1 X112.562 Y122.754 F10800
G1 Z.5 F720
G1 E.8 F2100
;TYPE:Skirt/Brim
;WIDTH:0.42
G1 F2700
G1 X110 Y122.754 E.11365
G1 X108.583 Y122.361 E.06524
G1 X107.569 Y121.295 E.06524
G1 X107.246 Y120 E.05921
G1 X107.246 Y90 E1.33064
G1 X107.639 Y88.583 E.06524
G1 X108.705 Y87.569 E.06524
G1 X110 Y87.246 E.05921
M73 Q12 S10
G1 X120 Y87.246 E.44355
G1 X121.947 Y88.053 E.0935
M73 P12 R10
G1 X141.947 Y108.053 E1.25454
G1 X142.754 Y110 E.0935
G1 X142.754 Y120 E.44355
G1 X142.361 Y121.417 E.06524
G1 X141.295 Y122.431 E.06524
G1 X140 Y122.754 E.05921
G1 X112.622 Y122.754 E1.21433
G1 X112.622 Y122.377 F10800
G1 F2700
G1 X110 Y122.377 E.11631
G1 X108.693 Y121.985 E.06052
G1 X107.817 Y120.94 E.06052
G1 X107.623 Y120 E.04256
G1 X107.623 Y90 E1.33064
G1 X108.015 Y88.693 E.06052
G1 X109.06 Y87.817 E.06052
G1 X110 Y87.623 E.04256
G1 X120 Y87.623 E.44355
G1 X121.681 Y88.319 E.0807
G1 X141.681 Y108.319 E1.25454
G1 X142.377 Y110 E.0807
G1 X142.377 Y120 E.44355
G1 X141.985 Y121.307 E.06052
G1 X140.94 Y122.183 E.06052
G1 X140 Y122.377 E.04256
G1 X112.682 Y122.377 E1.21167
; printing object electronics lid supports v1.stl id:0 copy 0
;WIPE_START
G1 F8640
G1 X110 Y122.377 E-.61936
G1 X109.417 Y122.202 E-.14064
;WIPE_END
G1 E-.04 F2100
G1 Z.9 F720
G1 X119.24 Y110.186 F10800
G1 Z.5 F720
G1 E.8 F2100
M204 S800
;TYPE:Perimeter
;WIDTH:0.5
G1 F3000
G1 X119.255 Y110.275 E.00489
G1 X119.435 Y110.565 E.01855
G1 X119.725 Y110.745 E.01855
G1 X119.968 Y110.786 E.01338
G1 X139.214 Y110.786 E1.04572
G1 X139.214 Y119.214 E.45796
G1 X110.786 Y119.214 E1.54461
G1 X110.786 Y90.786 E1.54461
G1 X119.214 Y90.786 E.45796
M73 Q13 S10
G1 X119.214 Y110.032 E1.04572
M73 P13 R10
G1 X119.23 Y110.127 E.00523
M204 S1000
G1 X119.704 Y110.076 F10800
M204 S800
;TYPE:External perimeter
;WIDTH:0.6
G1 F2100
G1 X119.808 Y110.247 E.01336
G1 X119.968 Y110.3 E.01126
G1 X139.7 Y110.3 E1.31822
G1 X139.7 Y119.7 E.62797
G1 X110.3 Y119.7 E1.96408
G1 X110.3 Y90.3 E1.96408
G1 X119.7 Y90.3 E.62797
G1 X119.7 Y110.016 E1.31716
M204 S1000
G1 X119.602 Y110.249 F10800
;WIPE_START
G1 F8640
G1 X119.808 Y110.247 E-.05878
G1 X119.968 Y110.3 E-.0389
G1 X122.836 Y110.3 E-.66231
;WIPE_END
G1 E-.04 F2100
G1 Z.9 F720
G1 X138.197 Y119.084 F10800
G1 Z.5 F720
G1 E.8 F2100
;TYPE:Solid infill
;WIDTH:0.502802
G1 F4800
G1 X138.888 Y118.393 E.0534
G1 X138.888 Y117.773 E.0339
G1 X137.773 Y118.888 E.08619
G1 X137.153 Y118.888 E.0339
G1 X138.888 Y117.153 E.13414
G1 X138.888 Y116.533 E.0339
G1 X136.533 Y118.888 E.18208
G1 X135.913 Y118.888 E.0339
G1 X138.888 Y115.913 E.23003
G1 X138.888 Y115.293 E.0339
G1 X135.293 Y118.888 E.27798
G1 X134.673 Y118.888 E.0339
G1 X138.888 Y114.673 E.32593
G1 X138.888 Y114.053 E.0339
G1 X134.053 Y118.888 E.37387
G1 X133.433 Y118.888 E.0339
G1 X138.888 Y113.433 E.42182
G1 X138.888 Y112.813 E.0339
G1 X132.813 Y118.888 E.46977
G1 X132.193 Y118.888 E.0339
G1 X138.888 Y112.193 E.51772
G1 X138.888 Y111.573 E.0339
G1 X131.573 Y118.888 E.56566
G1 X130.953 Y118.888 E.0339
G1 X138.728 Y111.112 E.60128
G1 X138.108 Y111.112 E.0339
G1 X130.333 Y118.888 E.60128
G1 X129.713 Y118.888 E.0339
G1 X137.488 Y111.112 E.60128
G1 X136.868 Y111.112 E.0339
M73 Q14 S10
G1 X129.093 Y118.888 E.60128
G1 X128.473 Y118.888 E.0339
M73 P14 R10
G1 X136.248 Y111.112 E.60128
G1 X135.628 Y111.112 E.0339
G1 X127.853 Y118.888 E.60128
G1 X127.233 Y118.888 E.0339
G1 X135.008 Y111.112 E.60128
G1 X134.388 Y111.112 E.0339
G1 X126.613 Y118.888 E.60128
G1 X125.993 Y118.888 E.0339
G1 X133.768 Y111.112 E.60128
G1 X133.148 Y111.112 E.0339
G1 X125.373 Y118.888 E.60128
G1 X124.753 Y118.888 E.0339
G1 X132.528 Y111.112 E.60128
G1 X131.908 Y111.112 E.0339
G1 X124.133 Y118.888 E.60128
G1 X123.513 Y118.888 E.0339
G1 X131.288 Y111.112 E.60128
G1 X130.668 Y111.112 E.0339
G1 X122.893 Y118.888 E.60128
G1 X122.273 Y118.888 E.0339
G1 X130.048 Y111.112 E.60128
G1 X129.428 Y111.112 E.0339
G1 X121.653 Y118.888 E.60128
G1 X121.033 Y118.888 E.0339
G1 X128.808 Y111.112 E.60128
G1 X128.188 Y111.112 E.0339
G1 X120.413 Y118.888 E.60128
G1 X119.793 Y118.888 E.0339
G1 X127.568 Y111.112 E.60128
G1 X126.948 Y111.112 E.0339
G1 X119.173 Y118.888 E.60128
G1 X118.553 Y118.888 E.0339
G1 X126.328 Y111.112 E.60128
G1 X125.708 Y111.112 E.0339
G1 X117.932 Y118.888 E.60128
G1 X117.312 Y118.888 E.0339
G1 X125.088 Y111.112 E.60128
G1 X124.468 Y111.112 E.0339
G1 X116.692 Y118.888 E.60128
G1 X116.072 Y118.888 E.0339
G1 X123.848 Y111.112 E.60128
G1 X123.228 Y111.112 E.0339
G1 X115.452 Y118.888 E.60128
G1 X114.832 Y118.888 E.0339
G1 X122.608 Y111.112 E.60128
G1 X121.988 Y111.112 E.0339
G1 X114.212 Y118.888 E.60128
G1 X113.592 Y118.888 E.0339
G1 X121.368 Y111.112 E.60128
G1 X120.748 Y111.112 E.0339
G1 X112.972 Y118.888 E.60128
G1 X112.352 Y118.888 E.0339
G1 X120.128 Y111.112 E.60128
G1 X119.79 Y111.098 E.01847
G1 X119.581 Y111.039 E.01187
G1 X111.732 Y118.888 E.60699
G1 X111.112 Y118.888 E.0339
G1 X119.203 Y110.797 E.62568
G1 X119.015 Y110.542 E.01735
G1 X118.961 Y110.419 E.00733
G1 X111.112 Y118.268 E.60699
G1 X111.112 Y117.648 E.0339
G1 X118.888 Y109.872 E.60129
G1 X118.888 Y109.252 E.0339
M73 Q15 S10
G1 X111.112 Y117.028 E.60129
M73 P15 R10
G1 X111.112 Y116.408 E.0339
G1 X118.888 Y108.632 E.60129
G1 X118.888 Y108.012 E.0339
G1 X111.112 Y115.787 E.60129
G1 X111.112 Y115.167 E.0339
G1 X118.888 Y107.392 E.60129
G1 X118.888 Y106.772 E.0339
G1 X111.112 Y114.547 E.60129
G1 X111.112 Y113.927 E.0339
G1 X118.888 Y106.152 E.60129
G1 X118.888 Y105.532 E.0339
G1 X111.112 Y113.307 E.60129
G1 X111.112 Y112.687 E.0339
G1 X118.888 Y104.912 E.60129
G1 X118.888 Y104.292 E.0339
G1 X111.112 Y112.067 E.60129
G1 X111.112 Y111.447 E.0339
