; generated by PrusaSlicer 2.5.0+MacOS-x64 on 2023-05-23 at 11:23:16 UTC


;
;
; 

; external perimeters extrusion width = 0.60mm
; perimeters extrusion width = 0.50mm
; infill extrusion width = 0.50mm
; solid infill extrusion width = 0.50mm
; top infill extrusion width = 0.45mm
; first layer extrusion width = 0.42mm

M73 P0 R75
M73 Q0 S76
M201 X1000 Y1000 Z200 E5000 ; sets maximum accelerations, mm/sec^2
M203 X200 Y200 Z12 E120 ; sets maximum feedrates, mm / sec
M204 P1250 R1250 T1250 ; sets acceleration (P, T) and retract acceleration (R), mm/sec^2
M205 X8.00 Y8.00 Z0.40 E4.50 ; sets the jerk limits, mm/sec
M205 S0 T0 ; sets the minimum extruding and travel feed rate, mm/sec
M107
;TYPE:Custom
M862.3 P "MK3S" ; printer model check
M862.1 P0.4 ; nozzle diameter check
M115 U3.11.0 ; tell printer latest fw version
G90 ; use absolute coordinates
M83 ; extruder relative mode
M104 S215 ; set extruder temp
M140 S60 ; set bed temp
M190 S60 ; wait for bed temp
M109 S215 ; wait for extruder temp
G28 W ; home all without mesh bed level
G80 ; mesh bed leveling

G1 Z0.2 F720
G1 Y-3 F1000 ; go outside print area
G92 E0
G1 X60 E9 F1000 ; intro line
G1 X100 E12.5 F1000 ; intro line

G92 E0
M221 S95

; Don't change E values below. Excessive value can damage the printer.

M907 E538 ; set extruder motor current
G21 ; set units to millimeters
G90 ; use absolute coordinates
M83 ; use relative distances for extrusion
M900 K0.05 ; Filament gcode LA 1.5
M900 K30 ; Filament gcode LA 1.0
M107
;LAYER_CHANGE
;Z:0.2
;HEIGHT:0.2
;BEFORE_LAYER_CHANGE
G92 E0.0
;0.2


G1 E-.8 F2100
G1 Z.4 F720
;AFTER_LAYER_CHANGE
;0.2
G1 X17.625 Y63.145 F10800
G1 Z.2 F720
G1 E.8 F2100
M204 S800
;TYPE:Skirt/Brim
;WIDTH:0.42
G1 F1200
G1 X19.111 Y62.73 E.04837
G1 X21.17 Y62.541 E.06483
G1 X225.09 Y62.536 E6.39377
G1 X229.913 Y62.594 E.15123
M73 P0 R74
G1 X231.846 Y62.951 E.06161
G1 X233.667 Y63.646 E.06112
G1 X234.511 Y64.119 E.03035
G1 X235.298 Y64.674 E.03019
G1 X236.015 Y65.31 E.03004
G1 X236.651 Y66.022 E.02993
G1 X237.192 Y66.805 E.02985
G1 X237.625 Y67.652 E.02981
G1 X237.937 Y68.549 E.02977
G1 X238.118 Y69.479 E.02972
G1 X238.174 Y73.001 E.11045
G1 X238.162 Y139.924 E2.09831
G1 X238.068 Y140.862 E.02956
G1 X237.841 Y141.774 E.02945
G1 X237.491 Y142.642 E.02936
G1 X236.651 Y143.978 E.04948
G1 X236.015 Y144.69 E.02993
G1 X235.094 Y145.482 E.0381
G1 X234.304 Y146.008 E.02974
G1 X232.775 Y146.743 E.0532
G1 X230.889 Y147.27 E.0614
G1 X228.83 Y147.459 E.06483
G1 X21.071 Y147.457 E6.51413
G1 X19.317 Y147.306 E.05521
G1 X18.154 Y147.049 E.03732
G1 X16.542 Y146.454 E.0539
G1 X15.489 Y145.881 E.03759
G1 X14.182 Y144.88 E.05162
G1 X13.349 Y143.978 E.03848
G1 X12.509 Y142.642 E.04948
G1 X12.159 Y141.774 E.02936
G1 X11.932 Y140.862 E.02945
G1 X11.832 Y139.755 E.03486
G1 X11.838 Y70.076 E2.18472
G1 X11.932 Y69.138 E.02956
G1 X12.159 Y68.226 E.02945
G1 X12.509 Y67.358 E.02937
G1 X13.349 Y66.022 E.04948
G1 X13.985 Y65.31 E.02993
G1 X14.906 Y64.518 E.0381
G1 X15.696 Y63.992 E.02975
G1 X17.225 Y63.257 E.0532
G1 X17.568 Y63.161 E.01115
M204 S1000
; printing object physical model 13.stl id:0 copy 0
;WIPE_START
G1 F8640
G1 X19.111 Y62.73 E-.37009
G1 X20.793 Y62.575 E-.38991
;WIPE_END
G1 E-.04 F2100
G1 Z.6 F720
G1 X228.809 Y66.508 F10800
G1 Z.2 F720
G1 E.8 F2100
M204 S800
;TYPE:Perimeter
;WIDTH:0.419999
G1 F1200
G1 X229.421 Y66.534 E.01921
G1 X230.007 Y66.61 E.01853
G1 X230.577 Y66.736 E.01827
G1 X231.121 Y66.908 E.0179
G1 X231.632 Y67.125 E.01741
G1 X232.104 Y67.381 E.01684
G1 X232.53 Y67.673 E.01619
G1 X233.04 Y68.139 E.02167
G1 X233.373 Y68.544 E.01641
G1 X233.693 Y69.081 E.01962
G1 X233.88 Y69.66 E.01907
G1 X233.955 Y70.281 E.01962
G1 X233.986 Y75.743 E.17124
G1 X233.986 Y134.258 E1.83472
M73 Q0 S75
G1 X233.947 Y139.838 E.17495
G1 X233.88 Y140.34 E.01589
G1 X233.693 Y140.919 E.01907
G1 X233.373 Y141.456 E.01962
G1 X233.04 Y141.861 E.01641
G1 X232.53 Y142.327 E.02167
G1 X232.104 Y142.619 E.01619
G1 X231.632 Y142.875 E.01684
G1 X231.121 Y143.092 E.01741
G1 X230.577 Y143.264 E.0179
G1 X230.007 Y143.39 E.01827
G1 X229.421 Y143.466 E.01853
G1 X228.81 Y143.492 E.0192
G1 X21.19 Y143.492 E6.50975
G1 X20.579 Y143.466 E.0192
M73 P1 R74
M73 Q1 S75
G1 X19.993 Y143.39 E.01853
G1 X19.423 Y143.264 E.01827
G1 X18.879 Y143.092 E.0179
G1 X18.368 Y142.875 E.01741
G1 X17.896 Y142.619 E.01684
G1 X17.47 Y142.327 E.01619
G1 X16.96 Y141.861 E.02167
G1 X16.627 Y141.456 E.01641
G1 X16.307 Y140.919 E.01962
G1 X16.119 Y140.34 E.01907
G1 X16.045 Y139.719 E.01962
G1 X16.014 Y134.258 E.17122
G1 X16.014 Y75.742 E1.83474
G1 X16.053 Y70.162 E.17495
G1 X16.12 Y69.66 E.01588
G1 X16.307 Y69.081 E.01907
G1 X16.627 Y68.544 E.01962
G1 X16.96 Y68.139 E.01641
G1 X17.47 Y67.673 E.02167
G1 X17.896 Y67.381 E.01619
G1 X18.368 Y67.125 E.01684
G1 X18.879 Y66.908 E.01741
G1 X19.423 Y66.736 E.0179
G1 X19.993 Y66.61 E.01827
G1 X20.579 Y66.534 E.01853
G1 X21.19 Y66.508 E.0192
G1 X228.749 Y66.508 E6.50786
M204 S1000
G1 X228.769 Y66.133 F10800
M204 S800
;TYPE:External perimeter
G1 F1200
G1 X229.223 Y66.148 E.01424
G1 X229.848 Y66.209 E.01969
G1 X230.457 Y66.323 E.01942
G1 X231.041 Y66.488 E.01904
G1 X231.594 Y66.699 E.01857
G1 X232.109 Y66.955 E.01802
G1 X232.579 Y67.25 E.0174
G1 X233 Y67.579 E.01675
G1 X233.362 Y67.932 E.01583
G1 X233.678 Y68.323 E.01578
G1 X234.036 Y68.925 E.02196
G1 X234.249 Y69.578 E.02154
G1 X234.332 Y70.266 E.02173
G1 X234.363 Y75.741 E.17168
G1 X234.363 Y134.259 E1.83478
G1 X234.334 Y139.446 E.16263
M73 P1 R73
G1 X234.315 Y139.968 E.01638
G1 X234.2 Y140.641 E.02139
G1 X233.914 Y141.301 E.02256
G1 X233.518 Y141.899 E.02251
G1 X233.167 Y142.278 E.01618
G1 X232.76 Y142.627 E.01681
G1 X232.301 Y142.941 E.01744
G1 X231.796 Y143.215 E.01802
G1 X231.251 Y143.446 E.01854
G1 X230.674 Y143.629 E.01898
G1 X230.073 Y143.762 E.01932
G1 X229.454 Y143.842 E.01956
G1 X228.818 Y143.869 E.01996
G1 X21.303 Y143.869 E6.50646
G1 X20.777 Y143.852 E.01652
G1 X20.152 Y143.791 E.01969
G1 X19.543 Y143.677 E.01942
G1 X18.959 Y143.512 E.01904
G1 X18.405 Y143.301 E.01857
G1 X17.891 Y143.045 E.01802
G1 X17.42 Y142.75 E.0174
G1 X17 Y142.421 E.01675
G1 X16.638 Y142.068 E.01584
G1 X16.322 Y141.677 E.01578
G1 X15.963 Y141.075 E.02195
G1 X15.751 Y140.422 E.02155
G1 X15.668 Y139.734 E.02173
G1 X15.637 Y134.259 E.17165
G1 X15.637 Y75.741 E1.83481
G1 X15.666 Y70.554 E.16263
G1 X15.685 Y70.032 E.01638
G1 X15.8 Y69.359 E.02139
G1 X16.086 Y68.699 E.02256
G1 X16.482 Y68.101 E.02251
G1 X16.833 Y67.722 E.01618
G1 X17.24 Y67.373 E.01681
G1 X17.699 Y67.059 E.01744
G1 X18.204 Y66.785 E.01802
G1 X18.749 Y66.554 E.01854
G1 X19.326 Y66.371 E.01898
G1 X19.927 Y66.238 E.01932
G1 X20.546 Y66.158 E.01956
G1 X21.182 Y66.131 E.01996
G1 X228.709 Y66.131 E6.50685
M204 S1000
G1 X228.961 Y66.484 F10800
;WIPE_START
M73 P2 R73
M73 Q2 S75
G1 F8640
G1 X229.223 Y66.148 E-.11875
G1 X229.848 Y66.209 E-.14502
G1 X230.457 Y66.323 E-.14299
G1 X231.041 Y66.488 E-.14022
G1 X231.594 Y66.699 E-.13673
G1 X231.89 Y66.846 E-.07629
;WIPE_END
G1 E-.04 F2100
G1 Z.6 F720
G1 X29.133 Y136.932 F10800
G1 Z.2 F720
M73 Q2 S74
G1 E.8 F2100
M204 S800
;TYPE:Perimeter
G1 F1200
G1 X29.081 Y136.258 E.02123
G1 X29.081 Y73.742 E1.96011
G1 X29.125 Y73.101 E.02015
G1 X29.265 Y72.422 E.02175
G1 X29.499 Y71.762 E.02195
G1 X29.821 Y71.131 E.02222
G1 X30.227 Y70.537 E.02257
G1 X30.71 Y69.986 E.02296
G1 X31.262 Y69.484 E.02339
G1 X31.875 Y69.035 E.02384
G1 X32.543 Y68.643 E.02428
G1 X33.257 Y68.311 E.02468
G1 X34.009 Y68.042 E.02505
G1 X34.791 Y67.838 E.02534
G1 X35.595 Y67.701 E.02556
G1 X36.843 Y67.621 E.03922
G1 X213.157 Y67.621 E5.5282
G1 X214.358 Y67.695 E.03773
G1 X215.162 Y67.828 E.02553
G1 X215.943 Y68.028 E.0253
G1 X216.695 Y68.292 E.02499
G1 X217.409 Y68.618 E.02461
G1 X218.077 Y69.004 E.02419
G1 X218.692 Y69.446 E.02374
G1 X219.245 Y69.941 E.02328
G1 X219.731 Y70.484 E.02285
G1 X220.142 Y71.07 E.02245
G1 X220.471 Y71.694 E.02211
G1 X220.714 Y72.348 E.02186
G1 X220.864 Y73.023 E.02169
G1 X220.919 Y73.742 E.02263
G1 X220.919 Y136.261 E1.96021
G1 X220.875 Y136.899 E.02005
G1 X220.735 Y137.578 E.02175
G1 X220.501 Y138.238 E.02195
G1 X220.179 Y138.869 E.02222
G1 X219.773 Y139.463 E.02257
G1 X219.29 Y140.014 E.02296
G1 X218.738 Y140.516 E.02339
G1 X218.125 Y140.965 E.02384
G1 X217.457 Y141.357 E.02428
G1 X216.743 Y141.689 E.02468
G1 X215.991 Y141.958 E.02504
G1 X215.209 Y142.162 E.02534
G1 X214.405 Y142.299 E.02556
G1 X213.157 Y142.379 E.03922
G1 X36.843 Y142.379 E5.5282
G1 X35.642 Y142.305 E.03773
G1 X34.838 Y142.172 E.02553
G1 X34.057 Y141.972 E.0253
G1 X33.305 Y141.708 E.02499
G1 X32.591 Y141.382 E.02461
G1 X31.923 Y140.996 E.02419
G1 X31.308 Y140.554 E.02374
G1 X30.755 Y140.059 E.02328
G1 X30.269 Y139.516 E.02284
G1 X29.858 Y138.93 E.02245
G1 X29.529 Y138.306 E.02211
G1 X29.286 Y137.652 E.02186
G1 X29.14 Y136.992 E.02121
M204 S1000
G1 X29.521 Y136.97 F10800
M204 S800
;TYPE:External perimeter
G1 F1200
G1 X29.458 Y136.258 E.02243
G1 X29.458 Y73.742 E1.96011
G1 X29.501 Y73.128 E.01932
G1 X29.634 Y72.501 E.02009
G1 X29.853 Y71.891 E.02033
G1 X30.156 Y71.305 E.02067
G1 X30.537 Y70.752 E.02108
G1 X30.992 Y70.236 E.02156
G1 X31.514 Y69.764 E.02207
G1 X32.097 Y69.34 E.02259
G1 X32.733 Y68.969 E.02309
G1 X33.415 Y68.654 E.02356
G1 X34.135 Y68.398 E.02397
G1 X34.885 Y68.203 E.0243
G1 X35.657 Y68.073 E.02455
G1 X36.843 Y67.998 E.03725
G1 X213.157 Y67.998 E5.5282
G1 X214.327 Y68.071 E.03675
M73 P3 R72
M73 Q3 S74
G1 X215.099 Y68.2 E.02454
G1 X215.849 Y68.393 E.02429
G1 X216.569 Y68.647 E.02395
G1 X217.251 Y68.961 E.02353
G1 X217.887 Y69.33 E.02306
G1 X218.47 Y69.751 E.02255
G1 X218.993 Y70.221 E.02203
G1 X219.449 Y70.734 E.02152
G1 X219.832 Y71.285 E.02104
G1 X220.137 Y71.868 E.02063
G1 X220.359 Y72.476 E.0203
G1 X220.495 Y73.102 E.02007
G1 X220.542 Y73.742 E.02014
G1 X220.542 Y136.259 E1.96014
G1 X220.499 Y136.872 E.01928
G1 X220.366 Y137.499 E.02009
G1 X220.147 Y138.109 E.02033
G1 X219.844 Y138.695 E.02067
G1 X219.463 Y139.248 E.02108
G1 X219.008 Y139.764 E.02156
G1 X218.486 Y140.236 E.02207
G1 X217.903 Y140.66 E.02259
G1 X217.267 Y141.031 E.02309
G1 X216.585 Y141.346 E.02356
G1 X215.865 Y141.602 E.02397
G1 X215.115 Y141.797 E.0243
G1 X214.343 Y141.927 E.02455
G1 X213.157 Y142.002 E.03725
G1 X36.843 Y142.002 E5.5282
G1 X35.673 Y141.929 E.03675
G1 X34.901 Y141.8 E.02454
G1 X34.151 Y141.607 E.02429
G1 X33.431 Y141.353 E.02395
G1 X32.749 Y141.039 E.02353
G1 X32.113 Y140.67 E.02306
G1 X31.53 Y140.249 E.02255
G1 X31.007 Y139.779 E.02203
G1 X30.551 Y139.266 E.02152
G1 X30.168 Y138.715 E.02104
G1 X29.863 Y138.132 E.02063
G1 X29.641 Y137.524 E.0203
G1 X29.533 Y137.029 E.01588
M204 S1000
G1 X29.148 Y136.826 F10800
;WIPE_START
G1 F8640
G1 X29.458 Y136.258 E-.17893
G1 X29.458 Y133.741 E-.58107
;WIPE_END
G1 E-.04 F2100
G1 Z.6 F720
G1 X231.921 Y67.41 F10800
G1 Z.2 F720
G1 E.8 F2100
M204 S800
;TYPE:Solid infill
;WIDTH:0.42068
G1 F1200
G1 X233.006 Y68.519 E.04875
G1 X233.248 Y68.855 E.01299
G1 X233.435 Y69.199 E.01229
G1 X233.578 Y69.602 E.01343
G1 X231.244 Y67.268 E.10369
G1 X231.023 Y67.174 E.00754
G1 X230.436 Y66.995 E.01926
G1 X233.668 Y70.226 E.14354
G1 X233.675 Y70.768 E.01702
G1 X229.773 Y66.865 E.17336
G1 X229.18 Y66.807 E.0187
G1 X233.678 Y71.305 E.19981
G1 X233.681 Y71.842 E.01687
G1 X228.63 Y66.791 E.2244
G1 X228.095 Y66.791 E.01678
G1 X233.684 Y72.379 E.24826
G1 X233.687 Y72.916 E.01687
G1 X227.561 Y66.791 E.27212
G1 X227.027 Y66.791 E.01678
G1 X233.69 Y73.454 E.29599
G1 X233.693 Y73.991 E.01687
G1 X226.493 Y66.791 E.31985
G1 X225.959 Y66.791 E.01678
G1 X233.696 Y74.528 E.34371
G1 X233.699 Y75.065 E.01687
G1 X225.424 Y66.791 E.36758
G1 X224.89 Y66.791 E.01678
G1 X233.702 Y75.603 E.39144
G1 X233.703 Y76.138 E.01681
M73 Q3 S73
G1 X224.356 Y66.791 E.41521
G1 X223.822 Y66.791 E.01678
G1 X233.703 Y76.672 E.43894
G1 X233.703 Y77.206 E.01678
G1 X223.287 Y66.791 E.46267
G1 X222.753 Y66.791 E.01678
G1 X233.703 Y77.74 E.4864
G1 X233.703 Y78.274 E.01678
G1 X222.219 Y66.791 E.51013
G1 X221.685 Y66.791 E.01678
G1 X233.703 Y78.809 E.53387
G1 X233.703 Y79.343 E.01678
G1 X221.15 Y66.791 E.5576
G1 X220.616 Y66.791 E.01678
G1 X233.703 Y79.877 E.58133
G1 X233.703 Y80.411 E.01678
G1 X220.082 Y66.791 E.60506
G1 X219.548 Y66.791 E.01678
G1 X233.703 Y80.946 E.62879
G1 X233.703 Y81.48 E.01678
G1 X219.013 Y66.791 E.65252
G1 X218.479 Y66.791 E.01678
G1 X233.703 Y82.014 E.67625
G1 X233.703 Y82.548 E.01678
G1 X217.945 Y66.791 E.69999
G1 X217.411 Y66.791 E.01678
G1 X233.703 Y83.083 E.72372
G1 X233.703 Y83.617 E.01678
G1 X216.877 Y66.791 E.74745
G1 X216.342 Y66.791 E.01678
G1 X233.703 Y84.151 E.77118
G1 X233.703 Y84.685 E.01678
G1 X220.808 Y71.79 E.57283
G1 X220.981 Y72.256 E.01563
G1 X221.051 Y72.568 E.01004
G1 X233.703 Y85.22 E.56199
G1 X233.703 Y85.754 E.01678
G1 X221.161 Y73.212 E.55712
G1 X221.2 Y73.785 E.01803
G1 X233.703 Y86.288 E.55541
G1 X233.703 Y86.822 E.01678
G1 X221.2 Y74.319 E.55541
G1 X221.2 Y74.853 E.01678
G1 X233.703 Y87.356 E.55541
G1 X233.703 Y87.891 E.01678
G1 X221.2 Y75.388 E.55541
G1 X221.2 Y75.922 E.01678
M73 P4 R72
G1 X233.703 Y88.425 E.55541
G1 X233.703 Y88.959 E.01678
M73 Q4 S73
G1 X221.2 Y76.456 E.55541
G1 X221.2 Y76.99 E.01678
G1 X233.703 Y89.493 E.55541
G1 X233.703 Y90.028 E.01678
G1 X221.2 Y77.525 E.5554
G1 X221.2 Y78.059 E.01678
G1 X233.703 Y90.562 E.5554
G1 X233.703 Y91.096 E.01678
G1 X221.2 Y78.593 E.5554
G1 X221.2 Y79.127 E.01678
G1 X233.703 Y91.63 E.5554
G1 X233.703 Y92.165 E.01678
G1 X221.2 Y79.662 E.5554
G1 X221.2 Y80.196 E.01678
G1 X233.703 Y92.699 E.5554
G1 X233.703 Y93.233 E.01678
G1 X221.2 Y80.73 E.5554
G1 X221.2 Y81.264 E.01678
M73 P4 R71
G1 X233.703 Y93.767 E.5554
G1 X233.703 Y94.301 E.01678
G1 X221.2 Y81.799 E.5554
G1 X221.2 Y82.333 E.01678
G1 X233.703 Y94.836 E.5554
G1 X233.703 Y95.37 E.01678
G1 X221.2 Y82.867 E.5554
G1 X221.2 Y83.401 E.01678
G1 X233.703 Y95.904 E.5554
G1 X233.703 Y96.438 E.01678
G1 X221.2 Y83.936 E.5554
G1 X221.2 Y84.47 E.01678
G1 X233.703 Y96.973 E.5554
G1 X233.703 Y97.507 E.01678
G1 X221.2 Y85.004 E.55539
G1 X221.2 Y85.538 E.01678
G1 X233.703 Y98.041 E.55539
G1 X233.703 Y98.575 E.01678
G1 X221.2 Y86.073 E.55539
G1 X221.2 Y86.607 E.01678
G1 X233.703 Y99.11 E.55539
G1 X233.703 Y99.644 E.01678
G1 X221.2 Y87.141 E.55539
G1 X221.2 Y87.675 E.01678
G1 X233.703 Y100.178 E.55539
G1 X233.703 Y100.712 E.01678
G1 X221.2 Y88.21 E.55539
G1 X221.2 Y88.744 E.01678
G1 X233.703 Y101.247 E.55539
G1 X233.703 Y101.781 E.01678
G1 X221.2 Y89.278 E.55539
G1 X221.2 Y89.812 E.01678
G1 X233.703 Y102.315 E.55539
G1 X233.703 Y102.849 E.01678
G1 X221.2 Y90.347 E.55539
G1 X221.2 Y90.881 E.01678
G1 X233.703 Y103.383 E.55539
G1 X233.703 Y103.918 E.01678
G1 X221.2 Y91.415 E.55539
G1 X221.2 Y91.949 E.01678
G1 X233.703 Y104.452 E.55539
G1 X233.703 Y104.986 E.01678
G1 X221.2 Y92.484 E.55538
G1 X221.2 Y93.018 E.01678
G1 X233.703 Y105.52 E.55538
G1 X233.703 Y106.055 E.01678
G1 X221.2 Y93.552 E.55538
G1 X221.2 Y94.086 E.01678
G1 X233.703 Y106.589 E.55538
G1 X233.703 Y107.123 E.01678
G1 X221.2 Y94.621 E.55538
G1 X221.2 Y95.155 E.01678
G1 X233.703 Y107.657 E.55538
G1 X233.703 Y108.192 E.01678
G1 X221.2 Y95.689 E.55538
G1 X221.2 Y96.223 E.01678
G1 X233.703 Y108.726 E.55538
G1 X233.703 Y109.26 E.01678
G1 X221.2 Y96.758 E.55538
G1 X221.2 Y97.292 E.01678
G1 X233.703 Y109.794 E.55538
G1 X233.703 Y110.328 E.01678
M73 Q4 S72
G1 X221.2 Y97.826 E.55538
G1 X221.2 Y98.36 E.01678
G1 X233.703 Y110.863 E.55538
G1 X233.703 Y111.397 E.01678
G1 X221.2 Y98.895 E.55538
G1 X221.2 Y99.429 E.01678
G1 X233.703 Y111.931 E.55538
G1 X233.703 Y112.465 E.01678
G1 X221.2 Y99.963 E.55538
G1 X221.2 Y100.497 E.01678
G1 X233.703 Y113 E.55537
G1 X233.703 Y113.534 E.01678
G1 X221.2 Y101.032 E.55537
G1 X221.201 Y101.566 E.01678
G1 X233.703 Y114.068 E.55537
G1 X233.703 Y114.602 E.01678
M73 P5 R71
G1 X221.201 Y102.1 E.55537
G1 X221.201 Y102.634 E.01678
G1 X233.703 Y115.137 E.55537
G1 X233.703 Y115.671 E.01678
M73 Q5 S72
G1 X221.201 Y103.169 E.55537
G1 X221.201 Y103.703 E.01678
G1 X233.703 Y116.205 E.55537
G1 X233.703 Y116.739 E.01678
G1 X221.201 Y104.237 E.55537
G1 X221.201 Y104.771 E.01678
G1 X233.703 Y117.274 E.55537
G1 X233.703 Y117.808 E.01678
G1 X221.201 Y105.306 E.55537
G1 X221.201 Y105.84 E.01678
