; generated by PrusaSlicer 2.5.0+MacOS-x64 on 2023-05-05 at 11:43:45 UTC


;
;
; 

; external perimeters extrusion width = 0.45mm
; perimeters extrusion width = 0.45mm
; infill extrusion width = 0.45mm
; solid infill extrusion width = 0.45mm
; top infill extrusion width = 0.40mm
; first layer extrusion width = 0.42mm

M73 P0 R187
M73 Q0 S187
M201 X1000 Y1000 Z200 E5000 ; sets maximum accelerations, mm/sec^2
M203 X200 Y200 Z12 E120 ; sets maximum feedrates, mm / sec
M204 P1250 R1250 T1250 ; sets acceleration (P, T) and retract acceleration (R), mm/sec^2
M205 X8.00 Y8.00 Z0.40 E4.50 ; sets the jerk limits, mm/sec
M205 S0 T0 ; sets the minimum extruding and travel feed rate, mm/sec
M107
;TYPE:Custom
M862.3 P "MK3S" ; printer model check
M862.1 P0.4 ; nozzle diameter check
M115 U3.11.0 ; tell printer latest fw version
G90 ; use absolute coordinates
M83 ; extruder relative mode
M104 S215 ; set extruder temp
M140 S60 ; set bed temp
M190 S60 ; wait for bed temp
M109 S215 ; wait for extruder temp
G28 W ; home all without mesh bed level
G80 ; mesh bed leveling

G1 Z0.2 F720
G1 Y-3 F1000 ; go outside print area
G92 E0
G1 X60 E9 F1000 ; intro line
G1 X100 E12.5 F1000 ; intro line

G92 E0
M221 S95

; Don't change E values below. Excessive value can damage the printer.
M907 E430 ; set extruder motor current
G21 ; set units to millimeters
G90 ; use absolute coordinates
M83 ; use relative distances for extrusion
M900 K0.05 ; Filament gcode LA 1.5
M900 K30 ; Filament gcode LA 1.0
M107
;LAYER_CHANGE
;Z:0.2
;HEIGHT:0.2
;BEFORE_LAYER_CHANGE
G92 E0.0
;0.2


G1 E-.8 F2100
G1 Z.4 F720
;AFTER_LAYER_CHANGE
;0.2
G1 X99.633 Y81.448 F10800
G1 Z.2 F720
G1 E.8 F2100
M204 S800
;TYPE:Skirt/Brim
;WIDTH:0.42
G1 F1200
G1 X101.013 Y79.76 E.06839
G1 X101.524 Y79.232 E.02302
M73 P0 R186
G1 X106.146 Y75.425 E.18774
G1 X106.75 Y75.008 E.02302
G1 X112.025 Y72.175 E.18774
G1 X112.699 Y71.884 E.02302
G1 X118.425 Y70.134 E.18774
G1 X119.143 Y69.98 E.02302
G1 X125.101 Y69.382 E.18774
G1 X126.068 Y69.382 E.03032
G1 X131.794 Y69.946 E.18043
G1 X132.743 Y70.134 E.03032
G1 X138.469 Y71.884 E.18774
G1 X139.143 Y72.175 E.02302
G1 X144.218 Y74.888 E.18043
G1 X145.023 Y75.425 E.03032
G1 X149.644 Y79.232 E.18774
G1 X150.155 Y79.76 E.02302
G1 X153.805 Y84.208 E.18043
G1 X154.343 Y85.012 E.03032
G1 X157.908 Y91.682 E.23712
G1 X158.188 Y92.751 E.03467
G1 X158.601 Y112.031 E.60465
G1 X158.499 Y112.772 E.02345
G1 X157.425 Y116.312 E.11599
G1 X157.155 Y116.995 E.02302
G1 X154.343 Y122.281 E.18774
G1 X153.944 Y122.898 E.02302
G1 X149.998 Y127.706 E.19504
G1 X149.471 Y128.217 E.02302
G1 X145.023 Y131.868 E.18043
G1 X144.218 Y132.405 E.03032
G1 X139.143 Y135.118 E.18043
G1 X138.25 Y135.488 E.03032
G1 X132.743 Y137.158 E.18043
G1 X132.025 Y137.313 E.02302
G1 X126.068 Y137.911 E.18774
G1 X125.333 Y137.923 E.02302
G1 X119.374 Y137.347 E.18774
G1 X118.651 Y137.215 E.02302
G1 X112.918 Y135.488 E.18774
G1 X112.236 Y135.218 E.02302
G1 X106.95 Y132.405 E.18774
G1 X106.333 Y132.007 E.02302
G1 X101.697 Y128.217 E.18774
G1 X101.17 Y127.706 E.02302
G1 X97.363 Y123.085 E.18774
G1 X96.945 Y122.481 E.02302
G1 X94.113 Y117.206 E.18774
G1 X93.821 Y116.532 E.02302
G1 X92.072 Y110.805 E.18774
G1 X91.918 Y110.088 E.02302
G1 X91.319 Y104.13 E.18774
G1 X91.308 Y103.396 E.02302
G1 X91.883 Y97.436 E.18774
G1 X92.015 Y96.714 E.02302
G1 X93.743 Y90.981 E.18774
G1 X94.013 Y90.298 E.02302
G1 X96.825 Y85.012 E.18774
G1 X97.224 Y84.395 E.02302
G1 X99.595 Y81.495 E.11747
M204 S1000
;WIPE_START
G1 F8640
G1 X101.013 Y79.76 E-.51747
G1 X101.524 Y79.232 E-.16953
G1 X101.768 Y79.031 E-.073
;WIPE_END
G1 E-.04 F2100
G1 Z.6 F720
G1 X101.658 Y83.217 F10800
G1 Z.2 F720
G1 E.8 F2100
M204 S800
G1 F1200
G1 X103.419 Y81.108 E.08615
G1 X108.242 Y77.216 E.1943
G1 X113.731 Y74.341 E.19429
G1 X119.662 Y72.594 E.19387
G1 X125.32 Y72.037 E.17826
G1 X126.937 Y72.144 E.05081
G1 X131.997 Y72.692 E.15957
G1 X137.454 Y74.347 E.17881
G1 X143.358 Y77.504 E.20991
G1 X147.982 Y81.339 E.18835
G1 X151.818 Y86.01 E.18954
G1 X154.562 Y91.204 E.18419
G1 X154.79 Y92.474 E.04043
G1 X154.712 Y93.528 E.03315
G1 X154.414 Y94.512 E.03225
G1 X153.848 Y95.512 E.03603
G1 X153.051 Y96.377 E.03687
G1 X152.081 Y97.004 E.0362
G1 X151.027 Y97.378 E.03507
G1 X147.076 Y97.473 E.12393
G1 X145.701 Y97.184 E.04405
G1 X144.507 Y96.543 E.0425
G1 X143.512 Y95.557 E.04393
G1 X141.939 Y92.728 E.1015
G1 X139.489 Y89.742 E.12112
G1 X136.509 Y87.296 E.12086
G1 X133.109 Y85.479 E.12087
G1 X129.42 Y84.36 E.12087
G1 X125.584 Y83.982 E.12087
G1 X121.748 Y84.36 E.12087
G1 X118.059 Y85.479 E.12087
G1 X114.659 Y87.296 E.12087
G1 X111.679 Y89.742 E.12086
G1 X109.234 Y92.722 E.12087
G1 X107.417 Y96.121 E.12086
G1 X106.298 Y99.81 E.12087
G1 X105.92 Y103.646 E.12087
G1 X106.298 Y107.483 E.12087
G1 X107.417 Y111.172 E.12087
G1 X109.234 Y114.571 E.12087
G1 X111.678 Y117.55 E.12082
G1 X114.671 Y120.003 E.12133
G1 X118.059 Y121.814 E.12044
G1 X121.748 Y122.933 E.12087
G1 X125.584 Y123.311 E.12087
G1 X129.42 Y122.933 E.12087
G1 X133.109 Y121.814 E.12087
G1 X136.509 Y119.997 E.12087
G1 X139.489 Y117.551 E.12087
G1 X141.936 Y114.569 E.12098
G1 X144.294 Y110.24 E.15456
G1 X145.206 Y109.282 E.04144
G1 X146.387 Y108.596 E.04284
G1 X147.847 Y108.245 E.04709
G1 X150.975 Y108.245 E.09806
G1 X152.102 Y108.463 E.03601
G1 X152.964 Y108.843 E.02951
G1 X153.873 Y109.502 E.03522
G1 X154.752 Y110.599 E.04407
G1 X155.292 Y111.901 E.04421
G1 X155.432 Y113.298 E.04401
G1 X155.292 Y114.179 E.028
G1 X154.681 Y115.998 E.06015
G1 X151.725 Y121.422 E.19368
G1 X147.946 Y125.99 E.18587
G1 X143.36 Y129.787 E.1867
G1 X137.947 Y132.738 E.19328
G1 X136.809 Y133.142 E.03788
G1 X131.491 Y134.701 E.17375
G1 X125.32 Y135.257 E.19429
G1 X119.158 Y134.598 E.1943
G1 X113.243 Y132.75 E.1943
M73 Q0 S186
G1 X107.803 Y129.783 E.1943
G1 X103.045 Y125.812 E.1943
G1 X99.154 Y120.989 E.1943
G1 X96.279 Y115.499 E.1943
G1 X94.529 Y109.554 E.1943
G1 X93.973 Y103.382 E.1943
G1 X94.632 Y97.22 E.1943
G1 X96.481 Y91.306 E.1943
G1 X99.448 Y85.865 E.1943
G1 X101.62 Y83.263 E.10627
M204 S1000
G1 X101.908 Y83.503 F10800
M204 S800
G1 F1200
G1 X103.67 Y81.389 E.08629
G1 X108.433 Y77.542 E.19198
G1 X113.855 Y74.697 E.19198
G1 X119.717 Y72.967 E.19162
G1 X125.341 Y72.413 E.1772
G1 X126.908 Y72.52 E.04923
G1 X131.904 Y73.058 E.15757
G1 X137.327 Y74.703 E.17768
G1 X143.132 Y77.806 E.20639
G1 X147.702 Y81.592 E.18607
G1 X151.494 Y86.204 E.1872
G1 X154.197 Y91.301 E.18091
G1 X154.412 Y92.472 E.03732
G1 X154.345 Y93.439 E.03041
G1 X154.06 Y94.382 E.03089
G1 X153.531 Y95.307 E.03338
G1 X152.825 Y96.074 E.03272
G1 X151.934 Y96.656 E.03337
G1 X150.93 Y97.013 E.0334
G1 X147.09 Y97.096 E.12041
G1 X145.807 Y96.822 E.04113
G1 X144.712 Y96.226 E.03911
G1 X143.797 Y95.31 E.04057
G1 X142.253 Y92.515 E.10013
G1 X139.757 Y89.474 E.12337
G1 X136.719 Y86.981 E.12319
G1 X133.254 Y85.129 E.1232
G1 X129.494 Y83.988 E.1232
G1 X125.584 Y83.603 E.12319
G1 X121.674 Y83.988 E.1232
G1 X117.914 Y85.129 E.1232
G1 X114.449 Y86.981 E.1232
G1 X111.411 Y89.474 E.12319
G1 X108.919 Y92.511 E.1232
G1 X107.067 Y95.976 E.12319
G1 X105.926 Y99.736 E.1232
G1 X105.541 Y103.646 E.1232
G1 X105.926 Y107.557 E.12319
G1 X107.067 Y111.317 E.1232
G1 X108.919 Y114.782 E.12319
G1 X111.411 Y117.818 E.12315
G1 X114.461 Y120.318 E.12366
G1 X117.914 Y122.164 E.12276
G1 X121.674 Y123.304 E.12319
G1 X125.584 Y123.69 E.1232
G1 X129.494 Y123.304 E.1232
G1 X133.254 Y122.164 E.1232
G1 X136.719 Y120.312 E.1232
G1 X139.757 Y117.819 E.12319
G1 X142.251 Y114.78 E.12327
G1 X144.586 Y110.48 E.15343
G1 X145.421 Y109.593 E.03819
G1 X146.504 Y108.955 E.03941
G1 X147.87 Y108.622 E.04409
G1 X150.956 Y108.622 E.09676
G1 X152.008 Y108.829 E.03361
G1 X152.792 Y109.179 E.02692
G1 X153.596 Y109.76 E.0311
G1 X154.415 Y110.771 E.0408
G1 X154.921 Y111.969 E.04077
G1 X155.056 Y113.264 E.04084
G1 X154.929 Y114.075 E.02574
G1 X154.342 Y115.833 E.05809
G1 X151.423 Y121.196 E.19145
G1 X147.667 Y125.736 E.18474
G1 X143.134 Y129.485 E.18446
G1 X137.78 Y132.399 E.19111
G1 X136.698 Y132.781 E.036
G1 X131.439 Y134.327 E.17187
G1 X125.341 Y134.88 E.19197
G1 X119.253 Y134.233 E.19198
G1 X113.407 Y132.41 E.19198
G1 X108.03 Y129.481 E.19198
G1 X103.327 Y125.56 E.19198
G1 X99.479 Y120.797 E.19198
G1 X96.635 Y115.375 E.19198
G1 X94.903 Y109.502 E.19198
G1 X94.35 Y103.404 E.19198
G1 X94.998 Y97.315 E.19198
G1 X96.821 Y91.47 E.19198
G1 X99.749 Y86.092 E.19198
G1 X101.869 Y83.549 E.10381
M204 S1000
G1 X102.157 Y83.789 F10800
M204 S800
G1 F1200
G1 X103.922 Y81.671 E.08644
G1 X108.625 Y77.867 E.18967
G1 X113.98 Y75.054 E.18966
G1 X119.772 Y73.341 E.18936
G1 X125.362 Y72.79 E.17614
G1 X126.878 Y72.896 E.04764
G1 X131.812 Y73.424 E.15559
G1 X137.2 Y75.058 E.17654
G1 X142.906 Y78.109 E.20289
G1 X147.423 Y81.846 E.18379
G1 X151.17 Y86.397 E.18487
G1 X153.832 Y91.4 E.17767
G1 X154.034 Y92.471 E.03416
G1 X153.97 Y93.391 E.02894
G1 X153.706 Y94.25 E.02818
G1 X153.216 Y95.099 E.03072
G1 X152.565 Y95.8 E.02999
G1 X151.749 Y96.327 E.03046
G1 X150.834 Y96.647 E.03038
G1 X147.106 Y96.719 E.11693
G1 X145.915 Y96.459 E.0382
G1 X144.919 Y95.909 E.03569
G1 X144.084 Y95.065 E.03723
G1 X142.567 Y92.303 E.0988
G1 X140.025 Y89.206 E.12563
G1 X136.93 Y86.666 E.12552
G1 X133.399 Y84.779 E.12552
G1 X129.568 Y83.617 E.12553
G1 X125.584 Y83.224 E.12552
G1 X121.6 Y83.617 E.12552
G1 X117.769 Y84.779 E.12553
G1 X114.238 Y86.666 E.12552
G1 X111.144 Y89.206 E.12552
G1 X108.604 Y92.301 E.12553
G1 X106.717 Y95.831 E.12552
G1 X105.554 Y99.662 E.12552
G1 X105.162 Y103.646 E.12552
G1 X105.554 Y107.631 E.12552
G1 X106.717 Y111.462 E.12553
G1 X108.604 Y114.992 E.12552
G1 X111.143 Y118.086 E.12548
G1 X114.25 Y120.633 E.12599
G1 X117.769 Y122.514 E.12509
G1 X121.6 Y123.676 E.12552
G1 X125.584 Y124.068 E.12552
G1 X129.568 Y123.676 E.12552
G1 X133.399 Y122.514 E.12552
G1 X136.93 Y120.627 E.12552
G1 X140.025 Y118.087 E.12552
G1 X142.565 Y114.991 E.12557
G1 X144.879 Y110.718 E.15234
G1 X145.638 Y109.902 E.03495
G1 X146.623 Y109.314 E.03597
G1 X147.894 Y108.999 E.04105
G1 X150.937 Y108.999 E.09543
G1 X151.912 Y109.194 E.03117
G1 X152.619 Y109.515 E.02434
G1 X153.321 Y110.018 E.02708
G1 X154.08 Y110.945 E.03756
G1 X154.549 Y112.039 E.03732
G1 X154.679 Y113.232 E.03765
G1 X154.566 Y113.972 E.02347
G1 X154.003 Y115.668 E.05602
G1 X151.12 Y120.97 E.18922
G1 X147.413 Y125.456 E.18249
G1 X142.907 Y129.183 E.18333
G1 X137.614 Y132.06 E.18892
G1 X136.587 Y132.421 E.03413
G1 X131.386 Y133.954 E.16999
G1 X125.362 Y134.503 E.18966
G1 X119.347 Y133.867 E.18967
G1 X113.571 Y132.07 E.18967
G1 X108.257 Y129.18 E.18967
G1 X103.608 Y125.309 E.18967
G1 X99.804 Y120.605 E.18967
G1 X96.991 Y115.25 E.18967
G1 X95.277 Y109.449 E.18967
G1 X94.727 Y103.425 E.18967
G1 X95.363 Y97.409 E.18967
G1 X97.161 Y91.633 E.18967
G1 X100.051 Y86.319 E.18967
G1 X102.119 Y83.835 E.10134
M204 S1000
G1 X102.408 Y84.075 F10800
M204 S800
G1 F1200
G1 X104.174 Y81.952 E.08659
G1 X108.817 Y78.192 E.18735
G1 X114.105 Y75.41 E.18734
G1 X119.826 Y73.714 E.1871
G1 X125.383 Y73.167 E.17507
G1 X126.848 Y73.272 E.04604
G1 X131.72 Y73.79 E.15362
G1 X137.073 Y75.413 E.17539
G1 X142.681 Y78.412 E.19938
G1 X147.143 Y82.1 E.18152
M73 P0 R185
G1 X150.847 Y86.592 E.18255
G1 X153.467 Y91.5 E.17447
G1 X153.656 Y92.472 E.03102
G1 X153.603 Y93.302 E.02609
G1 X153.352 Y94.118 E.02678
G1 X152.902 Y94.89 E.02801
G1 X152.307 Y95.524 E.02726
G1 X151.566 Y95.996 E.02756
G1 X150.74 Y96.281 E.02737
G1 X147.122 Y96.341 E.11346
G1 X146.025 Y96.098 E.03524
G1 X145.128 Y95.594 E.03226
G1 X144.373 Y94.82 E.0339
G1 X142.881 Y92.092 E.09752
G1 X140.292 Y88.938 E.12791
G1 X137.14 Y86.351 E.12785
G1 X133.544 Y84.429 E.12785
G1 X129.642 Y83.245 E.12785
G1 X125.584 Y82.846 E.12785
G1 X121.526 Y83.245 E.12785
G1 X117.624 Y84.429 E.12785
G1 X114.028 Y86.351 E.12785
G1 X110.876 Y88.938 E.12785
G1 X108.289 Y92.09 E.12785
G1 X106.367 Y95.686 E.12785
G1 X105.183 Y99.588 E.12785
G1 X104.783 Y103.646 E.12785
G1 X105.183 Y107.704 E.12785
G1 X106.367 Y111.607 E.12785
G1 X108.289 Y115.203 E.12785
G1 X110.875 Y118.354 E.12782
G1 X114.04 Y120.948 E.12832
G1 X117.624 Y122.864 E.12741
G1 X121.526 Y124.048 E.12785
G1 X125.584 Y124.447 E.12785
G1 X129.642 Y124.048 E.12785
G1 X133.544 Y122.864 E.12785
G1 X137.14 Y120.942 E.12785
G1 X140.292 Y118.355 E.12785
G1 X142.88 Y115.202 E.12788
G1 X145.173 Y110.956 E.15132
G1 X145.857 Y110.21 E.03174
G1 X146.743 Y109.673 E.0325
G1 X147.917 Y109.376 E.03796
G1 X150.918 Y109.376 E.09408
G1 X151.814 Y109.559 E.02869
G1 X152.445 Y109.85 E.02177
G1 X153.047 Y110.278 E.02317
G1 X153.746 Y111.121 E.03432
G1 X154.178 Y112.111 E.03386
G1 X154.303 Y113.202 E.03444
G1 X154.203 Y113.87 E.02117
G1 X153.663 Y115.503 E.05392
G1 X150.818 Y120.743 E.18698
G1 X147.134 Y125.202 E.18136
G1 X142.681 Y128.88 E.18107
G1 X137.448 Y131.722 E.18673
G1 X136.476 Y132.061 E.03227
G1 X131.333 Y133.58 E.16813
G1 X125.383 Y134.126 E.18734
G1 X119.441 Y133.501 E.18735
G1 X113.734 Y131.729 E.18735
G1 X108.483 Y128.878 E.18735
G1 X103.89 Y125.057 E.18735
G1 X100.13 Y120.413 E.18735
G1 X97.348 Y115.125 E.18735
G1 X95.651 Y109.396 E.18735
G1 X95.104 Y103.446 E.18735
G1 X95.729 Y97.503 E.18735
G1 X97.501 Y91.797 E.18735
G1 X100.353 Y86.546 E.18735
G1 X102.369 Y84.121 E.09888
M204 S1000
G1 X102.658 Y84.361 F10800
M204 S800
G1 F1200
G1 X104.425 Y82.233 E.08674
G1 X109.01 Y78.517 E.18503
G1 X114.23 Y75.766 E.18503
G1 X119.881 Y74.088 E.18483
G1 X125.404 Y73.544 E.17399
G1 X126.817 Y73.648 E.04443
G1 X131.627 Y74.156 E.15166
G1 X136.946 Y75.769 E.17425
G1 X142.455 Y78.714 E.19588
G1 X146.889 Y82.379 E.18036
G1 X150.544 Y86.817 E.18027
G1 X153.103 Y91.602 E.17015
G1 X153.278 Y92.473 E.02784
G1 X153.228 Y93.255 E.02457
G1 X152.999 Y93.984 E.02396
G1 X152.588 Y94.679 E.02532
G1 X152.05 Y95.247 E.02453
G1 X151.385 Y95.665 E.02464
G1 X150.648 Y95.914 E.02438
G1 X147.139 Y95.964 E.11005
G1 X146.182 Y95.754 E.0307
G1 X145.378 Y95.311 E.0288
G1 X144.661 Y94.576 E.03219
G1 X143.195 Y91.88 E.09621
G1 X140.56 Y88.67 E.13021
G1 X137.351 Y86.036 E.13018
G1 X133.689 Y84.079 E.13018
G1 X129.716 Y82.874 E.13018
G1 X125.584 Y82.467 E.13018
G1 X121.452 Y82.874 E.13018
G1 X117.479 Y84.079 E.13018
G1 X113.817 Y86.036 E.13018
G1 X110.608 Y88.67 E.13018
G1 X107.974 Y91.88 E.13018
G1 X106.016 Y95.541 E.13018
G1 X104.811 Y99.514 E.13018
G1 X104.404 Y103.646 E.13018
G1 X104.811 Y107.778 E.13018
G1 X106.016 Y111.752 E.13018
G1 X107.974 Y115.413 E.13018
G1 X110.607 Y118.622 E.13015
G1 X113.83 Y121.263 E.13065
G1 X117.479 Y123.214 E.12974
G1 X121.452 Y124.419 E.13018
G1 X125.584 Y124.826 E.13018
G1 X129.716 Y124.419 E.13018
G1 X133.689 Y123.214 E.13018
G1 X137.351 Y121.257 E.13018
G1 X140.56 Y118.623 E.13018
G1 X143.195 Y115.413 E.13019
G1 X145.468 Y111.191 E.15035
G1 X146.079 Y110.516 E.02855
G1 X146.866 Y110.03 E.029
G1 X147.942 Y109.753 E.03482
G1 X150.898 Y109.753 E.0927
G1 X151.715 Y109.923 E.02616
G1 X152.27 Y110.184 E.01921
G1 X152.775 Y110.54 E.01938
G1 X153.413 Y111.3 E.0311
G1 X153.807 Y112.185 E.03039
G1 X153.926 Y113.173 E.0312
G1 X153.839 Y113.768 E.01885
M73 Q0 S185
G1 X153.324 Y115.338 E.05182
G1 X150.516 Y120.518 E.18473
G1 X146.88 Y124.923 E.1791
G1 X142.455 Y128.578 E.17993
G1 X137.282 Y131.383 E.18453
G1 X136.365 Y131.7 E.03043
G1 X131.28 Y133.206 E.16627
G1 X125.404 Y133.749 E.18502
G1 X119.535 Y133.136 E.18503
G1 X113.898 Y131.389 E.18503
G1 X108.71 Y128.576 E.18503
G1 X104.171 Y124.805 E.18503
G1 X100.454 Y120.221 E.18503
G1 X97.704 Y115 E.18503
G1 X96.025 Y109.343 E.18503
G1 X95.481 Y103.466 E.18503
G1 X96.095 Y97.597 E.18503
G1 X97.842 Y91.96 E.18503
G1 X100.655 Y86.772 E.18503
G1 X102.619 Y84.407 E.09641
M204 S1000
G1 X102.908 Y84.647 F10800
M204 S800
G1 F1200
G1 X104.678 Y82.514 E.08689
G1 X109.202 Y78.842 E.18271
G1 X114.356 Y76.122 E.18271
G1 X119.936 Y74.461 E.18256
G1 X125.424 Y73.921 E.17291
G1 X126.786 Y74.024 E.0428
G1 X131.535 Y74.522 E.14973
G1 X136.818 Y76.124 E.17311
G1 X142.229 Y79.017 E.19238
G1 X146.609 Y82.632 E.17807
G1 X150.241 Y87.043 E.17912
G1 X152.74 Y91.706 E.1659
G1 X152.901 Y92.477 E.02469
G1 X152.861 Y93.165 E.02158
G1 X152.646 Y93.849 E.02249
G1 X152.276 Y94.466 E.02256
G1 X151.795 Y94.968 E.02179
G1 X151.207 Y95.332 E.02171
