; generated by PrusaSlicer 2.5.0+MacOS-x64 on 2023-07-20 at 14:00:27 UTC


;
;
; 

; external perimeters extrusion width = 0.65mm
; perimeters extrusion width = 0.65mm
; infill extrusion width = 0.65mm
; solid infill extrusion width = 0.65mm
; top infill extrusion width = 0.60mm
; first layer extrusion width = 0.65mm

M73 P0 R22
M73 Q0 S22
M201 X1000 Y1000 Z200 E5000 ; sets maximum accelerations, mm/sec^2
M203 X200 Y200 Z12 E120 ; sets maximum feedrates, mm / sec
M204 P1250 R1250 T1250 ; sets acceleration (P, T) and retract acceleration (R), mm/sec^2
M205 X8.00 Y8.00 Z0.40 E4.50 ; sets the jerk limits, mm/sec
M205 S0 T0 ; sets the minimum extruding and travel feed rate, mm/sec
M107
;TYPE:Custom
M862.3 P "MK3S" ; printer model check
M862.1 P0.6 ; nozzle diameter check
M115 U3.12.2 ; tell printer latest fw version
G90 ; use absolute coordinates
M83 ; extruder relative mode
M104 S215 ; set extruder temp
M140 S60 ; set bed temp
M190 S60 ; wait for bed temp
M109 S215 ; wait for extruder temp
G28 W ; home all without mesh bed level
G80 ; mesh bed leveling

G1 Z0.2 F720
G1 Y-3 F1000 ; go outside print area
G92 E0
G1 X60 E9 F1000 ; intro line
G1 X100 E12.5 F1000 ; intro line

G92 E0
M221 S95

; Don't change E values below. Excessive value can damage the printer.

G21 ; set units to millimeters
G90 ; use absolute coordinates
M83 ; use relative distances for extrusion
M900 K0.04 ; Filament gcode LA 1.5
M900 K18 ; Filament gcode LA 1.0
M107
;LAYER_CHANGE
;Z:0.2
;HEIGHT:0.2
;BEFORE_LAYER_CHANGE
G92 E0.0
;0.2


G1 E-.8 F2100
G1 Z.4 F720
;AFTER_LAYER_CHANGE
;0.2
G1 X109.935 Y90.775 F10800
G1 Z.2 F720
G1 E.8 F2100
M204 S800
;TYPE:Skirt/Brim
;WIDTH:0.65
G1 F1200
G1 X110.994 Y89.813 E.0722
G1 X112.15 Y89.543 E.05992
G1 X137.85 Y89.543 E1.29731
G1 X139.225 Y89.935 E.0722
G1 X140.187 Y90.994 E.0722
G1 X140.457 Y92.15 E.05992
G1 X140.457 Y117.85 E1.29731
G1 X140.065 Y119.225 E.0722
G1 X139.006 Y120.187 E.0722
G1 X137.85 Y120.457 E.05992
G1 X112.15 Y120.457 E1.29731
G1 X110.775 Y120.065 E.0722
G1 X109.813 Y119.006 E.0722
G1 X109.543 Y117.85 E.05992
G1 X109.543 Y92.15 E1.29731
G1 X109.911 Y90.861 E.06766
M204 S1000
; printing object plant lid supports v1.stl id:0 copy 0
;WIPE_START
M73 P0 R21
G1 F8640
M73 Q1 S22
G1 X110.994 Y89.813 E-.34808
G1 X112.15 Y89.543 E-.27408
G1 X112.747 Y89.543 E-.13784
;WIPE_END
G1 E-.04 F2100
G1 Z.6 F720
G1 X113.282 Y93.282 F10800
G1 Z.2 F720
M73 P1 R21
G1 E.8 F2100
M204 S800
;TYPE:Perimeter
;WIDTH:0.649999
G1 F1200
G1 X136.718 Y93.282 E1.18301
G1 X136.718 Y116.718 E1.18301
G1 X113.282 Y116.718 E1.18301
M73 Q1 S21
G1 X113.282 Y93.372 E1.17847
M204 S1000
G1 X112.675 Y92.675 F10800
M204 S800
;TYPE:External perimeter
G1 F1200
G1 X137.325 Y92.675 E1.2443
G1 X137.325 Y117.325 E1.2443
G1 X112.675 Y117.325 E1.2443
G1 X112.675 Y92.765 E1.23976
M204 S1000
G1 X113.255 Y92.83 F10800
;WIPE_START
G1 F8640
G1 X115.966 Y92.753 E-.76
;WIPE_END
G1 E-.04 F2100
G1 Z.6 F720
G1 X135.287 Y93.464 F10800
G1 Z.2 F720
G1 E.8 F2100
M204 S800
;TYPE:Solid infill
;WIDTH:0.660166
G1 F1200
G1 X136.263 Y94.44 E.07081
G1 X136.263 Y95.313 E.0448
G1 X134.687 Y93.737 E.11434
G1 X133.814 Y93.737 E.0448
G1 X136.263 Y96.186 E.1777
G1 X136.263 Y97.058 E.0448
G1 X132.942 Y93.737 E.24106
G1 X132.069 Y93.737 E.0448
G1 X136.263 Y97.931 E.30442
G1 X136.263 Y98.804 E.0448
G1 X131.196 Y93.737 E.36778
G1 X130.323 Y93.737 E.0448
G1 X136.263 Y99.677 E.43114
G1 X136.263 Y100.55 E.0448
G1 X129.45 Y93.737 E.4945
G1 X128.577 Y93.737 E.0448
M73 Q2 S21
G1 X136.263 Y101.423 E.55785
G1 X136.263 Y102.296 E.0448
M73 P2 R21
G1 X127.704 Y93.737 E.62121
G1 X126.831 Y93.737 E.0448
G1 X136.263 Y103.169 E.68457
G1 X136.263 Y104.042 E.0448
G1 X125.958 Y93.737 E.74793
G1 X125.085 Y93.737 E.0448
G1 X136.263 Y104.915 E.81129
G1 X136.263 Y105.788 E.0448
G1 X124.212 Y93.737 E.87465
G1 X123.339 Y93.737 E.0448
G1 X136.263 Y106.661 E.93801
G1 X136.263 Y107.534 E.0448
G1 X122.466 Y93.737 E1.00137
G1 X121.594 Y93.737 E.0448
G1 X136.263 Y108.406 E1.06473
G1 X136.263 Y109.279 E.0448
G1 X120.721 Y93.737 E1.12809
G1 X119.848 Y93.737 E.0448
G1 X136.263 Y110.152 E1.19145
G1 X136.263 Y111.025 E.0448
G1 X118.975 Y93.737 E1.25481
G1 X118.102 Y93.737 E.0448
G1 X136.263 Y111.898 E1.31817
G1 X136.263 Y112.771 E.0448
G1 X117.229 Y93.737 E1.38153
G1 X116.356 Y93.737 E.0448
M73 P3 R21
M73 Q3 S21
G1 X136.263 Y113.644 E1.44489
G1 X136.263 Y114.517 E.0448
G1 X115.483 Y93.737 E1.50824
G1 X114.61 Y93.737 E.0448
G1 X136.263 Y115.39 E1.5716
G1 X136.263 Y116.263 E.0448
G1 X113.737 Y93.737 E1.63496
G1 X113.737 Y94.61 E.0448
G1 X135.39 Y116.263 E1.5716
G1 X134.517 Y116.263 E.0448
G1 X113.737 Y95.483 E1.50824
G1 X113.737 Y96.356 E.0448
G1 X133.644 Y116.263 E1.44488
G1 X132.771 Y116.263 E.0448
G1 X113.737 Y97.229 E1.38152
G1 X113.737 Y98.102 E.0448
G1 X131.898 Y116.263 E1.31816
G1 X131.025 Y116.263 E.0448
M73 P4 R21
M73 Q4 S21
G1 X113.737 Y98.975 E1.2548
G1 X113.737 Y99.848 E.0448
G1 X130.152 Y116.263 E1.19144
G1 X129.279 Y116.263 E.0448
G1 X113.737 Y100.721 E1.12808
G1 X113.737 Y101.594 E.0448
G1 X128.406 Y116.263 E1.06472
G1 X127.533 Y116.263 E.0448
G1 X113.737 Y102.467 E1.00136
G1 X113.737 Y103.34 E.0448
G1 X126.66 Y116.263 E.938
G1 X125.788 Y116.263 E.0448
G1 X113.737 Y104.212 E.87464
G1 X113.737 Y105.085 E.0448
G1 X124.915 Y116.263 E.81128
G1 X124.042 Y116.263 E.0448
G1 X113.737 Y105.958 E.74792
G1 X113.737 Y106.831 E.0448
G1 X123.169 Y116.263 E.68456
G1 X122.296 Y116.263 E.0448
G1 X113.737 Y107.704 E.62121
G1 X113.737 Y108.577 E.0448
G1 X121.423 Y116.263 E.55785
G1 X120.55 Y116.263 E.0448
G1 X113.737 Y109.45 E.49449
G1 X113.737 Y110.323 E.0448
G1 X119.677 Y116.263 E.43113
G1 X118.804 Y116.263 E.0448
G1 X113.737 Y111.196 E.36777
G1 X113.737 Y112.069 E.0448
M73 P5 R21
M73 Q5 S21
G1 X117.931 Y116.263 E.30441
G1 X117.058 Y116.263 E.0448
G1 X113.737 Y112.942 E.24105
G1 X113.737 Y113.815 E.0448
G1 X116.185 Y116.263 E.17769
G1 X115.313 Y116.263 E.0448
G1 X113.737 Y114.687 E.11433
G1 X113.737 Y115.56 E.0448
G1 X114.713 Y116.536 E.0708
M204 S1000
; stop printing object plant lid supports v1.stl id:0 copy 0
M106 S84.15
;LAYER_CHANGE
;Z:0.5
;HEIGHT:0.3
;BEFORE_LAYER_CHANGE
G92 E0.0
;0.5


;WIPE_START
G1 F8640
G1 X113.737 Y115.56 E-.31852
G1 X113.737 Y114.687 E-.20156
G1 X114.472 Y115.422 E-.23992
;WIPE_END
G1 E-.04 F2100
G1 Z.6 F720
;AFTER_LAYER_CHANGE
;0.5
G1 X109.543 Y115.422 F10800
G1 Z.5 F720
G1 E.8 F2100
;TYPE:Skirt/Brim
;WIDTH:0.65
G1 F3000
G1 X109.543 Y92.15 E1.69984
G1 X109.935 Y90.775 E.10447
G1 X110.994 Y89.813 E.10447
G1 X112.15 Y89.543 E.0867
G1 X137.85 Y89.543 E1.87717
G1 X139.225 Y89.935 E.10447
G1 X140.187 Y90.994 E.10447
G1 X140.457 Y92.15 E.0867
G1 X140.457 Y117.85 E1.87717
G1 X140.065 Y119.225 E.10447
G1 X139.006 Y120.187 E.10447
G1 X137.85 Y120.457 E.0867
G1 X112.15 Y120.457 E1.87717
G1 X110.775 Y120.065 E.10447
G1 X109.813 Y119.006 E.10447
G1 X109.543 Y117.85 E.0867
G1 X109.543 Y115.512 E.17076
; printing object plant lid supports v1.stl id:0 copy 0
;WIPE_START
G1 F8640
G1 X109.543 Y112.221 E-.76
;WIPE_END
G1 E-.04 F2100
G1 Z.9 F720
G1 X113.061 Y93.061 F10800
G1 Z.5 F720
G1 E.8 F2100
M204 S800
;TYPE:Perimeter
;WIDTH:0.649999
G1 F2700
G1 X136.939 Y93.061 E1.74414
G1 X136.939 Y116.939 E1.74414
M73 P5 R20
G1 X113.061 Y116.939 E1.74414
G1 X113.061 Y93.151 E1.73757
M204 S1000
G1 X112.475 Y92.475 F10800
M204 S800
;TYPE:External perimeter
G1 F2100
G1 X137.525 Y92.475 E1.82969
G1 X137.525 Y117.525 E1.82969
G1 X112.475 Y117.525 E1.82969
M73 Q5 S20
G1 X112.475 Y92.565 E1.82312
M204 S1000
G1 X113.055 Y92.63 F10800
;WIPE_START
G1 F8640
G1 X115.766 Y92.553 E-.76
;WIPE_END
G1 E-.04 F2100
G1 Z.9 F720
G1 X136.764 Y115.559 F10800
G1 Z.5 F720
G1 E.8 F2100
;TYPE:Solid infill
;WIDTH:0.660016
G1 F4200
G1 X135.822 Y116.5 E.09892
G1 X134.98 Y116.5 E.06258
G1 X136.5 Y114.98 E.15973
G1 X136.5 Y114.137 E.06258
G1 X134.137 Y116.5 E.24823
G1 X133.295 Y116.5 E.06258
G1 X136.5 Y113.295 E.33673
G1 X136.5 Y112.453 E.06258
G1 X132.453 Y116.5 E.42523
G1 X131.61 Y116.5 E.06258
G1 X136.5 Y111.61 E.51373
G1 X136.5 Y110.768 E.06258
G1 X130.768 Y116.5 E.60223
G1 X129.926 Y116.5 E.06258
G1 X136.5 Y109.926 E.69073
G1 X136.5 Y109.083 E.06258
G1 X129.083 Y116.5 E.77924
G1 X128.241 Y116.5 E.06258
G1 X136.5 Y108.241 E.86774
G1 X136.5 Y107.399 E.06258
G1 X127.399 Y116.5 E.95624
G1 X126.556 Y116.5 E.06258
G1 X136.5 Y106.556 E1.04474
G1 X136.5 Y105.714 E.06258
M73 Q6 S20
G1 X125.714 Y116.5 E1.13324
G1 X124.872 Y116.5 E.06258
M73 P6 R20
G1 X136.5 Y104.872 E1.22174
G1 X136.5 Y104.029 E.06258
G1 X124.029 Y116.5 E1.31024
G1 X123.187 Y116.5 E.06258
G1 X136.5 Y103.187 E1.39874
G1 X136.5 Y102.345 E.06258
G1 X122.345 Y116.5 E1.48724
G1 X121.502 Y116.5 E.06258
G1 X136.5 Y101.502 E1.57574
G1 X136.5 Y100.66 E.06258
G1 X120.66 Y116.5 E1.66424
G1 X119.817 Y116.5 E.06258
G1 X136.5 Y99.817 E1.75274
G1 X136.5 Y98.975 E.06258
G1 X118.975 Y116.5 E1.84124
G1 X118.133 Y116.5 E.06258
G1 X136.5 Y98.133 E1.92974
G1 X136.5 Y97.29 E.06258
G1 X117.29 Y116.5 E2.01824
G1 X116.448 Y116.5 E.06258
G1 X136.5 Y96.448 E2.10674
G1 X136.5 Y95.606 E.06258
G1 X115.606 Y116.5 E2.19524
G1 X114.763 Y116.5 E.06258
G1 X136.5 Y94.763 E2.28374
G1 X136.5 Y93.921 E.06258
G1 X113.921 Y116.5 E2.37224
G1 X113.5 Y116.5 E.03129
G1 X113.5 Y116.079 E.03129
G1 X136.079 Y93.5 E2.37223
G1 X135.237 Y93.5 E.06258
G1 X113.5 Y115.237 E2.28373
G1 X113.5 Y114.394 E.06258
G1 X134.394 Y93.5 E2.19523
G1 X133.552 Y93.5 E.06258
G1 X113.5 Y113.552 E2.10673
G1 X113.5 Y112.71 E.06258
G1 X132.71 Y93.5 E2.01823
G1 X131.867 Y93.5 E.06258
G1 X113.5 Y111.867 E1.92973
G1 X113.5 Y111.025 E.06258
G1 X131.025 Y93.5 E1.84123
G1 X130.182 Y93.5 E.06258
G1 X113.5 Y110.182 E1.75273
G1 X113.5 Y109.34 E.06258
G1 X129.34 Y93.5 E1.66423
G1 X128.498 Y93.5 E.06258
G1 X113.5 Y108.498 E1.57573
G1 X113.5 Y107.655 E.06258
G1 X127.655 Y93.5 E1.48723
G1 X126.813 Y93.5 E.06258
G1 X113.5 Y106.813 E1.39873
G1 X113.5 Y105.971 E.06258
G1 X125.971 Y93.5 E1.31023
G1 X125.128 Y93.5 E.06258
G1 X113.5 Y105.128 E1.22173
G1 X113.5 Y104.286 E.06258
G1 X124.286 Y93.5 E1.13323
G1 X123.444 Y93.5 E.06258
G1 X113.5 Y103.444 E1.04472
G1 X113.5 Y102.601 E.06258
G1 X122.601 Y93.5 E.95622
M73 Q7 S20
G1 X121.759 Y93.5 E.06258
M73 P7 R20
G1 X113.5 Y101.759 E.86772
G1 X113.5 Y100.917 E.06258
G1 X120.917 Y93.5 E.77922
G1 X120.074 Y93.5 E.06258
G1 X113.5 Y100.074 E.69072
G1 X113.5 Y99.232 E.06258
G1 X119.232 Y93.5 E.60222
G1 X118.389 Y93.5 E.06258
G1 X113.5 Y98.389 E.51372
G1 X113.5 Y97.547 E.06258
G1 X117.547 Y93.5 E.42522
G1 X116.705 Y93.5 E.06258
G1 X113.5 Y96.705 E.33672
G1 X113.5 Y95.862 E.06258
G1 X115.862 Y93.5 E.24822
G1 X115.02 Y93.5 E.06258
G1 X113.5 Y95.02 E.15972
G1 X113.5 Y94.178 E.06258
G1 X114.441 Y93.236 E.09891
; stop printing object plant lid supports v1.stl id:0 copy 0
M106 S170.85
;LAYER_CHANGE
;Z:0.8
;HEIGHT:0.3
;BEFORE_LAYER_CHANGE
G92 E0.0
;0.8


;WIPE_START
G1 F8640
G1 X113.5 Y94.178 E-.30741
G1 X113.5 Y95.02 E-.1945
G1 X114.29 Y94.23 E-.25809
;WIPE_END
G1 E-.04 F2100
G1 Z.9 F720
;AFTER_LAYER_CHANGE
;0.8
G1 X114.29 Y89.543 F10800
G1 Z.8 F720
G1 E.8 F2100
;TYPE:Skirt/Brim
;WIDTH:0.65
G1 F3000
G1 X137.85 Y89.543 E1.72085
G1 X139.225 Y89.935 E.10447
G1 X140.187 Y90.994 E.10447
G1 X140.457 Y92.15 E.0867
G1 X140.457 Y117.85 E1.87717
G1 X140.065 Y119.225 E.10447
G1 X139.006 Y120.187 E.10447
G1 X137.85 Y120.457 E.0867
G1 X112.15 Y120.457 E1.87717
G1 X110.775 Y120.065 E.10447
G1 X109.813 Y119.006 E.10447
G1 X109.543 Y117.85 E.0867
G1 X109.543 Y92.15 E1.87717
G1 X109.935 Y90.775 E.10447
G1 X110.994 Y89.813 E.10447
G1 X112.15 Y89.543 E.0867
G1 X114.2 Y89.543 E.14975
; printing object plant lid supports v1.stl id:0 copy 0
;WIPE_START
G1 F8640
G1 X117.492 Y89.543 E-.76
;WIPE_END
G1 E-.04 F2100
G1 Z1.2 F720
G1 X113.061 Y93.061 F10800
G1 Z.8 F720
G1 E.8 F2100
M204 S800
;TYPE:Perimeter
;WIDTH:0.649999
G1 F2700
G1 X136.939 Y93.061 E1.74414
G1 X136.939 Y116.939 E1.74414
G1 X113.061 Y116.939 E1.74414
G1 X113.061 Y93.151 E1.73757
M204 S1000
G1 X112.475 Y92.475 F10800
M204 S800
;TYPE:External perimeter
G1 F2100
G1 X137.525 Y92.475 E1.82969
G1 X137.525 Y117.525 E1.82969
G1 X112.475 Y117.525 E1.82969
G1 X112.475 Y92.565 E1.82312
M204 S1000
G1 X113.055 Y92.63 F10800
;WIPE_START
G1 F8640
G1 X115.766 Y92.553 E-.76
;WIPE_END
G1 E-.04 F2100
G1 Z1.2 F720
G1 X135.559 Y93.236 F10800
G1 Z.8 F720
G1 E.8 F2100
;TYPE:Solid infill
;WIDTH:0.660016
G1 F4200
G1 X136.5 Y94.178 E.09892
G1 X136.5 Y95.02 E.06258
G1 X134.98 Y93.5 E.15973
G1 X134.137 Y93.5 E.06258
G1 X136.5 Y95.863 E.24823
G1 X136.5 Y96.705 E.06258
G1 X133.295 Y93.5 E.33673
G1 X132.453 Y93.5 E.06258
G1 X136.5 Y97.547 E.42523
G1 X136.5 Y98.39 E.06258
G1 X131.61 Y93.5 E.51373
G1 X130.768 Y93.5 E.06258
G1 X136.5 Y99.232 E.60223
G1 X136.5 Y100.074 E.06258
G1 X129.926 Y93.5 E.69073
G1 X129.083 Y93.5 E.06258
G1 X136.5 Y100.917 E.77924
G1 X136.5 Y101.759 E.06258
G1 X128.241 Y93.5 E.86774
G1 X127.399 Y93.5 E.06258
G1 X136.5 Y102.601 E.95624
G1 X136.5 Y103.444 E.06258
M73 Q8 S20
G1 X126.556 Y93.5 E1.04474
M73 P8 R20
G1 X125.714 Y93.5 E.06258
G1 X136.5 Y104.286 E1.13324
G1 X136.5 Y105.128 E.06258
G1 X124.872 Y93.5 E1.22174
G1 X124.029 Y93.5 E.06258
G1 X136.5 Y105.971 E1.31024
G1 X136.5 Y106.813 E.06258
G1 X123.187 Y93.5 E1.39874
G1 X122.345 Y93.5 E.06258
G1 X136.5 Y107.655 E1.48724
G1 X136.5 Y108.498 E.06258
G1 X121.502 Y93.5 E1.57574
G1 X120.66 Y93.5 E.06258
G1 X136.5 Y109.34 E1.66424
G1 X136.5 Y110.183 E.06258
G1 X119.817 Y93.5 E1.75274
G1 X118.975 Y93.5 E.06258
G1 X136.5 Y111.025 E1.84124
G1 X136.5 Y111.867 E.06258
G1 X118.133 Y93.5 E1.92974
G1 X117.29 Y93.5 E.06258
G1 X136.5 Y112.71 E2.01824
G1 X136.5 Y113.552 E.06258
G1 X116.448 Y93.5 E2.10674
G1 X115.606 Y93.5 E.06258
G1 X136.5 Y114.394 E2.19524
G1 X136.5 Y115.237 E.06258
G1 X114.763 Y93.5 E2.28374
G1 X113.921 Y93.5 E.06258
G1 X136.5 Y116.079 E2.37224
G1 X136.5 Y116.5 E.03129
G1 X136.079 Y116.5 E.03129
G1 X113.5 Y93.921 E2.37223
G1 X113.5 Y94.763 E.06258
G1 X135.237 Y116.5 E2.28373
G1 X134.394 Y116.5 E.06258
G1 X113.5 Y95.606 E2.19523
G1 X113.5 Y96.448 E.06258
G1 X133.552 Y116.5 E2.10673
G1 X132.71 Y116.5 E.06258
G1 X113.5 Y97.29 E2.01823
G1 X113.5 Y98.133 E.06258
G1 X131.867 Y116.5 E1.92973
G1 X131.025 Y116.5 E.06258
G1 X113.5 Y98.975 E1.84123
G1 X113.5 Y99.818 E.06258
G1 X130.182 Y116.5 E1.75273
G1 X129.34 Y116.5 E.06258
G1 X113.5 Y100.66 E1.66423
G1 X113.5 Y101.502 E.06258
G1 X128.498 Y116.5 E1.57573
G1 X127.655 Y116.5 E.06258
G1 X113.5 Y102.345 E1.48723
G1 X113.5 Y103.187 E.06258
G1 X126.813 Y116.5 E1.39873
G1 X125.971 Y116.5 E.06258
G1 X113.5 Y104.029 E1.31023
G1 X113.5 Y104.872 E.06258
G1 X125.128 Y116.5 E1.22173
G1 X124.286 Y116.5 E.06258
G1 X113.5 Y105.714 E1.13323
G1 X113.5 Y106.556 E.06258
M73 Q9 S20
G1 X123.444 Y116.5 E1.04472
G1 X122.601 Y116.5 E.06258
M73 P9 R20
G1 X113.5 Y107.399 E.95622
G1 X113.5 Y108.241 E.06258
G1 X121.759 Y116.5 E.86772
G1 X120.917 Y116.5 E.06258
G1 X113.5 Y109.083 E.77922
G1 X113.5 Y109.926 E.06258
G1 X120.074 Y116.5 E.69072
G1 X119.232 Y116.5 E.06258
G1 X113.5 Y110.768 E.60222
G1 X113.5 Y111.611 E.06258
G1 X118.389 Y116.5 E.51372
G1 X117.547 Y116.5 E.06258
G1 X113.5 Y112.453 E.42522
G1 X113.5 Y113.295 E.06258
G1 X116.705 Y116.5 E.33672
G1 X115.862 Y116.5 E.06258
G1 X113.5 Y114.138 E.24822
G1 X113.5 Y114.98 E.06258
G1 X115.02 Y116.5 E.15972
G1 X114.178 Y116.5 E.06258
G1 X113.236 Y115.559 E.09891
; stop printing object plant lid supports v1.stl id:0 copy 0
M106 S255
;LAYER_CHANGE
;Z:1.1
;HEIGHT:0.3
;BEFORE_LAYER_CHANGE
G92 E0.0
;1.1


;WIPE_START
G1 F8640
G1 X114.178 Y116.5 E-.30741
G1 X115.02 Y116.5 E-.1945
G1 X114.23 Y115.71 E-.25809
;WIPE_END
G1 E-.04 F2100
G1 Z1.2 F720
;AFTER_LAYER_CHANGE
;1.1
; printing object plant lid supports v1.stl id:0 copy 0
G1 X113.061 Y93.061 F10800
G1 Z1.1 F720
G1 E.8 F2100
M204 S800
;TYPE:Perimeter
;WIDTH:0.649999
G1 F2700
G1 X136.939 Y93.061 E1.74414
G1 X136.939 Y116.939 E1.74414
G1 X113.061 Y116.939 E1.74414
G1 X113.061 Y93.151 E1.73757
M204 S1000
G1 X112.475 Y92.475 F10800
M204 S800
;TYPE:External perimeter
G1 F2100
G1 X137.525 Y92.475 E1.82969
G1 X137.525 Y117.525 E1.82969
G1 X112.475 Y117.525 E1.82969
G1 X112.475 Y92.565 E1.82312
M204 S1000
G1 X113.055 Y92.63 F10800
