; generated by PrusaSlicer 2.5.0+MacOS-x64 on 2023-07-31 at 17:44:27 UTC


;
;
; 

; external perimeters extrusion width = 0.68mm
; perimeters extrusion width = 0.68mm
; infill extrusion width = 0.68mm
; solid infill extrusion width = 0.68mm
; top infill extrusion width = 0.60mm
; first layer extrusion width = 0.65mm

M73 P0 R12
M73 Q0 S12
M201 X1000 Y1000 Z200 E5000 ; sets maximum accelerations, mm/sec^2
M203 X200 Y200 Z12 E120 ; sets maximum feedrates, mm / sec
M204 P1250 R1250 T1250 ; sets acceleration (P, T) and retract acceleration (R), mm/sec^2
M205 X8.00 Y8.00 Z0.40 E4.50 ; sets the jerk limits, mm/sec
M205 S0 T0 ; sets the minimum extruding and travel feed rate, mm/sec
M107
;TYPE:Custom
M862.3 P "MK3S" ; printer model check
M862.1 P0.6 ; nozzle diameter check
M115 U3.12.2 ; tell printer latest fw version
G90 ; use absolute coordinates
M83 ; extruder relative mode
M104 S215 ; set extruder temp
M140 S60 ; set bed temp
M190 S60 ; wait for bed temp
M109 S215 ; wait for extruder temp
G28 W ; home all without mesh bed level
G80 ; mesh bed leveling

G1 Z0.2 F720
G1 Y-3 F1000 ; go outside print area
G92 E0
G1 X60 E9 F1000 ; intro line
G1 X100 E12.5 F1000 ; intro line

G92 E0
M221 S95

; Don't change E values below. Excessive value can damage the printer.

G21 ; set units to millimeters
G90 ; use absolute coordinates
M83 ; use relative distances for extrusion
M900 K0.04 ; Filament gcode LA 1.5
M900 K18 ; Filament gcode LA 1.0
M107
;LAYER_CHANGE
;Z:0.2
;HEIGHT:0.2
;BEFORE_LAYER_CHANGE
G92 E0.0
;0.2


G1 E-.8 F2100
G1 Z.4 F720
;AFTER_LAYER_CHANGE
;0.2
G1 X115.195 Y90.975 F10800
G1 Z.2 F720
G1 E.8 F2100
M204 S800
;TYPE:Skirt/Brim
;WIDTH:0.65
G1 F1200
G1 X116.254 Y90.013 E.0722
G1 X117.41 Y89.743 E.05992
G1 X137.65 Y89.743 E1.02169
M73 Q1 S12
G1 X139.025 Y90.135 E.0722
M73 P1 R12
G1 X139.987 Y91.194 E.0722
G1 X140.257 Y92.35 E.05992
G1 X140.257 Y117.65 E1.27712
G1 X139.865 Y119.025 E.0722
G1 X138.806 Y119.987 E.0722
G1 X137.65 Y120.257 E.05992
G1 X117.41 Y120.257 E1.02169
G1 X116.035 Y119.865 E.0722
G1 X115.073 Y118.806 E.0722
G1 X114.803 Y117.65 E.05992
G1 X114.803 Y92.35 E1.27712
G1 X115.171 Y91.061 E.06766
M204 S1000
; printing object plant lid support WIRE v2.stl id:0 copy 0
;WIPE_START
G1 F8640
G1 X116.254 Y90.013 E-.34808
G1 X117.41 Y89.743 E-.27408
G1 X118.007 Y89.743 E-.13784
;WIPE_END
G1 E-.04 F2100
G1 Z.6 F720
G1 X118.542 Y116.518 F10800
G1 Z.2 F720
G1 E.8 F2100
M204 S800
;TYPE:Perimeter
;WIDTH:0.649999
G1 F1200
G1 X118.542 Y93.482 E1.16282
G1 X136.518 Y93.482 E.9074
G1 X136.518 Y116.518 E1.16282
M73 P2 R12
M73 Q2 S12
G1 X118.632 Y116.518 E.90286
M204 S1000
G1 X117.935 Y117.125 F10800
M204 S800
;TYPE:External perimeter
G1 F1200
G1 X117.935 Y92.875 E1.22411
G1 X137.125 Y92.875 E.96869
G1 X137.125 Y117.125 E1.22411
G1 X118.025 Y117.125 E.96415
M204 S1000
G1 X118.068 Y116.54 F10800
;WIPE_START
G1 F8640
G1 X118.013 Y113.834 E-.76
;WIPE_END
G1 E-.04 F2100
G1 Z.6 F720
G1 X135.107 Y93.664 F10800
G1 Z.2 F720
G1 E.8 F2100
M204 S800
;TYPE:Solid infill
;WIDTH:0.6508
G1 F1200
G1 X136.063 Y94.62 E.06831
G1 X136.063 Y95.48 E.04345
M73 Q3 S12
G1 X134.52 Y93.937 E.11024
G1 X133.661 Y93.937 E.04345
G1 X136.063 Y96.339 E.17169
G1 X136.063 Y97.199 E.04345
M73 P3 R12
G1 X132.801 Y93.937 E.23314
G1 X131.941 Y93.937 E.04345
G1 X136.063 Y98.059 E.29459
G1 X136.063 Y98.918 E.04345
G1 X131.082 Y93.937 E.35604
G1 X130.222 Y93.937 E.04345
G1 X136.063 Y99.778 E.41749
G1 X136.063 Y100.638 E.04345
G1 X129.362 Y93.937 E.47894
G1 X128.503 Y93.937 E.04345
G1 X136.063 Y101.497 E.5404
G1 X136.063 Y102.357 E.04345
G1 X127.643 Y93.937 E.60185
G1 X126.783 Y93.937 E.04345
G1 X136.063 Y103.217 E.6633
G1 X136.063 Y104.076 E.04345
G1 X125.924 Y93.937 E.72475
G1 X125.064 Y93.937 E.04345
G1 X136.063 Y104.936 E.7862
G1 X136.063 Y105.796 E.04345
G1 X124.204 Y93.937 E.84765
G1 X123.345 Y93.937 E.04345
G1 X136.063 Y106.655 E.9091
G1 X136.063 Y107.515 E.04345
M73 P4 R12
M73 Q4 S12
G1 X122.485 Y93.937 E.97055
G1 X121.625 Y93.937 E.04345
G1 X136.063 Y108.375 E1.032
G1 X136.063 Y109.234 E.04345
G1 X120.766 Y93.937 E1.09346
G1 X119.906 Y93.937 E.04345
G1 X136.063 Y110.094 E1.15491
G1 X136.063 Y110.954 E.04345
G1 X119.046 Y93.937 E1.21636
G1 X118.997 Y93.937 E.00248
M73 P4 R11
G1 X118.997 Y94.748 E.04098
G1 X136.063 Y111.813 E1.21986
G1 X136.063 Y112.673 E.04345
M73 Q4 S11
G1 X118.997 Y95.608 E1.21986
G1 X118.997 Y96.467 E.04345
M73 P5 R11
M73 Q5 S11
G1 X136.063 Y113.533 E1.21986
G1 X136.063 Y114.392 E.04345
G1 X118.997 Y97.327 E1.21986
G1 X118.997 Y98.187 E.04345
G1 X136.063 Y115.252 E1.21986
G1 X136.063 Y116.063 E.04097
G1 X136.014 Y116.063 E.00248
G1 X118.997 Y99.046 E1.21635
G1 X118.997 Y99.906 E.04345
G1 X135.154 Y116.063 E1.1549
G1 X134.294 Y116.063 E.04345
G1 X118.997 Y100.766 E1.09345
G1 X118.997 Y101.625 E.04345
M73 P6 R11
M73 Q6 S11
G1 X133.435 Y116.063 E1.032
G1 X132.575 Y116.063 E.04345
G1 X118.997 Y102.485 E.97055
G1 X118.997 Y103.345 E.04345
G1 X131.715 Y116.063 E.9091
G1 X130.856 Y116.063 E.04345
G1 X118.997 Y104.204 E.84765
G1 X118.997 Y105.064 E.04345
G1 X129.996 Y116.063 E.78619
G1 X129.136 Y116.063 E.04345
G1 X118.997 Y105.924 E.72474
G1 X118.997 Y106.783 E.04345
G1 X128.277 Y116.063 E.66329
G1 X127.417 Y116.063 E.04345
G1 X118.997 Y107.643 E.60184
G1 X118.997 Y108.503 E.04345
M73 Q7 S11
G1 X126.557 Y116.063 E.54039
G1 X125.698 Y116.063 E.04345
M73 P7 R11
G1 X118.997 Y109.362 E.47894
G1 X118.997 Y110.222 E.04345
G1 X124.838 Y116.063 E.41749
G1 X123.978 Y116.063 E.04345
G1 X118.997 Y111.082 E.35604
G1 X118.997 Y111.942 E.04345
G1 X123.118 Y116.063 E.29459
G1 X122.259 Y116.063 E.04345
G1 X118.997 Y112.801 E.23313
G1 X118.997 Y113.661 E.04345
G1 X121.399 Y116.063 E.17168
G1 X120.539 Y116.063 E.04345
G1 X118.997 Y114.521 E.11023
G1 X118.997 Y115.38 E.04345
G1 X119.953 Y116.336 E.06831
M204 S1000
; stop printing object plant lid support WIRE v2.stl id:0 copy 0
M106 S84.15
;LAYER_CHANGE
;Z:0.6
;HEIGHT:0.4
;BEFORE_LAYER_CHANGE
G92 E0.0
;0.6


;WIPE_START
G1 F8640
G1 X118.997 Y115.38 E-.31205
G1 X118.997 Y114.521 E-.1985
G1 X119.761 Y115.284 E-.24945
;WIPE_END
G1 E-.04 F2100
G1 Z.6 F720
;AFTER_LAYER_CHANGE
;0.6
G1 Z1
G1 X114.803 Y115.284 F10800
G1 Z.6 F720
G1 E.8 F2100
;TYPE:Skirt/Brim
;WIDTH:0.65
G1 F3000
G1 X114.803 Y92.35 E2.15171
G1 X115.195 Y90.975 E.13419
G1 X116.254 Y90.013 E.13419
G1 X117.41 Y89.743 E.11137
G1 X137.65 Y89.743 E1.89892
G1 X139.025 Y90.135 E.13419
G1 X139.987 Y91.194 E.13419
G1 X140.257 Y92.35 E.11137
G1 X140.257 Y117.65 E2.37365
G1 X139.865 Y119.025 E.13419
G1 X138.806 Y119.987 E.13419
G1 X137.65 Y120.257 E.11137
G1 X117.41 Y120.257 E1.89892
G1 X116.035 Y119.865 E.13419
G1 X115.073 Y118.806 E.13419
G1 X114.803 Y117.65 E.11137
G1 X114.803 Y115.374 E.21349
; printing object plant lid support WIRE v2.stl id:0 copy 0
;WIPE_START
G1 F8640
G1 X114.803 Y112.083 E-.76
;WIPE_END
G1 E-.04 F2100
G1 Z1 F720
G1 X118.344 Y116.716 F10800
G1 Z.6 F720
G1 E.8 F2100
M204 S800
;TYPE:Perimeter
;WIDTH:0.68
G1 F2700
G1 X118.344 Y93.284 E2.31526
G1 X136.716 Y93.284 E1.81529
G1 X136.716 Y116.716 E2.31526
M73 Q8 S11
G1 X118.434 Y116.716 E1.8064
M204 S1000
M73 P8 R11
G1 X117.75 Y117.31 F10800
M204 S800
;TYPE:External perimeter
G1 F2100
G1 X117.75 Y92.69 E2.43268
G1 X137.31 Y92.69 E1.93271
G1 X137.31 Y117.31 E2.43268
G1 X117.84 Y117.31 E1.92381
M204 S1000
G1 X117.883 Y116.725 F10800
;WIPE_START
G1 F8640
G1 X117.828 Y114.019 E-.76
;WIPE_END
G1 E-.04 F2100
G1 Z1 F720
G1 X136.538 Y115.335 F10800
G1 Z.6 F720
G1 E.8 F2100
;TYPE:Solid infill
;WIDTH:0.68052
G1 F3783.554
G1 X135.603 Y116.27 E.13074
G1 X134.762 Y116.27 E.08317
G1 X136.27 Y114.762 E.21097
G1 X136.27 Y113.921 E.08317
G1 X133.921 Y116.27 E.32859
G1 X133.08 Y116.27 E.08317
G1 X136.27 Y113.08 E.44621
G1 X136.27 Y112.239 E.08317
G1 X132.239 Y116.27 E.56383
G1 X131.398 Y116.27 E.08317
G1 X136.27 Y111.398 E.68146
G1 X136.27 Y110.557 E.08317
G1 X130.557 Y116.27 E.79908
G1 X129.716 Y116.27 E.08317
G1 X136.27 Y109.716 E.9167
G1 X136.27 Y108.875 E.08317
G1 X128.875 Y116.27 E1.03432
G1 X128.034 Y116.27 E.08317
G1 X136.27 Y108.034 E1.15194
G1 X136.27 Y107.193 E.08317
G1 X127.193 Y116.27 E1.26957
G1 X126.352 Y116.27 E.08317
G1 X136.27 Y106.352 E1.38719
G1 X136.27 Y105.511 E.08317
G1 X125.511 Y116.27 E1.50481
G1 X124.67 Y116.27 E.08317
G1 X136.27 Y104.67 E1.62243
G1 X136.27 Y103.829 E.08317
G1 X123.829 Y116.27 E1.74005
G1 X122.988 Y116.27 E.08317
M73 Q9 S11
G1 X136.27 Y102.988 E1.85768
M73 P9 R11
G1 X136.27 Y102.147 E.08317
G1 X122.147 Y116.27 E1.9753
G1 X121.306 Y116.27 E.08317
G1 X136.27 Y101.306 E2.09292
G1 X136.27 Y100.465 E.08317
G1 X120.465 Y116.27 E2.21054
G1 X119.624 Y116.27 E.08317
G1 X136.27 Y99.624 E2.32817
G1 X136.27 Y98.783 E.08317
G1 X118.79 Y116.263 E2.4448
G1 X118.79 Y115.422 E.08317
G1 X136.27 Y97.942 E2.4448
G1 X136.27 Y97.101 E.08317
G1 X118.79 Y114.581 E2.4448
G1 X118.79 Y113.74 E.08317
G1 X136.27 Y96.26 E2.4448
G1 X136.27 Y95.419 E.08317
G1 X118.79 Y112.899 E2.4448
G1 X118.79 Y112.058 E.08317
G1 X136.27 Y94.578 E2.4448
G1 X136.27 Y93.737 E.08317
G1 X118.79 Y111.217 E2.4448
G1 X118.79 Y110.376 E.08317
G1 X135.436 Y93.73 E2.32815
G1 X134.595 Y93.73 E.08317
G1 X118.79 Y109.535 E2.21053
G1 X118.79 Y108.694 E.08317
G1 X133.754 Y93.73 E2.09291
G1 X132.913 Y93.73 E.08317
G1 X118.79 Y107.853 E1.97529
G1 X118.79 Y107.012 E.08317
G1 X132.072 Y93.73 E1.85767
G1 X131.231 Y93.73 E.08317
M73 P10 R11
M73 Q10 S11
G1 X118.79 Y106.171 E1.74004
G1 X118.79 Y105.33 E.08317
G1 X130.39 Y93.73 E1.62242
G1 X129.549 Y93.73 E.08317
G1 X118.79 Y104.489 E1.5048
G1 X118.79 Y103.648 E.08317
G1 X128.708 Y93.73 E1.38718
G1 X127.867 Y93.73 E.08317
G1 X118.79 Y102.807 E1.26956
G1 X118.79 Y101.966 E.08317
G1 X127.026 Y93.73 E1.15193
G1 X126.185 Y93.73 E.08317
G1 X118.79 Y101.125 E1.03431
G1 X118.79 Y100.284 E.08317
G1 X125.344 Y93.73 E.91669
G1 X124.503 Y93.73 E.08317
G1 X118.79 Y99.443 E.79907
G1 X118.79 Y98.602 E.08317
G1 X123.662 Y93.73 E.68144
G1 X122.821 Y93.73 E.08317
G1 X118.79 Y97.761 E.56382
G1 X118.79 Y96.92 E.08317
G1 X121.98 Y93.73 E.4462
G1 X121.139 Y93.73 E.08317
G1 X118.79 Y96.079 E.32858
G1 X118.79 Y95.238 E.08317
G1 X120.298 Y93.73 E.21096
G1 X119.457 Y93.73 E.08317
G1 X118.522 Y94.664 E.13073
; stop printing object plant lid support WIRE v2.stl id:0 copy 0
M106 S170.85
;LAYER_CHANGE
;Z:1
;HEIGHT:0.4
;BEFORE_LAYER_CHANGE
G92 E0.0
;1


;WIPE_START
G1 F8640
G1 X119.457 Y93.73 E-.30523
G1 X120.298 Y93.73 E-.19419
G1 X119.5 Y94.528 E-.26058
;WIPE_END
G1 E-.04 F2100
G1 Z1 F720
;AFTER_LAYER_CHANGE
;1
G1 Z1.4
G1 X114.803 Y94.528 F10800
G1 Z1 F720
G1 E.8 F2100
;TYPE:Skirt/Brim
;WIDTH:0.65
G1 F3000
G1 X114.803 Y92.35 E.20432
G1 X115.195 Y90.975 E.13419
G1 X116.254 Y90.013 E.13419
G1 X117.41 Y89.743 E.11137
G1 X137.65 Y89.743 E1.89892
G1 X139.025 Y90.135 E.13419
G1 X139.987 Y91.194 E.13419
G1 X140.257 Y92.35 E.11137
G1 X140.257 Y117.65 E2.37365
G1 X139.865 Y119.025 E.13419
G1 X138.806 Y119.987 E.13419
G1 X137.65 Y120.257 E.11137
G1 X117.41 Y120.257 E1.89892
G1 X116.035 Y119.865 E.13419
G1 X115.073 Y118.806 E.13419
G1 X114.803 Y117.65 E.11137
G1 X114.803 Y94.618 E2.16088
; printing object plant lid support WIRE v2.stl id:0 copy 0
;WIPE_START
G1 F8640
G1 X114.803 Y92.35 E-.52364
G1 X115.084 Y91.366 E-.23636
;WIPE_END
G1 E-.04 F2100
G1 Z1.4 F720
G1 X118.344 Y116.716 F10800
G1 Z1 F720
G1 E.8 F2100
M204 S800
;TYPE:Perimeter
;WIDTH:0.68
G1 F2700
G1 X118.344 Y93.284 E2.31526
G1 X136.716 Y93.284 E1.81529
M73 P11 R11
M73 Q11 S11
G1 X136.716 Y116.716 E2.31526
G1 X118.434 Y116.716 E1.8064
M204 S1000
G1 X117.75 Y117.31 F10800
M204 S800
;TYPE:External perimeter
G1 F2100
G1 X117.75 Y92.69 E2.43268
G1 X137.31 Y92.69 E1.93271
G1 X137.31 Y117.31 E2.43268
G1 X117.84 Y117.31 E1.92381
M204 S1000
G1 X117.883 Y116.725 F10800
;WIPE_START
G1 F8640
G1 X117.828 Y114.019 E-.76
;WIPE_END
G1 E-.04 F2100
G1 Z1.4 F720
G1 X135.335 Y93.462 F10800
G1 Z1 F720
G1 E.8 F2100
;TYPE:Solid infill
;WIDTH:0.68052
G1 F3783.554
G1 X136.27 Y94.397 E.13074
G1 X136.27 Y95.238 E.08317
G1 X134.762 Y93.73 E.21097
G1 X133.921 Y93.73 E.08317
G1 X136.27 Y96.079 E.32859
G1 X136.27 Y96.92 E.08317
G1 X133.08 Y93.73 E.44621
G1 X132.239 Y93.73 E.08317
G1 X136.27 Y97.761 E.56383
G1 X136.27 Y98.602 E.08317
G1 X131.398 Y93.73 E.68146
G1 X130.557 Y93.73 E.08317
G1 X136.27 Y99.443 E.79908
G1 X136.27 Y100.284 E.08317
G1 X129.716 Y93.73 E.9167
G1 X128.875 Y93.73 E.08317
G1 X136.27 Y101.125 E1.03432
G1 X136.27 Y101.966 E.08317
G1 X128.034 Y93.73 E1.15194
G1 X127.193 Y93.73 E.08317
G1 X136.27 Y102.807 E1.26957
G1 X136.27 Y103.648 E.08317
G1 X126.352 Y93.73 E1.38719
G1 X125.511 Y93.73 E.08317
G1 X136.27 Y104.489 E1.50481
G1 X136.27 Y105.33 E.08317
M73 Q12 S11
G1 X124.67 Y93.73 E1.62243
M73 P12 R11
G1 X123.829 Y93.73 E.08317
G1 X136.27 Y106.171 E1.74005
G1 X136.27 Y107.012 E.08317
G1 X122.988 Y93.73 E1.85768
G1 X122.147 Y93.73 E.08317
G1 X136.27 Y107.853 E1.9753
G1 X136.27 Y108.694 E.08317
G1 X121.306 Y93.73 E2.09292
G1 X120.465 Y93.73 E.08317
G1 X136.27 Y109.535 E2.21054
G1 X136.27 Y110.376 E.08317
G1 X119.624 Y93.73 E2.32817
G1 X118.79 Y93.737 E.08248
G1 X136.27 Y111.217 E2.4448
G1 X136.27 Y112.058 E.08317
G1 X118.79 Y94.578 E2.4448
G1 X118.79 Y95.419 E.08317
G1 X136.27 Y112.899 E2.4448
G1 X136.27 Y113.74 E.08317
G1 X118.79 Y96.26 E2.4448
G1 X118.79 Y97.101 E.08317
G1 X136.27 Y114.581 E2.4448
G1 X136.27 Y115.422 E.08317
M73 P12 R10
G1 X118.79 Y97.942 E2.4448
G1 X118.79 Y98.783 E.08317
G1 X136.27 Y116.27 E2.44529
G1 X135.436 Y116.27 E.08248
G1 X118.79 Y99.624 E2.32815
G1 X118.79 Y100.465 E.08317
M73 Q12 S10
G1 X134.595 Y116.27 E2.21053
G1 X133.754 Y116.27 E.08317
G1 X118.79 Y101.306 E2.09291
G1 X118.79 Y102.147 E.08317
M73 Q13 S10
G1 X132.913 Y116.27 E1.97529
G1 X132.072 Y116.27 E.08317
M73 P13 R10
G1 X118.79 Y102.988 E1.85767
G1 X118.79 Y103.829 E.08317
G1 X131.231 Y116.27 E1.74004
G1 X130.39 Y116.27 E.08317
G1 X118.79 Y104.67 E1.62242
G1 X118.79 Y105.511 E.08317
G1 X129.549 Y116.27 E1.5048
G1 X128.708 Y116.27 E.08317
G1 X118.79 Y106.352 E1.38718
G1 X118.79 Y107.193 E.08317
G1 X127.867 Y116.27 E1.26955
G1 X127.026 Y116.27 E.08317
G1 X118.79 Y108.034 E1.15193
G1 X118.79 Y108.875 E.08317
G1 X126.185 Y116.27 E1.03431
G1 X125.344 Y116.27 E.08317
G1 X118.79 Y109.716 E.91669
G1 X118.79 Y110.557 E.08317
G1 X124.503 Y116.27 E.79907
G1 X123.662 Y116.27 E.08317
G1 X118.79 Y111.398 E.68144
G1 X118.79 Y112.239 E.08317
G1 X122.821 Y116.27 E.56382
G1 X121.98 Y116.27 E.08317
G1 X118.79 Y113.08 E.4462
G1 X118.79 Y113.921 E.08317
G1 X121.139 Y116.27 E.32858
G1 X120.298 Y116.27 E.08317
G1 X118.79 Y114.762 E.21096
G1 X118.79 Y115.603 E.08317
G1 X119.724 Y116.538 E.13073
; stop printing object plant lid support WIRE v2.stl id:0 copy 0
M106 S255
;LAYER_CHANGE
;Z:1.4
;HEIGHT:0.4
;BEFORE_LAYER_CHANGE
G92 E0.0
;1.4


;WIPE_START
G1 F8640
G1 X118.79 Y115.603 E-.30522
G1 X118.79 Y114.762 E-.19419
G1 X119.588 Y115.56 E-.26059
;WIPE_END
G1 E-.04 F2100
G1 Z1.4 F720
;AFTER_LAYER_CHANGE
;1.4
; printing object plant lid support WIRE v2.stl id:0 copy 0
G1 Z1.8
G1 X118.344 Y116.716 F10800
G1 Z1.4 F720
G1 E.8 F2100
M204 S800
;TYPE:Perimeter
;WIDTH:0.68
G1 F1334
G1 X118.344 Y93.284 E2.31526
G1 X136.716 Y93.284 E1.81529
G1 X136.716 Y116.716 E2.31526
G1 X118.434 Y116.716 E1.8064
M204 S1000
M73 P14 R10
M73 Q14 S10
G1 X117.75 Y117.31 F10800
M204 S800
;TYPE:External perimeter
G1 F1334
G1 X117.75 Y92.69 E2.43268
G1 X137.31 Y92.69 E1.93271
G1 X137.31 Y117.31 E2.43268
G1 X117.84 Y117.31 E1.92381
M204 S1000
G1 X117.883 Y116.725 F10800
;WIPE_START
G1 F8640
G1 X117.828 Y114.019 E-.76
;WIPE_END
G1 E-.04 F2100
G1 Z1.8 F720
G1 X118.79 Y114.855 F10800
G1 Z1.4 F720
G1 E.8 F2100
;TYPE:Internal infill
;WIDTH:0.68
G1 F1334
G1 X118.79 Y116.27 E.13979
G1 X119.875 Y116.27 E.10723
G1 X120.537 Y115.976 E.07161
G1 X121.175 Y115.787 E.06571
G1 X121.812 Y115.718 E.06336
G1 X122.131 Y115.798 E.03248
G1 X122.45 Y116.08 E.04201
G1 X122.573 Y116.27 E.02241
G1 X130.075 Y116.27 E.74127
G1 X130.738 Y115.976 E.07161
G1 X131.375 Y115.787 E.06571
G1 X132.013 Y115.718 E.06336
G1 X132.331 Y115.798 E.03248
G1 X132.65 Y116.08 E.04201
G1 X132.773 Y116.27 E.02241
G1 X136.27 Y116.27 E.34556
G1 X136.27 Y113.321 E.2914
