; generated by PrusaSlicer 2.5.0+MacOS-x64 on 2023-05-24 at 14:33:46 UTC


;
;
; 

; external perimeters extrusion width = 0.60mm
; perimeters extrusion width = 0.50mm
; infill extrusion width = 0.50mm
; solid infill extrusion width = 0.50mm
; top infill extrusion width = 0.45mm
; first layer extrusion width = 0.42mm

; external perimeters extrusion width = 0.60mm
; perimeters extrusion width = 0.50mm
; infill extrusion width = 0.50mm
; solid infill extrusion width = 0.50mm
; top infill extrusion width = 0.45mm
; first layer extrusion width = 0.42mm

M73 P0 R26
M73 Q0 S26
M201 X1000 Y1000 Z200 E5000 ; sets maximum accelerations, mm/sec^2
M203 X200 Y200 Z12 E120 ; sets maximum feedrates, mm / sec
M204 P1250 R1250 T1250 ; sets acceleration (P, T) and retract acceleration (R), mm/sec^2
M205 X8.00 Y8.00 Z0.40 E4.50 ; sets the jerk limits, mm/sec
M205 S0 T0 ; sets the minimum extruding and travel feed rate, mm/sec
M107
;TYPE:Custom
M862.3 P "MK3S" ; printer model check
M862.1 P0.4 ; nozzle diameter check
M115 U3.11.0 ; tell printer latest fw version
G90 ; use absolute coordinates
M83 ; extruder relative mode
M104 S215 ; set extruder temp
M140 S60 ; set bed temp
M190 S60 ; wait for bed temp
M109 S215 ; wait for extruder temp
G28 W ; home all without mesh bed level
G80 ; mesh bed leveling

G1 Z0.2 F720
G1 Y-3 F1000 ; go outside print area
G92 E0
G1 X60 E9 F1000 ; intro line
G1 X100 E12.5 F1000 ; intro line

G92 E0
M221 S95

; Don't change E values below. Excessive value can damage the printer.

M907 E538 ; set extruder motor current
G21 ; set units to millimeters
G90 ; use absolute coordinates
M83 ; use relative distances for extrusion
M900 K0.05 ; Filament gcode LA 1.5
M900 K30 ; Filament gcode LA 1.0
M107
;LAYER_CHANGE
;Z:0.2
;HEIGHT:0.2
;BEFORE_LAYER_CHANGE
G92 E0.0
;0.2


G1 E-.8 F2100
G1 Z.4 F720
;AFTER_LAYER_CHANGE
;0.2
G1 X108.477 Y86.852 F10800
G1 Z.2 F720
G1 E.8 F2100
M204 S800
;TYPE:Skirt/Brim
;WIDTH:0.42
G1 F1200
G1 X109.524 Y85.978 E.04278
G1 X110.445 Y85.787 E.02948
G1 X159.363 Y85.493 E1.53381
G1 X180.862 Y85.88 E.67421
G1 X182.162 Y86.295 E.04278
G1 X183.019 Y87.357 E.04278
G1 X183.197 Y88.262 E.02893
G1 X183.057 Y150.968 E1.9661
G1 X182.663 Y152.274 E.04278
G1 X181.615 Y153.148 E.04278
G1 X180.694 Y153.34 E.02948
G1 X131.777 Y153.634 E1.53381
G1 X110.277 Y153.246 E.67421
M73 P1 R26
M73 Q1 S26
G1 X108.977 Y152.831 E.04278
G1 X108.12 Y151.77 E.04278
G1 X107.943 Y150.864 E.02893
G1 X108.082 Y88.159 E1.9661
G1 X108.459 Y86.91 E.0409
M204 S1000
; printing object physical model 13.stl id:0 copy 0
;WIPE_START
G1 F8640
G1 X109.524 Y85.978 E-.32671
G1 X110.445 Y85.787 E-.21712
G1 X111.381 Y85.781 E-.21617
;WIPE_END
G1 E-.04 F2100
G1 Z.6 F720
G1 X111.31 Y96.062 F10800
G1 Z.2 F720
G1 E.8 F2100
M204 S800
;TYPE:Perimeter
;WIDTH:0.58241
G1 F1200
G1 X111.39 Y96.204 E.00728
;WIDTH:0.553802
G1 X111.47 Y96.345 E.00689
;WIDTH:0.525194
G1 X111.91 Y96.867 E.02737
;WIDTH:0.51862
G1 X111.642 Y96.969 E.01132
;WIDTH:0.559731
G1 X111.479 Y97.219 E.01282
;WIDTH:0.600842
G1 X111.316 Y97.469 E.01384
G1 X111.296 Y97.118 E.01629
;WIDTH:0.559731
G1 X111.277 Y96.768 E.01509
;WIDTH:0.550515
G1 X111.293 Y96.415 E.0149
;WIDTH:0.58241
G1 X111.307 Y96.122 E.01314
M204 S1000
;WIPE_START
G1 F8640
G1 X111.39 Y96.204 E-.02679
G1 X111.47 Y96.345 E-.03747
G1 X111.91 Y96.867 E-.15759
G1 X111.642 Y96.969 E-.0661
G1 X111.479 Y97.219 E-.0689
G1 X111.316 Y97.469 E-.0689
G1 X111.296 Y97.118 E-.08108
G1 X111.277 Y96.768 E-.08108
G1 X111.293 Y96.415 E-.0815
G1 X111.307 Y96.122 E-.06764
;WIPE_END
G1 E-.06294 F2100
G1 Z.6 F720
G1 X111.247 Y124.104 F10800
G1 Z.2 F720
G1 E.8 F2100
M204 S800
;WIDTH:0.582194
G1 F1200
G1 X111.327 Y124.244 E.00724
;WIDTH:0.553683
G1 X111.406 Y124.385 E.00686
;WIDTH:0.525171
G1 X111.847 Y124.908 E.02744
;WIDTH:0.518245
G1 X111.579 Y125.01 E.01134
;WIDTH:0.559652
G1 X111.416 Y125.26 E.01281
;WIDTH:0.601058
G1 X111.254 Y125.51 E.01383
G1 X111.234 Y125.16 E.01628
;WIDTH:0.559652
G1 X111.214 Y124.809 E.01507
;WIDTH:0.55022
G1 X111.231 Y124.456 E.0149
;WIDTH:0.582194
G1 X111.244 Y124.163 E.01315
M204 S1000
;WIPE_START
G1 F8640
G1 X111.327 Y124.244 E-.0266
G1 X111.406 Y124.385 E-.03728
G1 X111.847 Y124.908 E-.15803
G1 X111.579 Y125.01 E-.06624
G1 X111.416 Y125.26 E-.06882
G1 X111.254 Y125.51 E-.06882
G1 X111.234 Y125.16 E-.08098
G1 X111.214 Y124.809 E-.08098
G1 X111.231 Y124.456 E-.08158
G1 X111.244 Y124.163 E-.06773
;WIPE_END
G1 E-.06293 F2100
G1 Z.6 F720
G1 X111.218 Y136.771 F10800
G1 Z.2 F720
G1 E.8 F2100
M204 S800
;WIDTH:0.580128
G1 F1200
G1 X111.297 Y136.912 E.00725
;WIDTH:0.55465
G1 X111.375 Y137.054 E.0069
;WIDTH:0.529172
G1 X111.83 Y137.606 E.02888
;WIDTH:0.523183
G1 X111.553 Y137.697 E.01161
;WIDTH:0.559317
G1 X111.388 Y137.958 E.01327
;WIDTH:0.59545
G1 X111.222 Y138.219 E.01419
G1 X111.205 Y137.855 E.01672
;WIDTH:0.559317
G1 X111.188 Y137.492 E.01563
;WIDTH:0.551656
G1 X111.203 Y137.131 E.01526
;WIDTH:0.580128
G1 X111.216 Y136.831 E.01344
M204 S1000
;WIPE_START
G1 F8640
G1 X111.297 Y136.912 E-.02662
G1 X111.375 Y137.054 E-.03745
G1 X111.83 Y137.606 E-.16494
G1 X111.553 Y137.697 E-.06713
G1 X111.388 Y137.958 E-.07134
G1 X111.222 Y138.219 E-.07134
G1 X111.205 Y137.855 E-.08404
G1 X111.188 Y137.492 E-.08404
G1 X111.203 Y137.131 E-.0833
G1 X111.216 Y136.831 E-.06945
;WIPE_END
G1 E-.04036 F2100
G1 Z.6 F720
G1 X154.346 Y90.123 F10800
G1 Z.2 F720
G1 E.8 F2100
M204 S800
;WIDTH:0.419999
G1 F1200
G1 X154.341 Y90.343 E.00688
G1 X154.244 Y90.531 E.00665
G1 X154.166 Y90.614 E.00356
G1 X153.379 Y91.288 E.03249
G1 X152.489 Y91.744 E.03134
G1 X151.765 Y91.889 E.02317
G1 X151.347 Y91.93 E.01316
G1 X150.555 Y91.81 E.02514
G1 X150.099 Y91.598 E.01576
G1 X150.344 Y92.351 E.02482
G1 X150.456 Y93.332 E.03096
G1 X150.377 Y94.425 E.03435
G1 X150.103 Y95.434 E.03279
G1 X149.653 Y96.361 E.03232
G1 X149.045 Y97.161 E.0315
G1 X148.302 Y97.79 E.03052
G1 X147.452 Y98.206 E.02967
G1 X146.782 Y98.33 E.02137
G1 X146.359 Y98.366 E.01332
G1 X145.613 Y98.243 E.02371
G1 X145.115 Y98.005 E.01729
G1 X145.332 Y98.663 E.02171
G1 X145.457 Y99.815 E.03634
G1 X145.367 Y100.824 E.03176
G1 X145.081 Y101.875 E.03415
G1 X144.612 Y102.841 E.03366
G1 X143.979 Y103.673 E.03278
G1 X143.206 Y104.326 E.03173
G1 X142.324 Y104.757 E.0308
G1 X141.373 Y104.924 E.03025
G1 X140.655 Y104.834 E.02271
G1 X140.25 Y104.74 E.01301
G1 X139.542 Y104.374 E.02501
;WIDTH:0.456402
G1 X139.326 Y104.205 E.00942
;WIDTH:0.492805
G1 X139.109 Y104.037 E.01025
G1 X138.757 Y103.663 E.01923
;WIDTH:0.45935
G1 X128.599 Y90.651 E.57161
G1 X128.551 Y90.044 E.02107
;WIDTH:0.419999
G1 X128.671 Y89.796 E.00865
;WIDTH:0.465847
G1 X128.803 Y89.67 E.00641
;WIDTH:0.511694
G1 X128.935 Y89.544 E.00711
;WIDTH:0.557541
G1 X129.067 Y89.418 E.0078
G1 X129.177 Y89.411 E.0047
;WIDTH:0.550935
G1 X136.856 Y89.365 E.32439
;WIDTH:0.56246
G1 X138.425 Y89.373 E.06779
G1 X138.556 Y89.451 E.00657
;WIDTH:0.514973
G1 X138.686 Y89.529 E.00597
;WIDTH:0.467486
G1 X138.817 Y89.607 E.00537
;WIDTH:0.419999
G1 X139.011 Y89.828 E.00922
G1 X139.173 Y89.628 E.00806
;WIDTH:0.458242
G1 X139.294 Y89.565 E.0047
;WIDTH:0.496485
G1 X139.414 Y89.502 E.00514
;WIDTH:0.534728
G1 X139.535 Y89.44 E.00557
;WIDTH:0.572971
G1 X139.656 Y89.377 E.006
G1 X140.233 Y89.349 E.02543
;WIDTH:0.554013
G1 X140.264 Y89.348 E.00135
;WIDTH:0.553436
G1 X147.196 Y89.303 E.29426
;WIDTH:0.551213
G1 X147.207 Y89.303 E.00044
;WIDTH:0.559937
G1 X148.298 Y89.309 E.04694
G1 X148.432 Y89.39 E.00669
;WIDTH:0.513291
G1 X148.565 Y89.47 E.00608
;WIDTH:0.466645
G1 X148.698 Y89.551 E.00548
;WIDTH:0.419999
G1 X148.882 Y89.812 E.01004
G1 X149.062 Y89.58 E.00923
;WIDTH:0.464733
G1 X149.177 Y89.525 E.00446
;WIDTH:0.509467
G1 X149.291 Y89.469 E.00493
;WIDTH:0.554201
G1 X149.405 Y89.414 E.0054
;WIDTH:0.598935
G1 X149.52 Y89.358 E.00587
G1 X150.807 Y89.292 E.0596
;WIDTH:0.558404
G1 X150.828 Y89.291 E.0009
;WIDTH:0.558082
G1 X153.681 Y89.263 E.12223
;WIDTH:0.550767
G1 X153.8 Y89.325 E.00563
;WIDTH:0.507178
G1 X153.918 Y89.386 E.00515
;WIDTH:0.463589
G1 X154.036 Y89.448 E.00466
;WIDTH:0.419999
G1 X154.218 Y89.695 E.00961
G1 X154.347 Y90.063 E.01225
M204 S1000
G1 X153.981 Y90.14 F10800
M204 S800
;TYPE:External perimeter
G1 F1200
G1 X153.947 Y90.3 E.00514
G1 X153.92 Y90.327 E.00119
G1 X153.134 Y91.002 E.03249
G1 X152.324 Y91.405 E.02837
G1 X151.404 Y91.558 E.02922
G1 X150.612 Y91.437 E.02514
;WIDTH:0.420751
G1 X150.073 Y91.154 E.01912
;WIDTH:0.445404
G1 X149.784 Y90.995 E.01104
G1 X149.231 Y90.356 E.02828
;WIDTH:0.416764
G1 X149.182 Y90.295 E.00244
;WIDTH:0.419914
G1 X149.161 Y90.124 E.0054
G1 X149.287 Y89.883 E.00853
G1 X149.579 Y89.821 E.00934
;WIDTH:0.419999
G1 X150.827 Y89.737 E.03922
G1 X153.687 Y89.705 E.08969
G1 X153.804 Y89.745 E.00388
G1 X153.956 Y90.085 E.01167
M204 S1000
G1 X154.127 Y90.213 F10800
;WIPE_START
G1 F8640
G1 X153.947 Y90.3 E-.04971
G1 X153.92 Y90.327 E-.00874
G1 X153.134 Y91.002 E-.23926
G1 X152.324 Y91.405 E-.20893
G1 X151.404 Y91.558 E-.2152
G1 X151.241 Y91.533 E-.03816
;WIPE_END
G1 E-.04 F2100
G1 Z.6 F720
G1 X111.085 Y148.649 F10800
G1 Z.2 F720
G1 E.8 F2100
M204 S800
;TYPE:Perimeter
G1 F1200
G1 X111.113 Y147.886 E.02394
G1 X111.121 Y144.456 E.10754
;WIDTH:0.459971
G1 X111.141 Y144.232 E.00779
;WIDTH:0.499942
G1 X111.162 Y144.008 E.00853
;WIDTH:0.539913
G1 X111.182 Y143.785 E.00928
;WIDTH:0.579884
G1 X111.203 Y143.561 E.01003
G1 X111.328 Y143.671 E.00743
;WIDTH:0.539913
G1 X111.453 Y143.781 E.00688
;WIDTH:0.499942
G1 X111.578 Y143.891 E.00633
;WIDTH:0.459971
G1 X111.703 Y144 E.00577
;WIDTH:0.419999
G1 X112.253 Y144.119 E.01762
G1 X112.533 Y144.045 E.00907
G1 X112.632 Y143.972 E.00386
G1 X112.755 Y143.813 E.00629
G1 X113.24 Y142.854 E.03372
G1 X113.544 Y141.791 E.03468
G1 X113.645 Y140.688 E.03472
G1 X113.53 Y139.595 E.03446
G1 X113.308 Y138.906 E.02271
G1 X113.803 Y139.141 E.0172
G1 X114.549 Y139.264 E.0237
G1 X114.973 Y139.228 E.01334
G1 X115.642 Y139.104 E.02134
G1 X116.492 Y138.689 E.02967
G1 X117.235 Y138.06 E.03052
G1 X117.843 Y137.26 E.0315
G1 X118.293 Y136.332 E.03232
G1 X118.567 Y135.323 E.03279
G1 X118.651 Y134.388 E.02945
G1 X118.638 Y134.156 E.00728
G1 X118.534 Y133.249 E.02862
G1 X118.29 Y132.499 E.02474
G1 X118.714 Y132.699 E.01469
G1 X119.492 Y132.828 E.02474
G1 X119.981 Y132.782 E.01541
G1 X120.619 Y132.662 E.02035
G1 X121.502 Y132.232 E.0308
G1 X122.275 Y131.578 E.03173
G1 X122.908 Y130.746 E.03278
G1 X123.377 Y129.781 E.03366
G1 X123.662 Y128.73 E.03415
G1 X123.751 Y127.751 E.0308
G1 X123.631 Y126.576 E.03704
G1 X123.354 Y125.698 E.02884
G1 X123.155 Y125.334 E.01303
;WIDTH:0.455186
G1 X123.003 Y125.048 E.01111
;WIDTH:0.490373
G1 X122.85 Y124.762 E.01206
G1 X122.524 Y124.368 E.01901
;WIDTH:0.45935
G1 X112.734 Y111.828 E.55088
;WIDTH:0.465364
G1 X112.667 Y111.751 E.00358
M73 P2 R26
M73 Q2 S26
G1 X112.089 Y111.653 E.02058
;WIDTH:0.419999
G1 X111.725 Y111.778 E.01209
;WIDTH:0.469998
G1 X111.572 Y111.956 E.00832
;WIDTH:0.519997
G1 X111.42 Y112.134 E.00929
;WIDTH:0.569996
G1 X111.268 Y112.312 E.01027
G1 X111.243 Y111.889 E.01855
;WIDTH:0.519997
G1 X111.219 Y111.467 E.01679
;WIDTH:0.469998
G1 X111.195 Y111.044 E.01503
;WIDTH:0.444514
G1 X111.211 Y109.592 E.0485
;WIDTH:0.48957
G1 X111.234 Y109.482 E.00418
;WIDTH:0.534625
G1 X111.256 Y109.371 E.0046
;WIDTH:0.57968
G1 X111.279 Y109.261 E.00503
G1 X111.339 Y109.343 E.00453
;WIDTH:0.534625
G1 X111.4 Y109.425 E.00415
;WIDTH:0.48957
G1 X111.46 Y109.506 E.00377
;WIDTH:0.444514
G1 X112.363 Y110.644 E.0485
;WIDTH:0.419999
G1 X112.382 Y110.668 E.00097
;WIDTH:0.45935
G1 X113.062 Y111.572 E.03917
G1 X122.852 Y124.112 E.55088
;WIDTH:0.492805
G1 X123.204 Y124.486 E.01923
G1 X123.421 Y124.655 E.01025
;WIDTH:0.456402
G1 X123.637 Y124.823 E.00942
;WIDTH:0.419999
G1 X124.346 Y125.189 E.02501
G1 X124.75 Y125.283 E.01301
G1 X125.468 Y125.373 E.02271
G1 X126.419 Y125.206 E.03025
G1 X127.301 Y124.775 E.0308
G1 X128.074 Y124.122 E.03173
G1 X128.707 Y123.29 E.03278
G1 X129.176 Y122.325 E.03366
G1 X129.462 Y121.273 E.03415
G1 X129.552 Y120.264 E.03176
G1 X129.428 Y119.112 E.03634
G1 X129.21 Y118.455 E.02171
G1 X129.708 Y118.692 E.01729
G1 X130.454 Y118.815 E.02371
G1 X130.877 Y118.779 E.01331
G1 X131.547 Y118.655 E.02137
G1 X132.397 Y118.239 E.02967
G1 X133.14 Y117.611 E.03052
G1 X133.748 Y116.811 E.0315
G1 X134.198 Y115.883 E.03232
G1 X134.472 Y114.874 E.03279
G1 X134.556 Y113.938 E.02945
G1 X134.439 Y112.8 E.03588
G1 X134.195 Y112.05 E.02474
G1 X134.619 Y112.249 E.01469
G1 X135.397 Y112.379 E.02474
G1 X135.886 Y112.333 E.01541
G1 X136.524 Y112.213 E.02035
G1 X137.407 Y111.782 E.0308
G1 X138.18 Y111.129 E.03173
G1 X138.813 Y110.297 E.03278
G1 X139.282 Y109.332 E.03366
G1 X139.567 Y108.28 E.03415
G1 X139.656 Y107.302 E.03081
G1 X139.536 Y106.127 E.03704
G1 X139.259 Y105.249 E.02884
G1 X139.06 Y104.885 E.01303
;WIDTH:0.455187
G1 X138.908 Y104.599 E.01111
;WIDTH:0.490374
G1 X138.755 Y104.312 E.01206
G1 X138.429 Y103.919 E.01901
;WIDTH:0.459349
M73 P2 R25
G1 X128.271 Y90.907 E.57161
G1 X127.647 Y90.14 E.03422
;WIDTH:0.419999
G1 X127.31 Y89.708 E.01718
;WIDTH:0.4636
G1 X127.16 Y89.614 E.0062
;WIDTH:0.507201
G1 X127.01 Y89.519 E.00684
;WIDTH:0.550802
G1 X126.86 Y89.425 E.00748
;WIDTH:0.553154
G1 X118.418 Y89.48 E.35816
;WIDTH:0.553743
G1 X117.776 Y89.529 E.02736
;WIDTH:0.549281
G1 X117.625 Y89.606 E.00713
;WIDTH:0.506187
G1 X117.474 Y89.683 E.00652
;WIDTH:0.463093
G1 X117.323 Y89.759 E.00592
;WIDTH:0.419999
G1 X117.162 Y89.959 E.00805
G1 X116.966 Y89.739 E.00923
;WIDTH:0.467564
G1 X116.836 Y89.661 E.00535
;WIDTH:0.515128
G1 X116.706 Y89.583 E.00595
;WIDTH:0.562692
G1 X116.576 Y89.505 E.00655
G1 X115.075 Y89.496 E.06487
;WIDTH:0.550654
G1 X111.954 Y89.515 E.13178
;WIDTH:0.585997
G1 X111.704 Y89.549 E.01136
G1 X111.317 Y90.144 E.03209
G1 X111.327 Y89.029 E.05038
G1 X111.951 Y89.007 E.02815
;WIDTH:0.550711
G1 X115.076 Y88.988 E.13196
;WIDTH:0.562692
G1 X116.577 Y88.985 E.06487
G1 X116.773 Y88.96 E.00855
;WIDTH:0.515128
G1 X116.969 Y88.935 E.00777
;WIDTH:0.467564
G1 X117.165 Y88.91 E.00698
;WIDTH:0.468821
G1 X117.402 Y88.933 E.00843
;WIDTH:0.517643
G1 X117.639 Y88.956 E.0094
;WIDTH:0.566464
G1 X117.876 Y88.979 E.01037
G1 X118.415 Y88.969 E.02345
;WIDTH:0.553154
G1 X126.857 Y88.917 E.35816
;WIDTH:0.550803
G1 X127.262 Y88.893 E.01714
;WIDTH:0.507202
G1 X127.666 Y88.869 E.01565
;WIDTH:0.463611
G1 X128.071 Y88.844 E.01418
G1 X128.439 Y88.864 E.01287
;WIDTH:0.507223
G1 X128.806 Y88.884 E.01421
;WIDTH:0.550835
G1 X129.174 Y88.903 E.01554
;WIDTH:0.550983
G1 X136.857 Y88.857 E.32458
;WIDTH:0.56246
G1 X138.426 Y88.853 E.06779
G1 X138.622 Y88.828 E.00857
;WIDTH:0.514973
G1 X138.819 Y88.803 E.00779
;WIDTH:0.467486
G1 X139.016 Y88.778 E.007
;WIDTH:0.468911
G1 X139.25 Y88.801 E.00833
;WIDTH:0.517823
G1 X139.484 Y88.824 E.00929
;WIDTH:0.566734
G1 X139.718 Y88.847 E.01024
G1 X140.261 Y88.837 E.02366
;WIDTH:0.553436
G1 X147.193 Y88.794 E.29426
;WIDTH:0.551213
G1 X147.208 Y88.794 E.00062
;WIDTH:0.559937
G1 X148.299 Y88.792 E.04694
G1 X148.503 Y88.768 E.00882
;WIDTH:0.513291
G1 X148.707 Y88.743 E.00802
;WIDTH:0.466645
G1 X148.91 Y88.718 E.00723
;WIDTH:0.464733
G1 X149.054 Y88.74 E.00508
;WIDTH:0.509467
G1 X149.197 Y88.761 E.00561
;WIDTH:0.554201
G1 X149.34 Y88.783 E.00615
;WIDTH:0.598935
G1 X149.483 Y88.804 E.00669
G1 X149.893 Y88.79 E.01898
;WIDTH:0.575648
G1 X150.824 Y88.776 E.04122
;WIDTH:0.558082
G1 X153.677 Y88.755 E.12223
;WIDTH:0.550762
G1 X153.886 Y88.732 E.00889
;WIDTH:0.507175
G1 X154.091 Y88.709 E.00795
;WIDTH:0.463587
G1 X154.295 Y88.686 E.0072
;WIDTH:0.419999
G1 X156.871 Y88.669 E.08077
G1 X157.846 Y88.595 E.03064
G1 X157.529 Y88.918 E.01417
G1 X156.864 Y89.746 E.03332
G1 X111.902 Y147.554 E2.29621
G1 X111.12 Y148.6 E.04095
M204 S1000
;WIPE_START
G1 F8640
G1 X111.113 Y147.886 E-.165
G1 X111.119 Y145.309 E-.595
;WIPE_END
G1 E-.04 F2100
G1 Z.6 F720
G1 X110.531 Y150.256 F10800
G1 Z.2 F720
G1 E.8 F2100
M204 S800
;TYPE:External perimeter
G1 F1200
G1 X110.562 Y149.698 E.01751
G1 X110.687 Y148.898 E.02541
G1 X110.727 Y148.398 E.01571
G1 X110.736 Y147.887 E.01601
G1 X110.868 Y88.571 E1.85982
G1 X156.349 Y88.296 E1.42604
G1 X157.291 Y88.259 E.02955
M73 P3 R25
M73 Q3 S26
G1 X157.852 Y88.216 E.01765
G1 X158.351 Y88.086 E.01616
