; generated by PrusaSlicer 2.5.0+MacOS-x64 on 2023-05-23 at 09:37:06 UTC


;
;
; 

; external perimeters extrusion width = 0.60mm
; perimeters extrusion width = 0.50mm
; infill extrusion width = 0.50mm
; solid infill extrusion width = 0.50mm
; top infill extrusion width = 0.45mm
; first layer extrusion width = 0.42mm

M73 P0 R74
M73 Q0 S75
M201 X1000 Y1000 Z200 E5000 ; sets maximum accelerations, mm/sec^2
M203 X200 Y200 Z12 E120 ; sets maximum feedrates, mm / sec
M204 P1250 R1250 T1250 ; sets acceleration (P, T) and retract acceleration (R), mm/sec^2
M205 X8.00 Y8.00 Z0.40 E4.50 ; sets the jerk limits, mm/sec
M205 S0 T0 ; sets the minimum extruding and travel feed rate, mm/sec
M107
;TYPE:Custom
M862.3 P "MK3S" ; printer model check
M862.1 P0.4 ; nozzle diameter check
M115 U3.11.0 ; tell printer latest fw version
G90 ; use absolute coordinates
M83 ; extruder relative mode
M104 S215 ; set extruder temp
M140 S60 ; set bed temp
M190 S60 ; wait for bed temp
M109 S215 ; wait for extruder temp
G28 W ; home all without mesh bed level
G80 ; mesh bed leveling

G1 Z0.2 F720
G1 Y-3 F1000 ; go outside print area
G92 E0
G1 X60 E9 F1000 ; intro line
G1 X100 E12.5 F1000 ; intro line

G92 E0
M221 S95

; Don't change E values below. Excessive value can damage the printer.

M907 E538 ; set extruder motor current
G21 ; set units to millimeters
G90 ; use absolute coordinates
M83 ; use relative distances for extrusion
M900 K0.05 ; Filament gcode LA 1.5
M900 K30 ; Filament gcode LA 1.0
M107
;LAYER_CHANGE
;Z:0.2
;HEIGHT:0.2
;BEFORE_LAYER_CHANGE
G92 E0.0
;0.2


G1 E-.8 F2100
G1 Z.4 F720
;AFTER_LAYER_CHANGE
;0.2
G1 X85.99 Y53.091 F10800
G1 Z.2 F720
G1 E.8 F2100
M204 S800
;TYPE:Skirt/Brim
;WIDTH:0.42
G1 F1200
G1 X105.004 Y34.078 E.8431
G1 X106.685 Y33.382 E.05704
G1 X143.684 Y33.382 E1.16008
G1 X145.364 Y34.078 E.05704
G1 X163.772 Y52.486 E.81624
G1 X164.469 Y54.162 E.05691
G1 X164.721 Y184.94 E4.10046
G1 X164.332 Y186.248 E.04278
M73 Q0 S74
G1 X163.288 Y187.126 E.04278
G1 X162.344 Y187.322 E.03023
G1 X88.095 Y187.322 E2.32803
G1 X86.788 Y186.93 E.04278
G1 X85.912 Y185.884 E.04278
G1 X85.718 Y184.956 E.02973
G1 X85.294 Y98.022 E2.72581
G1 X85.294 Y54.772 E1.35605
G1 X85.967 Y53.147 E.05516
M204 S1000
; printing object physical model 13.stl id:0 copy 0
;WIPE_START
G1 F8640
G1 X88.292 Y50.817 E-.76
;WIPE_END
G1 E-.04 F2100
G1 Z.6 F720
G1 X88.88 Y184.158 F10800
G1 Z.2 F720
G1 E.8 F2100
M204 S800
;TYPE:Perimeter
;WIDTH:0.419999
G1 F1200
G1 X88.607 Y98.295 E2.69217
G1 X88.592 Y97.664 E.01978
G1 X88.458 Y97.557 E.00538
G1 X88.458 Y55.098 E1.33127
G1 X107.011 Y36.546 E.82265
G1 X143.358 Y36.546 E1.13963
G1 X161.305 Y54.493 E.7958
G1 X161.305 Y97.235 E1.34015
G1 X161.281 Y97.79 E.01743
G1 X161.554 Y184.158 E2.70799
G1 X88.94 Y184.158 E2.27678
M204 S1000
M73 P1 R73
M73 Q1 S74
G1 X88.504 Y184.535 F10800
M204 S800
;TYPE:External perimeter
G1 F1200
G1 X88.229 Y97.785 E2.72
G1 X88.081 Y97.633 E.00664
G1 X88.081 Y54.942 E1.33853
G1 X106.854 Y36.169 E.83245
G1 X143.514 Y36.169 E1.14943
G1 X161.682 Y54.336 E.80559
G1 X161.682 Y97.235 E1.34505
G1 X161.658 Y97.789 E.01739
G1 X161.933 Y184.535 E2.71986
G1 X88.564 Y184.535 E2.30043
M204 S1000
G1 X88.595 Y184.145 F10800
;WIPE_START
G1 F8640
G1 X88.551 Y181.243 E-.76
;WIPE_END
G1 E-.04 F2100
G1 Z.6 F720
G1 X92.906 Y60.285 F10800
G1 Z.2 F720
G1 E.8 F2100
M204 S800
;WIDTH:0.380538
G1 F1200
G1 X93.081 Y59.946 E.0107
;WIDTH:0.38292
G1 X93.212 Y59.481 E.01366
G1 X93.235 Y59.547 E.00199
;WIDTH:0.379046
G1 X93.448 Y60.066 E.01566
;WIDTH:0.380538
G1 X92.962 Y60.263 E.01472
M204 S1000
;WIPE_START
G1 F8640
G1 X93.081 Y59.946 E-.07804
G1 X93.212 Y59.481 E-.11159
G1 X93.235 Y59.547 E-.01628
G1 X93.448 Y60.066 E-.12937
G1 X92.962 Y60.263 E-.12111
;WIPE_END
G1 E-.34362 F2100
G1 Z.6 F720
G1 X112.033 Y41.802 F10800
G1 Z.2 F720
G1 E.8 F2100
M204 S800
;WIDTH:0.38292
G1 F1200
G1 X111.454 Y41.561 E.01774
G1 X111.858 Y41.459 E.01178
;WIDTH:0.380983
G1 X112.253 Y41.246 E.01261
G1 X112.249 Y41.286 E.00111
;WIDTH:0.379051
G1 X112.056 Y41.747 E.01398
M204 S1000
;WIPE_START
G1 F8640
G1 X111.454 Y41.561 E-.14554
G1 X111.858 Y41.459 E-.09618
G1 X112.253 Y41.246 E-.10356
G1 X112.249 Y41.286 E-.00915
G1 X112.056 Y41.747 E-.11551
;WIPE_END
G1 E-.33006 F2100
G1 Z.6 F720
G1 X138.637 Y41.792 F10800
G1 Z.2 F720
G1 E.8 F2100
M204 S800
;WIDTH:0.380982
G1 F1200
G1 X138.607 Y41.817 E.00111
;WIDTH:0.379048
G1 X138.088 Y42.03 E.01566
;WIDTH:0.38292
G1 X137.85 Y41.449 E.01774
G1 X138.208 Y41.663 E.01178
;WIDTH:0.380982
G1 X138.58 Y41.775 E.01092
M204 S1000
;WIPE_START
G1 F8640
G1 X138.607 Y41.817 E-.01162
G1 X138.088 Y42.03 E-.12936
G1 X137.85 Y41.449 E-.14488
G1 X138.208 Y41.663 E-.09618
G1 X138.58 Y41.775 E-.08971
;WIPE_END
G1 E-.32825 F2100
G1 Z.6 F720
G1 X156.593 Y60.033 F10800
G1 Z.2 F720
M73 Q1 S73
G1 E.8 F2100
M204 S800
;WIDTH:0.38292
G1 F1200
G1 X156.695 Y60.439 E.01184
;WIDTH:0.383592
G1 X156.903 Y60.838 E.01274
G1 X156.87 Y60.828 E.001
;WIDTH:0.381538
G1 X156.351 Y60.615 E.01578
;WIDTH:0.38292
G1 X156.57 Y60.089 E.0161
M204 S1000
;WIPE_START
G1 F8640
G1 X156.695 Y60.439 E-.08597
G1 X156.903 Y60.838 E-.10388
G1 X156.87 Y60.828 E-.00815
G1 X156.351 Y60.615 E-.12938
G1 X156.57 Y60.089 E-.13153
;WIPE_END
G1 E-.34109 F2100
G1 Z.6 F720
G1 X156.124 Y86.67 F10800
G1 Z.2 F720
G1 E.8 F2100
M204 S800
G1 F1200
G1 X156.706 Y86.43 E.0178
G1 X156.491 Y86.789 E.01184
;WIDTH:0.383561
G1 X156.356 Y87.218 E.01274
G1 X156.34 Y87.187 E.001
;WIDTH:0.381513
G1 X156.147 Y86.725 E.01409
M204 S1000
;WIPE_START
G1 F8640
G1 X156.706 Y86.43 E-.14599
G1 X156.491 Y86.789 E-.0967
G1 X156.356 Y87.218 E-.10386
G1 X156.34 Y87.187 E-.00813
G1 X156.147 Y86.725 E-.11553
;WIPE_END
G1 E-.32979 F2100
G1 Z.6 F720
G1 X137.316 Y105.485 F10800
G1 Z.2 F720
G1 E.8 F2100
M204 S800
;WIDTH:0.383651
G1 F1200
G1 X137.326 Y105.451 E.001
;WIDTH:0.381597
G1 X137.539 Y104.933 E.01578
;WIDTH:0.38292
G1 X138.118 Y105.175 E.01774
G1 X137.715 Y105.277 E.01178
;WIDTH:0.383651
G1 X137.369 Y105.457 E.01104
M204 S1000
;WIPE_START
G1 F8640
G1 X137.326 Y105.451 E-.00991
G1 X137.539 Y104.933 E-.12938
G1 X138.118 Y105.175 E-.14488
G1 X137.715 Y105.277 E-.09618
G1 X137.369 Y105.457 E-.09001
;WIPE_END
G1 E-.32964 F2100
G1 Z.6 F720
G1 X110.966 Y104.919 F10800
G1 Z.2 F720
G1 E.8 F2100
M204 S800
;WIDTH:0.379054
G1 F1200
G1 X111.484 Y104.706 E.01566
;WIDTH:0.38292
G1 X111.722 Y105.286 E.01774
G1 X111.365 Y105.073 E.01178
;WIDTH:0.380985
G1 X110.955 Y104.95 E.01204
M204 S1000
;WIPE_START
G1 F8640
G1 X111.484 Y104.706 E-.13457
G1 X111.722 Y105.286 E-.14488
G1 X111.365 Y105.073 E-.09618
G1 X110.955 Y104.95 E-.09887
;WIPE_END
G1 E-.3255 F2100
G1 Z.6 F720
G1 X92.993 Y86.659 F10800
G1 Z.2 F720
G1 E.8 F2100
M204 S800
;WIDTH:0.380539
G1 F1200
G1 X92.877 Y86.296 E.0107
;WIDTH:0.38292
G1 X92.64 Y85.875 E.01366
G1 X92.704 Y85.905 E.002
;WIDTH:0.379045
G1 X93.221 Y86.121 E.01566
;WIDTH:0.380539
G1 X93.016 Y86.604 E.01473
M204 S1000
;WIPE_START
G1 F8640
G1 X92.877 Y86.296 E-.07804
G1 X92.64 Y85.875 E-.1116
G1 X92.704 Y85.905 E-.01629
G1 X93.221 Y86.121 E-.12935
G1 X93.016 Y86.604 E-.12112
;WIPE_END
G1 E-.34359 F2100
G1 Z.6 F720
G1 X139.755 Y42.083 F10800
G1 Z.2 F720
G1 E.8 F2100
M204 S800
;TYPE:Perimeter
;WIDTH:0.419999
G1 F1200
G1 X140.437 Y42.659 E.028
G1 X141.052 Y43.262 E.02701
G1 X144.322 Y46.587 E.14622
G1 X144.448 Y46.783 E.0073
G1 X144.482 Y47.292 E.016
G1 X144.99 Y47.335 E.016
G1 X145.184 Y47.464 E.00729
G1 X150.407 Y52.779 E.23367
G1 X150.532 Y52.974 E.00724
G1 X150.567 Y53.484 E.01604
G1 X151.077 Y53.528 E.01604
G1 X151.269 Y53.656 E.00725
G1 X155.642 Y58.11 E.1957
G1 X156.018 Y58.533 E.01774
G1 X156.334 Y59.002 E.01776
G1 X156.49 Y58.557 E.01479
G1 X156.809 Y58.165 E.01585
G1 X157.273 Y57.865 E.01732
G1 X157.835 Y57.692 E.01845
G1 X158.412 Y57.677 E.01807
G1 X158.97 Y57.811 E.018
G1 X159.474 Y58.086 E.01799
G1 X159.889 Y58.481 E.01799
G1 X160.188 Y58.971 E.01799
G1 X160.351 Y59.521 E.01799
G1 X160.365 Y60.095 E.01799
G1 X160.23 Y60.653 E.01799
G1 X159.956 Y61.156 E.01799
G1 X159.56 Y61.572 E.018
G1 X159.066 Y61.87 E.01808
G1 X158.497 Y62.021 E.01846
G1 X158.299 Y62.029 E.00621
G1 X157.881 Y61.973 E.01323
G1 X157.493 Y61.83 E.01298
G1 X157.567 Y62.72 E.02799
G1 X157.575 Y63.581 E.027
G1 X157.537 Y68.245 E.14623
G1 X157.494 Y68.458 E.0068
G1 X157.368 Y68.644 E.00704
G1 X157.152 Y68.856 E.00951
G1 X157.364 Y69.073 E.00951
G1 X157.51 Y69.334 E.00939
G1 X157.526 Y69.474 E.00441
G1 X157.461 Y76.927 E.23367
G1 X157.419 Y77.137 E.00672
G1 X157.292 Y77.325 E.00712
G1 X157.076 Y77.538 E.00951
G1 X157.288 Y77.754 E.00951
G1 X157.435 Y78.018 E.00946
G1 X157.451 Y78.156 E.00435
G1 X157.393 Y84.397 E.1957
G1 X157.36 Y84.962 E.01773
G1 X157.258 Y85.487 E.01677
G1 X157.69 Y85.311 E.01463
G1 X158.203 Y85.261 E.01616
G1 X158.721 Y85.377 E.01663
G1 X159.24 Y85.653 E.01843
G1 X159.658 Y86.049 E.01807
G1 X159.958 Y86.539 E.018
G1 X160.12 Y87.09 E.01799
G1 X160.134 Y87.663 E.01799
G1 X159.999 Y88.221 E.01799
G1 X159.725 Y88.725 E.01799
G1 X159.33 Y89.14 E.01799
G1 X158.84 Y89.44 E.01799
G1 X158.289 Y89.602 E.01799
G1 X157.715 Y89.616 E.018
G1 X157.156 Y89.478 E.01808
G1 X156.647 Y89.182 E.01845
G1 X156.501 Y89.048 E.00621
G1 X156.245 Y88.712 E.01322
G1 X156.071 Y88.337 E.01298
G1 X155.495 Y89.019 E.028
G1 X154.892 Y89.633 E.027
G1 X151.567 Y92.904 E.14622
G1 X151.364 Y93.032 E.00751
G1 X150.862 Y93.064 E.01578
G1 X150.822 Y93.565 E.01578
G1 X150.69 Y93.765 E.00751
G1 X145.375 Y98.989 E.23367
G1 X145.181 Y99.114 E.00723
G1 X144.67 Y99.149 E.01605
G1 X144.626 Y99.659 E.01605
G1 X144.498 Y99.851 E.00724
G1 X140.044 Y104.223 E.1957
G1 X139.621 Y104.6 E.01773
G1 X139.151 Y104.916 E.01776
G1 X139.597 Y105.072 E.0148
G1 X139.989 Y105.39 E.01585
G1 X140.289 Y105.854 E.01732
G1 X140.462 Y106.417 E.01846
G1 X140.477 Y106.993 E.01807
G1 X140.343 Y107.551 E.018
G1 X140.068 Y108.055 E.01799
G1 X139.673 Y108.471 E.01799
G1 X139.183 Y108.77 E.01799
G1 X138.633 Y108.932 E.01799
G1 X138.059 Y108.947 E.01799
G1 X137.501 Y108.812 E.01799
G1 X136.997 Y108.538 E.01799
G1 X136.582 Y108.142 E.018
G1 X136.283 Y107.648 E.01808
G1 X136.133 Y107.079 E.01846
G1 X136.125 Y106.881 E.00621
G1 X136.181 Y106.463 E.01322
G1 X136.323 Y106.074 E.01298
G1 X135.434 Y106.149 E.028
G1 X134.573 Y106.157 E.02699
G1 X129.909 Y106.119 E.14623
G1 X129.678 Y106.068 E.0074
G1 X129.297 Y105.733 E.01589
G1 X128.911 Y106.061 E.01589
G1 X128.68 Y106.108 E.0074
G1 X121.227 Y106.043 E.23367
G1 X120.997 Y105.992 E.0074
G1 X120.616 Y105.657 E.01588
G1 X120.23 Y105.985 E.01588
G1 X119.998 Y106.032 E.00741
G1 X113.757 Y105.975 E.1957
G1 X113.192 Y105.942 E.01773
G1 X112.636 Y105.834 E.01776
G1 X112.841 Y106.259 E.0148
G1 X112.893 Y106.762 E.01585
G1 X112.777 Y107.302 E.01732
G1 X112.501 Y107.822 E.01845
G1 X112.105 Y108.24 E.01808
G1 X111.647 Y108.521 E.01682
G1 X111.064 Y108.702 E.01914
G1 X110.491 Y108.716 E.01799
G1 X109.933 Y108.581 E.01799
G1 X109.429 Y108.307 E.01799
G1 X109.013 Y107.911 E.01799
G1 X108.714 Y107.422 E.01799
G1 X108.552 Y106.871 E.01799
G1 X108.538 Y106.297 E.018
G1 X108.676 Y105.737 E.01808
G1 X108.972 Y105.229 E.01845
G1 X109.107 Y105.083 E.00622
G1 X109.442 Y104.827 E.01323
G1 X109.817 Y104.653 E.01297
G1 X109.136 Y104.077 E.02797
G1 X108.521 Y103.473 E.02703
G1 X105.25 Y100.149 E.14623
G1 X105.124 Y99.952 E.00731
G1 X105.09 Y99.444 E.01599
G1 X104.582 Y99.401 E.01599
G1 X104.388 Y99.272 E.0073
G1 X99.165 Y93.956 E.23367
G1 X99.036 Y93.753 E.00754
G1 X99.005 Y93.251 E.01575
G1 X98.504 Y93.211 E.01575
G1 X98.303 Y93.079 E.00755
G1 X93.931 Y88.625 E.1957
G1 X93.554 Y88.203 E.01773
G1 X93.238 Y87.733 E.01776
G1 X93.082 Y88.179 E.01479
G1 X92.764 Y88.571 E.01585
G1 X92.299 Y88.871 E.01732
G1 X91.737 Y89.044 E.01845
G1 X91.161 Y89.059 E.01808
G1 X90.602 Y88.924 E.018
G1 X90.099 Y88.65 E.01799
G1 X89.683 Y88.254 E.01799
G1 X89.384 Y87.765 E.01799
G1 X89.212 Y87.17 E.01939
G1 X89.207 Y86.641 E.01661
G1 X89.342 Y86.083 E.01799
G1 X89.616 Y85.579 E.01799
G1 X90.012 Y85.163 E.018
G1 X90.506 Y84.865 E.01808
G1 X91.075 Y84.715 E.01845
G1 X91.273 Y84.706 E.00621
G1 X91.691 Y84.763 E.01322
G1 X92.079 Y84.905 E.01299
G1 X92.005 Y84.015 E.028
G1 X91.997 Y83.154 E.02701
G1 X92.035 Y78.491 E.14622
G1 X92.081 Y78.272 E.007
G1 X92.421 Y77.879 E.01628
G1 X92.088 Y77.48 E.01628
G1 X92.046 Y77.261 E.00699
G1 X92.111 Y69.809 E.23367
G1 X92.156 Y69.593 E.00691
M73 Q2 S73
G1 X92.28 Y69.411 E.00693
G1 X92.496 Y69.198 E.00951
G1 X92.284 Y68.981 E.00951
G1 X92.13 Y68.683 E.01053
G1 X92.122 Y68.58 E.00324
G1 X92.179 Y62.338 E.1957
G1 X92.212 Y61.774 E.01774
M73 P2 R73
G1 X92.32 Y61.218 E.01776
G1 X91.895 Y61.423 E.01479
G1 X91.392 Y61.475 E.01585
G1 X90.852 Y61.358 E.01732
G1 X90.332 Y61.083 E.01846
G1 X89.914 Y60.686 E.01807
G1 X89.614 Y60.196 E.018
G1 X89.452 Y59.646 E.01799
G1 X89.438 Y59.072 E.01799
G1 X89.573 Y58.515 E.01799
G1 X89.847 Y58.011 E.01799
G1 X90.243 Y57.595 E.01799
G1 X90.732 Y57.296 E.01799
G1 X91.283 Y57.134 E.01799
G1 X91.857 Y57.12 E.018
G1 X92.417 Y57.258 E.01808
G1 X92.925 Y57.554 E.01846
G1 X93.071 Y57.688 E.00621
G1 X93.327 Y58.023 E.01322
G1 X93.501 Y58.399 E.01298
G1 X94.077 Y57.717 E.02799
G1 X94.68 Y57.103 E.02699
G1 X98.005 Y53.832 E.14624
G1 X98.211 Y53.702 E.00763
G1 X98.71 Y53.672 E.01567
G1 X98.749 Y53.174 E.01567
G1 X98.882 Y52.97 E.00763
G1 X104.198 Y47.746 E.23367
G1 X104.402 Y47.618 E.00758
G1 X104.902 Y47.587 E.01571
G1 X104.942 Y47.087 E.01571
G1 X105.074 Y46.885 E.00758
G1 X109.189 Y42.842 E.18086
G1 X109.961 Y42.129 E.03298
G1 X110.421 Y41.82 E.01735
G1 X109.975 Y41.664 E.0148
G1 X109.505 Y41.245 E.01975
G1 X109.219 Y40.731 E.01843
G1 X109.091 Y40.169 E.01807
G1 X109.115 Y39.596 E.018
G1 X109.272 Y39.076 E.01701
G1 X109.595 Y38.564 E.01899
G1 X110.017 Y38.176 E.01799
G1 X110.526 Y37.91 E.01799
G1 X111.081 Y37.785 E.01784
G1 X111.659 Y37.809 E.01814
G1 X112.207 Y37.981 E.01799
G1 X112.691 Y38.289 E.018
G1 X113.081 Y38.715 E.01808
G1 X113.332 Y39.188 E.0168
G1 X113.439 Y39.657 E.01508
G1 X113.401 Y40.201 E.01711
G1 X113.308 Y40.501 E.00984
G1 X113.198 Y40.673 E.00641
G1 X113.715 Y40.6 E.01638
G1 X114.602 Y40.577 E.0278
G1 X119.663 Y40.617 E.1587
G1 X119.867 Y40.656 E.0065
G1 X120.062 Y40.786 E.00734
G1 X120.275 Y41.002 E.00951
G1 X120.491 Y40.79 E.00951
G1 X120.79 Y40.636 E.01053
G1 X120.892 Y40.627 E.00323
G1 X128.345 Y40.692 E.23367
G1 X128.546 Y40.731 E.00643
G1 X128.743 Y40.862 E.00741
G1 X128.956 Y41.078 E.00951
G1 X129.172 Y40.865 E.00951
G1 X129.471 Y40.712 E.01053
G1 X129.574 Y40.703 E.00324
G1 X135.815 Y40.761 E.1957
G1 X136.38 Y40.793 E.01773
G1 X136.936 Y40.902 E.01776
G1 X136.731 Y40.477 E.01479
G1 X136.679 Y39.974 E.01585
G1 X136.796 Y39.434 E.01732
G1 X137.071 Y38.914 E.01845
G1 X137.468 Y38.496 E.01807
G1 X137.957 Y38.196 E.018
G1 X138.508 Y38.034 E.01799
G1 X139.081 Y38.02 E.01799
G1 X139.639 Y38.154 E.01799
G1 X140.143 Y38.429 E.01799
G1 X140.559 Y38.824 E.01799
G1 X140.858 Y39.314 E.01799
G1 X141.02 Y39.864 E.01799
G1 X141.034 Y40.438 E.018
G1 X140.896 Y40.998 E.01808
G1 X140.6 Y41.507 E.01845
G1 X140.466 Y41.653 E.00621
G1 X140.131 Y41.908 E.01323
G1 X139.809 Y42.057 E.0111
M204 S1000
;WIPE_START
G1 F8640
G1 X140.437 Y42.659 E-.20074
G1 X141.052 Y43.262 E-.19889
G1 X142.146 Y44.375 E-.36037
;WIPE_END
G1 E-.04 F2100
G1 Z.6 F720
G1 X138.825 Y41.836 F10800
G1 Z.2 F720
G1 E.8 F2100
M204 S800
;TYPE:External perimeter
G1 F1200
G1 X139.183 Y42.172 E.01539
G1 X139.624 Y42.459 E.01651
G1 X140.307 Y43.044 E.0282
G1 X144.053 Y46.851 E.16746
G1 X144.107 Y46.985 E.00453
G1 X144.101 Y47.666 E.02134
G1 X144.782 Y47.672 E.02134
G1 X144.915 Y47.728 E.00452
G1 X150.138 Y53.044 E.23367
G1 X150.192 Y53.177 E.00452
G1 X150.187 Y53.858 E.02134
G1 X150.867 Y53.864 E.02134
G1 X151 Y53.92 E.00453
G1 X155.372 Y58.374 E.1957
G1 X155.71 Y58.75 E.01584
G1 X156.229 Y59.522 E.02916
G1 X156.555 Y59.884 E.01528
;WIDTH:0.395572
G1 X156.595 Y60.005 E.00373
;WIDTH:0.419999
G1 X156.576 Y59.62 E.0121
G1 X156.756 Y58.856 E.0246
G1 X157.056 Y58.452 E.01577
G1 X157.519 Y58.166 E.01707
G1 X157.982 Y58.05 E.01495
G1 X158.457 Y58.061 E.01492
G1 X158.914 Y58.194 E.01492
G1 X159.321 Y58.441 E.01492
G1 X159.65 Y58.785 E.01492
G1 X159.879 Y59.202 E.01492
