; generated by PrusaSlicer 2.5.0+MacOS-x64 on 2023-05-23 at 14:43:03 UTC


;
;
; 

; external perimeters extrusion width = 0.60mm
; perimeters extrusion width = 0.50mm
; infill extrusion width = 0.50mm
; solid infill extrusion width = 0.50mm
; top infill extrusion width = 0.45mm
; first layer extrusion width = 0.42mm

; external perimeters extrusion width = 0.60mm
; perimeters extrusion width = 0.50mm
; infill extrusion width = 0.50mm
; solid infill extrusion width = 0.50mm
; top infill extrusion width = 0.45mm
; first layer extrusion width = 0.42mm

M73 P0 R23
M73 Q0 S23
M201 X1000 Y1000 Z200 E5000 ; sets maximum accelerations, mm/sec^2
M203 X200 Y200 Z12 E120 ; sets maximum feedrates, mm / sec
M204 P1250 R1250 T1250 ; sets acceleration (P, T) and retract acceleration (R), mm/sec^2
M205 X8.00 Y8.00 Z0.40 E4.50 ; sets the jerk limits, mm/sec
M205 S0 T0 ; sets the minimum extruding and travel feed rate, mm/sec
M107
;TYPE:Custom
M862.3 P "MK3S" ; printer model check
M862.1 P0.4 ; nozzle diameter check
M115 U3.11.0 ; tell printer latest fw version
G90 ; use absolute coordinates
M83 ; extruder relative mode
M104 S215 ; set extruder temp
M140 S60 ; set bed temp
M190 S60 ; wait for bed temp
M109 S215 ; wait for extruder temp
G28 W ; home all without mesh bed level
G80 ; mesh bed leveling

G1 Z0.2 F720
G1 Y-3 F1000 ; go outside print area
G92 E0
G1 X60 E9 F1000 ; intro line
G1 X100 E12.5 F1000 ; intro line

G92 E0
M221 S95

; Don't change E values below. Excessive value can damage the printer.

M907 E538 ; set extruder motor current
G21 ; set units to millimeters
G90 ; use absolute coordinates
M83 ; use relative distances for extrusion
M900 K0.05 ; Filament gcode LA 1.5
M900 K30 ; Filament gcode LA 1.0
M107
;LAYER_CHANGE
;Z:0.2
;HEIGHT:0.2
;BEFORE_LAYER_CHANGE
G92 E0.0
;0.2


G1 E-.8 F2100
G1 Z.4 F720
;AFTER_LAYER_CHANGE
;0.2
G1 X82.225 Y81.486 F10800
G1 Z.2 F720
G1 E.8 F2100
M204 S800
;TYPE:Skirt/Brim
;WIDTH:0.42
G1 F1200
G1 X83.268 Y80.607 E.04278
G1 X84.216 Y80.41 E.03035
G1 X141.032 Y80.452 E1.78142
G1 X142.711 Y81.148 E.05699
G1 X192.711 Y131.148 E2.21708
G1 X193.358 Y132.349 E.04278
G1 X193.239 Y133.708 E.04278
G1 X192.391 Y134.777 E.04278
G1 X191.028 Y135.206 E.04479
G1 X134.212 Y135.164 E1.78142
M73 Q1 S23
G1 X84.345 Y134.931 E1.56357
M73 P1 R23
G1 X83.04 Y134.533 E.04278
G1 X82.169 Y133.484 E.04278
G1 X81.979 Y132.561 E.02953
G1 X81.837 Y82.794 E1.5604
G1 X82.208 Y81.544 E.0409
M204 S1000
; printing object physical model 13.stl id:0 copy 0
;WIPE_START
G1 F8640
G1 X83.268 Y80.607 E-.32671
G1 X84.216 Y80.41 E-.22348
G1 X85.125 Y80.411 E-.20981
;WIPE_END
G1 E-.04 F2100
G1 Z.6 F720
G1 X86.16 Y87.977 F10800
G1 Z.2 F720
G1 E.8 F2100
M204 S800
;TYPE:Perimeter
;WIDTH:0.419999
G1 F1200
G1 X86.086 Y87.966 E.00234
G1 X85.603 Y88.105 E.01577
;WIDTH:0.466262
G1 X85.48 Y88.241 E.00645
;WIDTH:0.512525
G1 X85.356 Y88.376 E.00715
;WIDTH:0.558788
G1 X85.233 Y88.512 E.00786
;WIDTH:0.60505
G1 X85.11 Y88.648 E.00856
G1 X85.086 Y88.404 E.01146
;WIDTH:0.558788
G1 X85.063 Y88.16 E.01052
;WIDTH:0.512525
G1 X85.039 Y87.916 E.00957
;WIDTH:0.466262
M73 P1 R22
G1 X85.015 Y87.672 E.00863
;WIDTH:0.419999
G1 X85.009 Y85.756 E.06008
G1 X84.957 Y84.574 E.0371
G1 X85.075 Y84.723 E.00596
G1 X85.771 Y85.457 E.0317
G1 X131.543 Y131.229 E2.02961
G1 X132.392 Y132.022 E.03645
G1 X131.227 Y131.987 E.03656
G1 X129.319 Y131.978 E.05983
;WIDTH:0.467946
G1 X129.104 Y131.953 E.00765
;WIDTH:0.515892
G1 X128.889 Y131.928 E.00851
;WIDTH:0.563838
G1 X128.674 Y131.903 E.00938
;WIDTH:0.611784
G1 X128.459 Y131.878 E.01024
G1 X128.566 Y131.756 E.00767
;WIDTH:0.563838
G1 X128.673 Y131.635 E.00702
;WIDTH:0.515892
G1 X128.781 Y131.513 E.00638
;WIDTH:0.467946
G1 X128.888 Y131.392 E.00573
;WIDTH:0.419999
G1 X129.027 Y130.908 E.0158
G1 X128.986 Y130.618 E.00916
G1 X128.78 Y130.37 E.01014
G1 X127.955 Y129.837 E.0308
G1 X127.042 Y129.507 E.03042
G1 X126.057 Y129.406 E.03104
G1 X125.304 Y129.499 E.0238
G1 X124.851 Y129.681 E.01529
G1 X125.056 Y129.188 E.01672
G1 X125.15 Y128.488 E.02215
G1 X125.15 Y128.238 E.00784
G1 X125.04 Y127.414 E.02608
G1 X124.718 Y126.566 E.02844
G1 X124.215 Y125.802 E.02869
G1 X123.556 Y125.162 E.02881
G1 X122.775 Y124.679 E.02878
G1 X121.905 Y124.382 E.02882
G1 X120.97 Y124.299 E.02944
G1 X120.262 Y124.393 E.02237
G1 X119.77 Y124.596 E.01671
G1 X119.942 Y124.177 E.01421
G1 X120.048 Y123.4 E.0246
G1 X120.034 Y123.124 E.00866
G1 X119.927 Y122.335 E.02496
G1 X119.594 Y121.454 E.02954
G1 X119.071 Y120.66 E.02981
G1 X118.386 Y119.994 E.02994
G1 X117.575 Y119.492 E.02991
G1 X116.672 Y119.182 E.02992
G1 X115.705 Y119.095 E.03044
G1 X114.821 Y119.227 E.02803
G1 X113.976 Y119.589 E.02882
G1 X113.341 Y120.108 E.02572
;WIDTH:0.371734
G1 X102.958 Y130.452 E.4007
;WIDTH:0.377083
G1 X102.896 Y130.522 E.00262
;WIDTH:0.419999
M73 P2 R22
M73 Q2 S23
G1 X102.817 Y131.05 E.01674
G1 X102.93 Y131.324 E.00926
;WIDTH:0.465462
G1 X103.06 Y131.434 E.00599
;WIDTH:0.510924
G1 X103.19 Y131.545 E.00664
;WIDTH:0.556386
G1 X103.32 Y131.655 E.00728
;WIDTH:0.601848
G1 X103.45 Y131.765 E.00793
G1 X103.231 Y131.787 E.01023
;WIDTH:0.556386
G1 X103.012 Y131.809 E.0094
;WIDTH:0.510924
G1 X102.792 Y131.831 E.00857
;WIDTH:0.465462
G1 X102.573 Y131.852 E.00774
;WIDTH:0.419999
G1 X101.62 Y131.848 E.0299
;WIDTH:0.467943
G1 X101.512 Y131.823 E.00391
;WIDTH:0.515887
G1 X101.404 Y131.799 E.00435
;WIDTH:0.563831
G1 X101.296 Y131.774 E.00479
;WIDTH:0.611774
G1 X101.188 Y131.75 E.00523
G1 X101.26 Y131.687 E.00452
;WIDTH:0.563831
G1 X101.332 Y131.624 E.00414
;WIDTH:0.515887
G1 X101.404 Y131.561 E.00376
;WIDTH:0.467943
G1 X101.476 Y131.498 E.00338
;WIDTH:0.419999
G1 X102.726 Y130.219 E.05608
;WIDTH:0.371734
G1 X113.109 Y119.875 E.4007
;WIDTH:0.378361
G1 X113.162 Y119.819 E.00214
;WIDTH:0.419999
G1 X113.705 Y119.107 E.0281
G1 X114.031 Y118.253 E.02866
G1 X114.132 Y117.341 E.02876
G1 X114.009 Y116.417 E.0292
G1 X113.676 Y115.536 E.02954
G1 X113.153 Y114.742 E.02981
G1 X112.468 Y114.076 E.02994
G1 X111.657 Y113.574 E.02991
G1 X110.755 Y113.265 E.02993
G1 X109.784 Y113.178 E.03055
G1 X109.044 Y113.277 E.0234
G1 X108.622 Y113.449 E.01429
G1 X108.826 Y112.959 E.01665
G1 X108.914 Y112.307 E.02064
G1 X108.921 Y112.011 E.00929
G1 X108.81 Y111.185 E.02613
G1 X108.489 Y110.336 E.02844
G1 X107.985 Y109.573 E.02869
G1 X107.326 Y108.932 E.02881
G1 X106.545 Y108.45 E.02878
G1 X105.675 Y108.152 E.02882
G1 X104.74 Y108.069 E.02944
G1 X104.033 Y108.164 E.02237
G1 X103.54 Y108.367 E.01671
G1 X103.713 Y107.948 E.01421
G1 X103.818 Y107.17 E.0246
G1 X103.804 Y106.894 E.00866
G1 X103.698 Y106.106 E.02496
G1 X103.364 Y105.224 E.02954
G1 X102.841 Y104.43 E.02981
G1 X102.157 Y103.764 E.02994
G1 X101.346 Y103.262 E.02991
G1 X100.443 Y102.953 E.02992
G1 X99.476 Y102.866 E.03044
G1 X98.592 Y102.997 E.02803
G1 X97.747 Y103.36 E.02882
G1 X97.114 Y103.876 E.02562
;WIDTH:0.371737
G1 X86.727 Y114.225 E.40089
;WIDTH:0.419999
G1 X85.447 Y115.465 E.05588
;WIDTH:0.466266
G1 X85.382 Y115.566 E.00421
;WIDTH:0.512533
G1 X85.318 Y115.667 E.00467
;WIDTH:0.5588
G1 X85.253 Y115.767 E.00513
;WIDTH:0.605066
G1 X85.188 Y115.868 E.00559
G1 X85.165 Y115.731 E.0065
;WIDTH:0.5588
G1 X85.141 Y115.594 E.00597
;WIDTH:0.512533
G1 X85.118 Y115.457 E.00543
;WIDTH:0.466266
G1 X85.094 Y115.319 E.0049
;WIDTH:0.419999
G1 X85.091 Y114.375 E.02962
;WIDTH:0.468765
G1 X85.115 Y114.184 E.00681
;WIDTH:0.517531
G1 X85.139 Y113.993 E.00759
;WIDTH:0.566297
G1 X85.163 Y113.803 E.00837
;WIDTH:0.615062
G1 X85.187 Y113.612 E.00915
G1 X85.296 Y113.713 E.00709
;WIDTH:0.566297
G1 X85.405 Y113.815 E.00649
;WIDTH:0.517531
G1 X85.514 Y113.917 E.00588
;WIDTH:0.468765
G1 X85.623 Y114.018 E.00528
;WIDTH:0.419999
G1 X85.896 Y114.131 E.00926
G1 X86.495 Y113.992 E.01926
;WIDTH:0.371734
G1 X96.879 Y103.645 E.40079
;WIDTH:0.37836
G1 X96.932 Y103.59 E.00214
;WIDTH:0.419999
G1 X97.476 Y102.877 E.0281
G1 X97.801 Y102.023 E.02867
G1 X97.902 Y101.111 E.02876
G1 X97.78 Y100.188 E.0292
G1 X97.447 Y99.307 E.02954
G1 X96.924 Y98.513 E.02981
G1 X96.239 Y97.847 E.02994
G1 X95.428 Y97.345 E.02991
G1 X94.525 Y97.035 E.02993
G1 X93.554 Y96.948 E.03055
G1 X92.815 Y97.047 E.02341
G1 X92.393 Y97.22 E.01428
G1 X92.596 Y96.73 E.01664
G1 X92.685 Y96.077 E.02064
G1 X92.691 Y95.781 E.00929
G1 X92.581 Y94.955 E.02613
G1 X92.259 Y94.107 E.02844
G1 X91.755 Y93.343 E.02869
G1 X91.096 Y92.703 E.02881
G1 X90.316 Y92.22 E.02878
G1 X89.446 Y91.923 E.02882
G1 X88.511 Y91.84 E.02944
G1 X87.803 Y91.934 E.02237
G1 X87.308 Y92.138 E.01678
G1 X87.491 Y91.688 E.01522
G1 X87.586 Y90.923 E.02417
G1 X87.58 Y90.684 E.00751
G1 X87.453 Y89.817 E.02747
G1 X87.099 Y88.927 E.03004
G1 X86.624 Y88.214 E.02684
G1 X86.376 Y88.008 E.01014
G1 X86.219 Y87.985 E.00494
M204 S1000
;WIPE_START
G1 F8640
G1 X86.086 Y87.966 E-.03107
G1 X85.603 Y88.105 E-.11616
G1 X85.48 Y88.241 E-.0423
G1 X85.356 Y88.376 E-.0423
G1 X85.233 Y88.512 E-.0423
G1 X85.11 Y88.648 E-.0423
G1 X85.086 Y88.404 E-.05661
G1 X85.063 Y88.16 E-.05661
G1 X85.039 Y87.916 E-.05661
G1 X85.015 Y87.672 E-.05661
G1 X85.012 Y86.731 E-.21713
;WIPE_END
G1 E-.04 F2100
G1 Z.6 F720
G1 X85.132 Y94.039 F10800
G1 Z.2 F720
G1 E.8 F2100
M204 S800
;WIDTH:0.616782
G1 F1200
G1 X85.114 Y93.886 E.00736
;WIDTH:0.573831
G1 X85.097 Y93.732 E.00681
;WIDTH:0.53088
G1 X85.079 Y93.579 E.00626
;WIDTH:0.487929
G1 X85.061 Y93.426 E.00571
;WIDTH:0.444978
G1 X85.044 Y93.272 E.00516
;WIDTH:0.402027
G1 X85.026 Y93.119 E.00461
;WIDTH:0.4072
G1 X85.046 Y93.053 E.00208
;WIDTH:0.455324
G1 X85.065 Y92.988 E.00235
;WIDTH:0.503448
G1 X85.085 Y92.922 E.00263
;WIDTH:0.551572
G1 X85.104 Y92.856 E.0029
;WIDTH:0.599696
G1 X85.124 Y92.79 E.00318
;WIDTH:0.64782
G1 X85.143 Y92.724 E.00345
G1 X85.162 Y92.77 E.00249
;WIDTH:0.613854
G1 X85.18 Y92.816 E.00235
;WIDTH:0.579888
G1 X85.199 Y92.862 E.00221
;WIDTH:0.545922
G1 X85.233 Y92.91 E.00249
;WIDTH:0.499211
G1 X85.268 Y92.959 E.00225
;WIDTH:0.452499
G1 X85.302 Y93.007 E.00202
;WIDTH:0.405787
G1 X85.337 Y93.055 E.00179
;WIDTH:0.396652
G1 X85.364 Y93.127 E.00225
;WIDTH:0.434229
G1 X85.392 Y93.198 E.00249
;WIDTH:0.471806
G1 X85.42 Y93.269 E.00273
G1 X85.657 Y93.373 E.00923
G1 X85.406 Y93.592 E.01188
;WIDTH:0.520132
G1 X85.315 Y93.741 E.00694
;WIDTH:0.568457
G1 X85.223 Y93.89 E.00764
;WIDTH:0.616782
G1 X85.163 Y93.988 E.00548
M204 S1000
;WIPE_START
G1 F8640
G1 X85.114 Y93.886 E-.02616
G1 X85.097 Y93.732 E-.03562
G1 X85.079 Y93.579 E-.03562
G1 X85.061 Y93.426 E-.03562
G1 X85.044 Y93.272 E-.03562
G1 X85.026 Y93.119 E-.03562
G1 X85.046 Y93.053 E-.01586
G1 X85.065 Y92.988 E-.01586
G1 X85.085 Y92.922 E-.01586
G1 X85.104 Y92.856 E-.01586
G1 X85.124 Y92.79 E-.01586
G1 X85.143 Y92.724 E-.01586
G1 X85.162 Y92.77 E-.01143
G1 X85.18 Y92.816 E-.01143
G1 X85.199 Y92.862 E-.01142
G1 X85.233 Y92.91 E-.01372
G1 X85.268 Y92.959 E-.01372
G1 X85.302 Y93.007 E-.01372
G1 X85.337 Y93.055 E-.01372
G1 X85.364 Y93.127 E-.01765
G1 X85.392 Y93.198 E-.01765
G1 X85.42 Y93.269 E-.01765
G1 X85.657 Y93.373 E-.05977
G1 X85.406 Y93.592 E-.0769
G1 X85.315 Y93.741 E-.04036
G1 X85.223 Y93.89 E-.04036
G1 X85.163 Y93.988 E-.0265
;WIPE_END
G1 E-.11458 F2100
G1 Z.6 F720
G1 X86.131 Y88.341 F10800
G1 Z.2 F720
G1 E.8 F2100
M204 S800
;TYPE:External perimeter
;WIDTH:0.419999
G1 F1200
G1 X86.287 Y88.395 E.00517
G1 X86.785 Y89.136 E.028
G1 X87.1 Y89.951 E.0274
G1 X87.206 Y90.732 E.02472
G1 X87.124 Y91.585 E.02685
;WIDTH:0.433565
G1 X86.815 Y92.313 E.0257
G1 X86.737 Y92.454 E.00523
;WIDTH:0.433296
G1 X86.324 Y92.881 E.01929
;WIDTH:0.418375
G1 X86.207 Y92.986 E.00491
;WIDTH:0.419999
G1 X85.815 Y93.029 E.01235
G1 X85.697 Y92.977 E.00404
G1 X85.639 Y92.847 E.00448
G1 X85.634 Y92.708 E.00437
G1 X85.601 Y91.727 E.03078
G1 X85.58 Y88.646 E.09658
G1 X85.713 Y88.466 E.00704
G1 X86.074 Y88.358 E.0118
M204 S1000
G1 X86.221 Y88.202 F10800
;WIPE_START
G1 F8640
G1 X86.287 Y88.395 E-.04997
G1 X86.785 Y89.136 E-.20622
G1 X87.1 Y89.951 E-.20177
G1 X87.206 Y90.732 E-.18207
G1 X87.156 Y91.249 E-.11998
;WIPE_END
G1 E-.04 F2100
G1 Z.6 F720
G1 X85.47 Y103.254 F10800
G1 Z.2 F720
G1 E.8 F2100
M204 S800
;TYPE:Perimeter
;WIDTH:0.488589
G1 F1200
G1 X85.488 Y103.318 E.00246
G1 X85.678 Y103.457 E.00872
G1 X85.459 Y103.633 E.0104
;WIDTH:0.536893
G1 X85.362 Y103.782 E.0073
;WIDTH:0.585197
G1 X85.266 Y103.931 E.00801
;WIDTH:0.6335
G1 X85.169 Y104.08 E.00872
G1 X85.144 Y103.869 E.01043
;WIDTH:0.585894
G1 X85.12 Y103.658 E.00959
;WIDTH:0.538287
G1 X85.095 Y103.447 E.00875
;WIDTH:0.490681
G1 X85.071 Y103.236 E.00791
;WIDTH:0.443074
G1 X85.047 Y103.025 E.00707
;WIDTH:0.395467
G1 X85.029 Y102.519 E.01484
;WIDTH:0.408802
G1 X85.052 Y102.453 E.00214
;WIDTH:0.453907
G1 X85.074 Y102.386 E.0024
;WIDTH:0.499012
G1 X85.096 Y102.32 E.00266
;WIDTH:0.544117
G1 X85.119 Y102.253 E.00293
;WIDTH:0.589222
G1 X85.141 Y102.186 E.00319
;WIDTH:0.634326
G1 X85.164 Y102.12 E.00345
G1 X85.194 Y102.183 E.00345
;WIDTH:0.589222
G1 X85.225 Y102.246 E.00319
;WIDTH:0.544117
G1 X85.256 Y102.309 E.00293
;WIDTH:0.499012
G1 X85.287 Y102.372 E.00266
;WIDTH:0.453907
G1 X85.318 Y102.435 E.0024
;WIDTH:0.408802
G1 X85.349 Y102.498 E.00214
;WIDTH:0.395467
G1 X85.398 Y103.002 E.01484
;WIDTH:0.442028
G1 X85.443 Y103.16 E.00545
;WIDTH:0.488589
G1 X85.453 Y103.196 E.0014
M204 S1000
G1 X85.802 Y103.053 F10800
M204 S800
;TYPE:External perimeter
;WIDTH:0.420039
G1 F1200
G1 X85.76 Y102.956 E.00333
G1 X85.695 Y102.454 E.01586
;WIDTH:0.419999
G1 X85.625 Y101.902 E.01742
G1 X85.607 Y94.038 E.24659
G1 X85.678 Y93.889 E.00516
G1 X86.277 Y93.394 E.02436
;WIDTH:0.418375
G1 X86.59 Y93.145 E.01249
;WIDTH:0.433296
G1 X87.014 Y92.729 E.01929
;WIDTH:0.433565
G1 X87.131 Y92.631 E.00496
G1 X87.746 Y92.349 E.02198
;WIDTH:0.419999
G1 X88.56 Y92.214 E.02588
G1 X89.406 Y92.298 E.02665
G1 X90.187 Y92.575 E.02598
G1 X90.893 Y93.021 E.02618
G1 X91.489 Y93.61 E.02627
G1 X91.942 Y94.31 E.02614
G1 X92.226 Y95.083 E.02583
G1 X92.317 Y95.825 E.02342
G1 X92.223 Y96.679 E.02695
;WIDTH:0.432839
G1 X91.897 Y97.399 E.02563
G1 X91.271 Y98.033 E.0289
;WIDTH:0.423118
G1 X86.258 Y103.034 E.22385
;WIDTH:0.420039
G1 X86.167 Y103.119 E.00389
G1 X85.979 Y103.149 E.00598
G1 X85.855 Y103.082 E.00442
M204 S1000
G1 X85.699 Y103.076 F10800
;WIPE_START
G1 F8640
G1 X85.76 Y102.956 E-.03651
G1 X85.695 Y102.454 E-.11681
G1 X85.625 Y101.902 E-.12832
G1 X85.62 Y99.831 E-.47836
;WIPE_END
G1 E-.04 F2100
G1 Z.6 F720
G1 X86.04 Y113.782 F10800
G1 Z.2 F720
G1 E.8 F2100
M204 S800
;WIDTH:0.419999
G1 F1200
G1 X85.768 Y113.67 E.00926
G1 X85.651 Y113.496 E.00656
G1 X85.628 Y105.139 E.26203
G1 X85.652 Y104.092 E.03285
M73 Q2 S22
G1 X85.723 Y103.949 E.00497
G1 X86.524 Y103.301 E.03233
;WIDTH:0.423042
G1 X91.532 Y98.31 E.22347
;WIDTH:0.433548
G1 X92.066 Y97.799 E.02401
G1 X92.808 Y97.438 E.02678
;WIDTH:0.419999
G1 X93.604 Y97.322 E.02525
G1 X94.485 Y97.41 E.02776
G1 X95.3 Y97.699 E.02709
G1 X96.036 Y98.164 E.02731
G1 X96.657 Y98.779 E.0274
G1 X97.129 Y99.51 E.02727
G1 X97.425 Y100.316 E.02694
G1 X97.528 Y101.155 E.02649
G1 X97.427 Y101.975 E.0259
G1 X97.126 Y102.736 E.02566
G1 X96.63 Y103.395 E.02588
G1 X86.245 Y113.742 E.45962
G1 X86.099 Y113.771 E.00468
M204 S1000
G1 X85.892 Y114.038 F10800
G1 X85.187 Y113.612
M204 S800
;TYPE:Perimeter
;WIDTH:0.615062
G1 F1200
G1 X85.181 Y113.497 E.00546
;WIDTH:0.605404
G1 X85.158 Y105.145 E.39063
;WIDTH:0.605636
G1 X85.158 Y105.128 E.00082
;WIDTH:0.6335
G1 X85.169 Y104.08 E.05145
M204 S1000
;WIPE_START
G1 F8640
G1 X85.158 Y105.128 E-.24191
G1 X85.158 Y105.145 E-.00404
G1 X85.164 Y107.372 E-.51405
;WIPE_END
G1 E-.04 F2100
G1 Z.6 F720
G1 X85.534 Y125.512 F10800
G1 Z.2 F720
G1 E.8 F2100
M204 S800
;WIDTH:0.489003
G1 F1200
G1 X85.552 Y125.573 E.00236
G1 X85.741 Y125.712 E.00869
G1 X85.524 Y125.889 E.01041
;WIDTH:0.53772
G1 X85.427 Y126.038 E.00729
;WIDTH:0.586436
G1 X85.33 Y126.186 E.00801
;WIDTH:0.635152
G1 X85.233 Y126.335 E.00873
G1 X85.209 Y126.124 E.01045
;WIDTH:0.587214
G1 X85.184 Y125.913 E.00961
;WIDTH:0.539276
G1 X85.16 Y125.702 E.00876
;WIDTH:0.491338
G1 X85.135 Y125.491 E.00791
;WIDTH:0.4434
G1 X85.11 Y125.281 E.00707
;WIDTH:0.395461
G1 X85.093 Y124.78 E.01469
;WIDTH:0.408867
G1 X85.115 Y124.713 E.00214
;WIDTH:0.453934
G1 X85.138 Y124.647 E.0024
;WIDTH:0.499
G1 X85.16 Y124.58 E.00266
;WIDTH:0.544067
